; G-Code generated by Simplify3D(R) Version 3.1.0
; Sep 4, 2016 at 5:32:11 PM
; Settings Summary
;   processName,Process1
;   applyToModels,mount
;   profileName,Wanhao Duplicator 6
;   profileVersion,2016-08-10 08:00:00
;   baseProfile,
;   printMaterial,ABS
;   printQuality,Medium
;   printExtruders,
;   extruderName,Primary Extruder
;   extruderToolheadNumber,0
;   extruderDiameter,0.4
;   extruderAutoWidth,0
;   extruderWidth,0.4
;   extrusionMultiplier,1
;   extruderUseRetract,1
;   extruderRetractionDistance,1.5
;   extruderExtraRestartDistance,0
;   extruderRetractionZLift,0
;   extruderRetractionSpeed,2400
;   extruderUseCoasting,1
;   extruderCoastingDistance,0.2
;   extruderUseWipe,0
;   extruderWipeDistance,2
;   primaryExtruder,0
;   layerHeight,0.15
;   topSolidLayers,4
;   bottomSolidLayers,3
;   perimeterOutlines,2
;   printPerimetersInsideOut,1
;   startPointOption,2
;   startPointOriginX,0
;   startPointOriginY,0
;   startPointOriginZ,300
;   sequentialIslands,0
;   spiralVaseMode,0
;   firstLayerHeightPercentage,130
;   firstLayerWidthPercentage,100
;   firstLayerUnderspeed,0.3
;   useRaft,0
;   raftExtruder,0
;   raftLayers,3
;   raftOffset,3
;   raftSeparationDistance,0.14
;   raftInfill,85
;   disableRaftBaseLayers,0
;   useSkirt,1
;   skirtExtruder,0
;   skirtLayers,1
;   skirtOutlines,2
;   skirtOffset,4
;   usePrimePillar,0
;   primePillarExtruder,999
;   primePillarWidth,12
;   primePillarLocation,7
;   primePillarSpeedMultiplier,1
;   useOozeShield,0
;   oozeShieldExtruder,999
;   oozeShieldOffset,2
;   oozeShieldOutlines,1
;   oozeShieldSidewallShape,1
;   oozeShieldSidewallAngle,30
;   oozeShieldSpeedMultiplier,1
;   infillExtruder,0
;   internalInfillPattern,Rectilinear
;   externalInfillPattern,Rectilinear
;   infillPercentage,20
;   outlineOverlapPercentage,35
;   infillExtrusionWidthPercentage,125
;   minInfillLength,3
;   infillLayerInterval,1
;   infillAngles,45,-45
;   overlapInfillAngles,0
;   generateSupport,0
;   supportExtruder,0
;   supportInfillPercentage,30
;   supportExtraInflation,0
;   denseSupportLayers,0
;   denseSupportInfillPercentage,70
;   supportLayerInterval,1
;   supportHorizontalPartOffset,0.3
;   supportUpperSeparationLayers,1
;   supportLowerSeparationLayers,1
;   supportType,0
;   supportGridSpacing,4
;   maxOverhangAngle,45
;   supportAngles,0
;   temperatureName,Primary Extruder,Heated Build Platform
;   temperatureNumber,0,1
;   temperatureSetpointCount,1,1
;   temperatureSetpointLayers,1,1
;   temperatureSetpointTemperatures,230,100
;   temperatureStabilizeAtStartup,1,1
;   temperatureHeatedBed,0,1
;   temperatureRelayBetweenLayers,0,0
;   temperatureRelayBetweenLoops,0,0
;   fanLayers,1
;   fanSpeeds,0
;   blipFanToFullPower,1
;   adjustSpeedForCooling,1
;   minSpeedLayerTime,15
;   minCoolingSpeedSlowdown,20
;   increaseFanForCooling,1
;   minFanLayerTime,10
;   maxCoolingFanSpeed,30
;   increaseFanForBridging,1
;   bridgingFanSpeed,45
;   use5D,1
;   relativeEdistances,0
;   allowEaxisZeroing,1
;   independentExtruderAxes,0
;   includeM10123,0
;   stickySupport,1
;   applyToolheadOffsets,0
;   gcodeXoffset,0
;   gcodeYoffset,0
;   gcodeZoffset,0
;   overrideMachineDefinition,1
;   machineTypeOverride,0
;   strokeXoverride,200
;   strokeYoverride,200
;   strokeZoverride,175
;   originOffsetXoverride,0
;   originOffsetYoverride,0
;   originOffsetZoverride,0
;   homeXdirOverride,-1
;   homeYdirOverride,-1
;   homeZdirOverride,-1
;   flipXoverride,1
;   flipYoverride,-1
;   flipZoverride,1
;   toolheadOffsets,0,0|0,0|0,0|0,0|0,0|0,0
;   overrideFirmwareConfiguration,1
;   firmwareTypeOverride,RepRap (Marlin/Repetier/Sprinter)
;   GPXconfigOverride,r2
;   baudRateOverride,250000
;   overridePrinterModels,1
;   printerModelsOverride
;   startingGcode,G28 ; home all axes,G92 E0 ; zero the extruded length,G1 Z10 ; lower,G1 E20 F200 ; purge nozzle quickly,G1 E10 F60 ; purge nozzle slowly,G92 E0 ; zero the extruded length again,G1 E-1.5 F400 ; retract,G1 X170 Z0 F9000 ; pull away filament,G1 X180 F9000 ; wipe,G1 Y20 F9000 ; wipe,G1 E0 ; feed filament back
;   layerChangeGcode,
;   retractionGcode,
;   toolChangeGcode,
;   endingGcode,G28 X0 ; home the X-axis,M104 S0 ; turn off heaters,M140 S0 ; turn off bed,M84 ; disable motors
;   exportFileFormat,gcode
;   celebration,0
;   celebrationSong,Random Song
;   postProcessing,
;   defaultSpeed,2500
;   outlineUnderspeed,0.65
;   solidInfillUnderspeed,0.7
;   supportUnderspeed,0.7
;   rapidXYspeed,6000
;   rapidZspeed,1000
;   minBridgingArea,5
;   bridgingExtraInflation,0
;   bridgingExtrusionMultiplier,1
;   bridgingSpeedMultiplier,0.5
;   filamentDiameter,1.75
;   filamentPricePerKg,46
;   filamentDensity,1.25
;   useMinPrintHeight,0
;   minPrintHeight,0
;   useMaxPrintHeight,0
;   maxPrintHeight,0
;   useDiaphragm,0
;   diaphragmLayerInterval,20
;   robustSlicing,1
;   mergeAllIntoSolid,0
;   onlyRetractWhenCrossingOutline,1
;   retractBetweenLayers,0
;   useRetractionMinTravel,1
;   retractionMinTravel,0.02
;   retractWhileWiping,0
;   onlyWipeOutlines,1
;   avoidCrossingOutline,0
;   maxMovementDetourFactor,3
;   toolChangeRetractionDistance,12
;   toolChangeExtraRestartDistance,-0.5
;   toolChangeRetractionSpeed,600
;   allowThinWallGapFill,1
;   thinWallAllowedOverlapPercentage,10
;   horizontalSizeCompensation,0
G90
M82
M106 S0
M140 S100
M190 S100
M104 S230 T0
M109 S230 T0
G28 ; home all axes
G92 E0 ; zero the extruded length
G1 Z10 ; lower
G1 E20 F200 ; purge nozzle quickly
G1 E10 F60 ; purge nozzle slowly
G92 E0 ; zero the extruded length again
G1 E-1.5 F400 ; retract
G1 X170 Z0 F9000 ; pull away filament
G1 X180 F9000 ; wipe
G1 Y20 F9000 ; wipe
G1 E0 ; feed filament back
G92 E0
G1 E-1.5000 F2400
G1 Z0.195 F1000
; layer 1, Z = 0.195
T0
; tool H0.195 W0.400
; skirt
G1 X66.027 Y57.363 F6000
G1 E0.0000 F720
G92 E0
G1 X68.539 Y54.851 E0.1152 F750
G1 X68.760 Y54.760 E0.1229
G1 X131.240 Y54.760 E2.1491
G1 X131.461 Y54.851 E2.1568
G1 X133.973 Y57.363 E2.2720
G1 X134.064 Y57.584 E2.2798
G1 X134.064 Y142.416 E5.0308
G1 X133.973 Y142.637 E5.0385
G1 X131.461 Y145.149 E5.1537
G1 X131.240 Y145.240 E5.1615
G1 X68.760 Y145.240 E7.1876
G1 X68.539 Y145.149 E7.1953
G1 X66.027 Y142.637 E7.3105
G1 X65.936 Y142.416 E7.3183
G1 X65.936 Y57.584 E10.0693
G1 X65.951 Y57.548 E10.0705
G1 X66.027 Y57.363 F750
G1 X66.366 Y57.590 F6000
G92 E0
G1 X68.766 Y55.190 E0.1100 F750
G1 X68.839 Y55.160 E0.1126
G1 X131.161 Y55.160 E2.1336
G1 X131.234 Y55.190 E2.1362
G1 X133.634 Y57.590 E2.2462
G1 X133.664 Y57.663 E2.2488
G1 X133.664 Y142.337 E4.9946
G1 X133.634 Y142.410 E4.9972
G1 X131.234 Y144.810 E5.1073
G1 X131.161 Y144.840 E5.1098
G1 X68.839 Y144.840 E7.1308
G1 X68.766 Y144.810 E7.1334
G1 X66.366 Y142.410 E7.2435
G1 X66.336 Y142.337 E7.2460
G1 X66.336 Y57.784 E9.9880
G1 X66.336 Y57.663 F750
G1 X66.366 Y57.590 F750
G92 E0
G1 E-1.5000 F2400
; inner perimeter
G1 X71.136 Y59.960 F6000
G1 E0.0000 F2400
G92 E0
G1 X128.864 Y59.960 E1.8720 F619
G1 X128.864 Y140.040 E4.4689
G1 X71.136 Y140.040 E6.3410
G1 X71.136 Y60.160 E8.9314
G1 X71.136 Y59.960 F619
; outer perimeter
G1 X70.736 Y59.560 F6000
G92 E0
G1 X129.264 Y59.560 E1.8980 F488
G1 X129.264 Y140.440 E4.5208
G1 X70.736 Y140.440 E6.4188
G1 X70.736 Y59.760 E9.0351
G1 X70.736 Y59.560 F488
; inner perimeter
G1 X97.981 Y96.990 F6000
G92 E0
G1 X97.665 Y97.250 E0.0133 F619
G1 X97.375 Y97.539 E0.0265
G1 X97.115 Y97.856 E0.0398
G1 X96.887 Y98.198 E0.0532
G1 X96.695 Y98.557 E0.0664
G1 X96.538 Y98.937 E0.0797
G1 X96.420 Y99.327 E0.0929
G1 X96.341 Y99.723 E0.1060
G1 X96.314 Y99.939 E0.1131
G1 X96.295 Y100.340 E0.1261
G1 X96.315 Y100.749 E0.1394
G1 X96.375 Y101.156 E0.1527
G1 X96.474 Y101.551 E0.1659
G1 X96.612 Y101.937 E0.1792
G1 X96.788 Y102.308 E0.1925
G1 X96.998 Y102.658 E0.2057
G1 X97.241 Y102.986 E0.2190
G1 X97.516 Y103.290 E0.2323
G1 X97.821 Y103.566 E0.2456
G1 X98.150 Y103.810 E0.2589
G1 X98.501 Y104.020 E0.2722
G1 X98.872 Y104.195 E0.2855
G1 X99.257 Y104.332 E0.2987
G1 X99.654 Y104.432 E0.3120
G1 X100.057 Y104.491 E0.3252
G1 X100.468 Y104.511 E0.3386
G1 X100.877 Y104.491 E0.3518
G1 X101.281 Y104.431 E0.3651
G1 X101.684 Y104.330 E0.3785
G1 X102.243 Y104.114 E0.3980
G1 X102.612 Y103.917 E0.4116
G1 X102.952 Y103.689 E0.4248
G1 X103.267 Y103.431 E0.4380
G1 X103.558 Y103.140 E0.4514
G1 X103.817 Y102.823 E0.4646
G1 X104.043 Y102.485 E0.4779
G1 X104.237 Y102.122 E0.4912
G1 X104.394 Y101.744 E0.5045
G1 X104.512 Y101.354 E0.5177
G1 X104.592 Y100.950 E0.5310
G1 X104.632 Y100.545 E0.5442
G1 X104.632 Y100.136 E0.5575
G1 X104.592 Y99.728 E0.5708
G1 X104.511 Y99.325 E0.5841
G1 X104.392 Y98.933 E0.5974
G1 X104.236 Y98.557 E0.6106
G1 X104.042 Y98.194 E0.6239
G1 X103.816 Y97.855 E0.6371
G1 X103.555 Y97.538 E0.6505
G1 X103.265 Y97.248 E0.6638
G1 X102.950 Y96.990 E0.6770
G1 X102.608 Y96.762 E0.6903
G1 X102.249 Y96.570 E0.7035
G1 X101.869 Y96.412 E0.7169
G1 X101.477 Y96.294 E0.7301
G1 X101.078 Y96.214 E0.7433
G1 X100.668 Y96.174 E0.7567
G1 X100.261 Y96.174 E0.7699
G1 X99.852 Y96.215 E0.7832
G1 X99.452 Y96.294 E0.7964
G1 X99.060 Y96.413 E0.8097
G1 X98.680 Y96.571 E0.8230
G1 X98.320 Y96.764 E0.8363
G1 X98.147 Y96.879 E0.8430
G1 X97.981 Y96.990 F619
; outer perimeter
G1 X98.220 Y97.312 F6000
G92 E0
G1 X97.934 Y97.546 E0.0120 F488
G1 X97.672 Y97.808 E0.0240
G1 X97.437 Y98.094 E0.0360
G1 X97.231 Y98.403 E0.0481
G1 X97.057 Y98.728 E0.0600
G1 X96.915 Y99.072 E0.0721
G1 X96.808 Y99.424 E0.0840
G1 X96.736 Y99.787 E0.0960
G1 X96.713 Y99.973 E0.1021
G1 X96.695 Y100.340 E0.1140
G1 X96.713 Y100.710 E0.1260
G1 X96.768 Y101.078 E0.1381
G1 X96.857 Y101.435 E0.1500
G1 X96.982 Y101.783 E0.1620
G1 X97.141 Y102.119 E0.1741
G1 X97.331 Y102.435 E0.1860
G1 X97.551 Y102.732 E0.1980
G1 X97.800 Y103.007 E0.2100
G1 X98.075 Y103.256 E0.2221
G1 X98.373 Y103.477 E0.2341
G1 X98.690 Y103.667 E0.2461
G1 X99.025 Y103.825 E0.2581
G1 X99.373 Y103.949 E0.2701
G1 X99.732 Y104.039 E0.2821
G1 X100.096 Y104.093 E0.2940
G1 X100.468 Y104.111 E0.3061
G1 X100.837 Y104.093 E0.3181
G1 X101.203 Y104.038 E0.3300
G1 X101.563 Y103.948 E0.3421
G1 X102.076 Y103.750 E0.3599
G1 X102.406 Y103.573 E0.3720
G1 X102.713 Y103.368 E0.3840
G1 X102.998 Y103.134 E0.3960
G1 X103.261 Y102.871 E0.4080
G1 X103.495 Y102.585 E0.4200
G1 X103.700 Y102.279 E0.4320
G1 X103.875 Y101.951 E0.4440
G1 X104.016 Y101.609 E0.4560
G1 X104.123 Y101.256 E0.4680
G1 X104.196 Y100.892 E0.4800
G1 X104.232 Y100.525 E0.4920
G1 X104.232 Y100.155 E0.5040
G1 X104.195 Y99.787 E0.5160
G1 X104.123 Y99.422 E0.5280
G1 X104.015 Y99.068 E0.5400
G1 X103.874 Y98.728 E0.5520
G1 X103.699 Y98.400 E0.5640
G1 X103.494 Y98.094 E0.5760
G1 X103.258 Y97.807 E0.5880
G1 X102.996 Y97.545 E0.6000
G1 X102.712 Y97.312 E0.6120
G1 X102.403 Y97.105 E0.6240
G1 X102.078 Y96.932 E0.6360
G1 X101.734 Y96.790 E0.6480
G1 X101.380 Y96.682 E0.6600
G1 X101.019 Y96.611 E0.6720
G1 X100.649 Y96.574 E0.6840
G1 X100.281 Y96.574 E0.6960
G1 X99.911 Y96.611 E0.7080
G1 X99.550 Y96.683 E0.7200
G1 X99.195 Y96.790 E0.7320
G1 X98.852 Y96.933 E0.7440
G1 X98.526 Y97.107 E0.7560
G1 X98.386 Y97.201 E0.7615
G1 X98.220 Y97.312 F488
G92 E0
G1 E-1.5000 F2400
; solid layer
G1 X104.696 Y99.039 F6000
G1 E0.0000 F2400
G92 E0
G1 X128.604 Y122.947 E1.0964 F525
G1 X128.604 Y123.513 E1.1148
G1 X104.857 Y99.765 E2.2039
G1 X104.892 Y100.123 E2.2155
G1 X104.892 Y100.366 E2.2234
G1 X128.604 Y124.078 E3.3109
G1 X128.604 Y124.644 E3.3292
G1 X104.858 Y100.898 E4.4182
G1 X104.849 Y100.988 E4.4212
G1 X104.772 Y101.378 E4.4340
G1 X128.604 Y125.210 E5.5270
G1 X128.604 Y125.776 E5.5453
G1 X104.644 Y101.815 E6.6442
G1 X104.639 Y101.831 E6.6447
G1 X104.479 Y102.217 E6.6582
G1 X128.604 Y126.341 E7.7646
G1 X128.604 Y126.907 E7.7830
G1 X104.284 Y102.587 E8.8983
G1 X104.267 Y102.618 E8.8995
G1 X104.060 Y102.928 E8.9116
G1 X128.604 Y127.473 E10.0372
G1 X128.604 Y128.038 E10.0555
G1 X103.809 Y103.243 E11.1927
G1 X103.751 Y103.315 E11.1957
G1 X103.533 Y103.533 E11.2057
G1 X128.604 Y128.604 E12.3555
G1 X128.604 Y129.170 E12.3738
G1 X103.231 Y103.797 E13.5374
G1 X103.107 Y103.898 E13.5426
G1 X102.903 Y104.035 E13.5506
G1 X128.604 Y129.735 E14.7292
G1 X128.604 Y130.301 E14.7476
G1 X102.549 Y104.246 E15.9425
G1 X102.351 Y104.351 E15.9498
G1 X102.162 Y104.424 E15.9564
G1 X128.604 Y130.867 E17.1690
G1 X128.604 Y131.432 E17.1874
G1 X101.752 Y104.581 E18.4188
G1 X101.332 Y104.686 E18.4329
G1 X101.297 Y104.691 E18.4340
G1 X128.604 Y131.998 E19.6863
G1 X128.604 Y132.564 E19.7047
G1 X100.796 Y104.755 E20.9800
G1 X100.468 Y104.772 E20.9906
G1 X100.235 Y104.760 E20.9982
G1 X128.604 Y133.129 E22.2992
G1 X128.604 Y133.695 E22.3176
G1 X99.735 Y104.826 E23.6416
G1 X99.593 Y104.684 F525
G1 X71.898 Y139.780 F6000
G92 E0
G1 X71.396 Y139.278 E0.0230 F525
G1 X71.396 Y138.713 E0.0414
G1 X72.463 Y139.780 E0.0903
G1 X73.029 Y139.780 E0.1087
G1 X71.396 Y138.147 E0.1835
G1 X71.396 Y137.581 E0.2019
G1 X73.595 Y139.780 E0.3027
G1 X74.160 Y139.780 E0.3211
G1 X71.396 Y137.016 E0.4479
G1 X71.396 Y136.450 E0.4662
G1 X74.726 Y139.780 E0.6189
G1 X75.292 Y139.780 E0.6373
G1 X71.396 Y135.884 E0.8159
G1 X71.396 Y135.318 E0.8343
G1 X75.858 Y139.780 E1.0389
G1 X76.423 Y139.780 E1.0572
G1 X71.396 Y134.753 E1.2878
G1 X71.396 Y134.187 E1.3061
G1 X76.989 Y139.780 E1.5626
G1 X77.555 Y139.780 E1.5810
G1 X71.396 Y133.621 E1.8634
G1 X71.396 Y133.056 E1.8818
G1 X78.120 Y139.780 E2.1901
G1 X78.686 Y139.780 E2.2085
G1 X71.396 Y132.490 E2.5428
G1 X71.396 Y131.924 E2.5612
G1 X79.252 Y139.780 E2.9214
G1 X79.817 Y139.780 E2.9398
G1 X71.396 Y131.359 E3.3260
G1 X71.396 Y130.793 E3.3443
G1 X80.383 Y139.780 E3.7565
G1 X80.949 Y139.780 E3.7748
G1 X71.396 Y130.227 E4.2129
G1 X71.396 Y129.662 E4.2313
G1 X81.514 Y139.780 E4.6953
G1 X82.080 Y139.780 E4.7136
G1 X71.396 Y129.096 E5.2036
G1 X71.396 Y128.530 E5.2220
G1 X82.646 Y139.780 E5.7379
G1 X83.211 Y139.780 E5.7562
G1 X71.396 Y127.965 E6.2981
G1 X71.396 Y127.399 E6.3165
G1 X83.777 Y139.780 E6.8843
G1 X84.343 Y139.780 E6.9026
G1 X71.396 Y126.833 E7.4964
G1 X71.396 Y126.267 E7.5147
G1 X84.909 Y139.780 E8.1344
G1 X85.474 Y139.780 E8.1528
G1 X71.396 Y125.702 E8.7984
G1 X71.396 Y125.136 E8.8167
G1 X86.040 Y139.780 E9.4883
G1 X86.606 Y139.780 E9.5067
G1 X71.396 Y124.570 E10.2042
G1 X71.396 Y124.005 E10.2225
G1 X87.171 Y139.780 E10.9460
G1 X87.737 Y139.780 E10.9643
G1 X71.396 Y123.439 E11.7138
G1 X71.396 Y122.873 E11.7321
G1 X88.303 Y139.780 E12.5075
G1 X88.868 Y139.780 E12.5258
G1 X71.396 Y122.308 E13.3271
G1 X71.396 Y121.742 E13.3454
G1 X89.434 Y139.780 E14.1727
G1 X90.000 Y139.780 E14.1910
G1 X71.396 Y121.176 E15.0442
G1 X71.396 Y120.611 E15.0626
G1 X90.565 Y139.780 E15.9417
G1 X91.131 Y139.780 E15.9600
G1 X71.396 Y120.045 E16.8651
G1 X71.396 Y119.479 E16.8834
G1 X91.697 Y139.780 E17.8144
G1 X92.262 Y139.780 E17.8328
G1 X71.396 Y118.914 E18.7897
G1 X71.396 Y118.348 E18.8081
G1 X92.828 Y139.780 E19.7910
G1 X93.394 Y139.780 E19.8093
G1 X71.396 Y117.782 E20.8182
G1 X71.396 Y117.217 E20.8365
G1 X93.959 Y139.780 E21.8713
G1 X94.525 Y139.780 E21.8896
G1 X71.396 Y116.651 E22.9504
G1 X71.396 Y116.085 E22.9687
G1 X95.091 Y139.780 E24.0554
G1 X95.657 Y139.780 E24.0737
G1 X71.396 Y115.519 E25.1863
G1 X71.396 Y114.954 E25.2047
G1 X96.222 Y139.780 E26.3432
G1 X96.788 Y139.780 E26.3616
G1 X71.396 Y114.388 E27.5261
G1 X71.396 Y113.822 E27.5444
G1 X97.354 Y139.780 E28.7349
G1 X97.919 Y139.780 E28.7532
G1 X71.396 Y113.257 E29.9696
G1 X71.396 Y112.691 E29.9879
G1 X98.485 Y139.780 E31.2303
G1 X99.051 Y139.780 E31.2486
G1 X71.396 Y112.125 E32.5169
G1 X71.396 Y111.560 E32.5352
G1 X99.616 Y139.780 E33.8294
G1 X100.182 Y139.780 E33.8478
G1 X71.396 Y110.994 E35.1679
G1 X71.396 Y110.428 E35.1863
G1 X100.748 Y139.780 E36.5324
G1 X101.313 Y139.780 E36.5507
G1 X71.396 Y109.863 E37.9228
G1 X71.396 Y109.297 E37.9411
G1 X101.879 Y139.780 E39.3391
G1 X102.445 Y139.780 E39.3574
G1 X71.396 Y108.731 E40.7814
G1 X71.396 Y108.166 E40.7997
G1 X103.010 Y139.780 E42.2496
G1 X103.576 Y139.780 E42.2679
G1 X71.396 Y107.600 E43.7437
G1 X71.396 Y107.034 E43.7621
G1 X104.142 Y139.780 E45.2638
G1 X104.707 Y139.780 E45.2822
G1 X71.396 Y106.468 E46.8099
G1 X71.396 Y105.903 E46.8282
G1 X105.273 Y139.780 E48.3819
