; G-Code generated by Simplify3D(R) Version 3.1.0
; Sep 4, 2016 at 5:32:23 PM
; Settings Summary
;   processName,Process1
;   applyToModels,newmount
;   profileName,Wanhao Duplicator 6
;   profileVersion,2016-08-10 08:00:00
;   baseProfile,
;   printMaterial,ABS
;   printQuality,Medium
;   printExtruders,
;   extruderName,Primary Extruder
;   extruderToolheadNumber,0
;   extruderDiameter,0.4
;   extruderAutoWidth,0
;   extruderWidth,0.4
;   extrusionMultiplier,1
;   extruderUseRetract,1
;   extruderRetractionDistance,1.5
;   extruderExtraRestartDistance,0
;   extruderRetractionZLift,0
;   extruderRetractionSpeed,2400
;   extruderUseCoasting,1
;   extruderCoastingDistance,0.2
;   extruderUseWipe,0
;   extruderWipeDistance,2
;   primaryExtruder,0
;   layerHeight,0.15
;   topSolidLayers,4
;   bottomSolidLayers,3
;   perimeterOutlines,2
;   printPerimetersInsideOut,1
;   startPointOption,2
;   startPointOriginX,0
;   startPointOriginY,0
;   startPointOriginZ,300
;   sequentialIslands,0
;   spiralVaseMode,0
;   firstLayerHeightPercentage,130
;   firstLayerWidthPercentage,100
;   firstLayerUnderspeed,0.3
;   useRaft,0
;   raftExtruder,0
;   raftLayers,3
;   raftOffset,3
;   raftSeparationDistance,0.14
;   raftInfill,85
;   disableRaftBaseLayers,0
;   useSkirt,1
;   skirtExtruder,0
;   skirtLayers,1
;   skirtOutlines,2
;   skirtOffset,4
;   usePrimePillar,0
;   primePillarExtruder,999
;   primePillarWidth,12
;   primePillarLocation,7
;   primePillarSpeedMultiplier,1
;   useOozeShield,0
;   oozeShieldExtruder,999
;   oozeShieldOffset,2
;   oozeShieldOutlines,1
;   oozeShieldSidewallShape,1
;   oozeShieldSidewallAngle,30
;   oozeShieldSpeedMultiplier,1
;   infillExtruder,0
;   internalInfillPattern,Rectilinear
;   externalInfillPattern,Rectilinear
;   infillPercentage,20
;   outlineOverlapPercentage,35
;   infillExtrusionWidthPercentage,125
;   minInfillLength,3
;   infillLayerInterval,1
;   infillAngles,45,-45
;   overlapInfillAngles,0
;   generateSupport,0
;   supportExtruder,0
;   supportInfillPercentage,30
;   supportExtraInflation,0
;   denseSupportLayers,0
;   denseSupportInfillPercentage,70
;   supportLayerInterval,1
;   supportHorizontalPartOffset,0.3
;   supportUpperSeparationLayers,1
;   supportLowerSeparationLayers,1
;   supportType,0
;   supportGridSpacing,4
;   maxOverhangAngle,45
;   supportAngles,0
;   temperatureName,Primary Extruder,Heated Build Platform
;   temperatureNumber,0,1
;   temperatureSetpointCount,1,1
;   temperatureSetpointLayers,1,1
;   temperatureSetpointTemperatures,230,100
;   temperatureStabilizeAtStartup,1,1
;   temperatureHeatedBed,0,1
;   temperatureRelayBetweenLayers,0,0
;   temperatureRelayBetweenLoops,0,0
;   fanLayers,1
;   fanSpeeds,0
;   blipFanToFullPower,1
;   adjustSpeedForCooling,1
;   minSpeedLayerTime,15
;   minCoolingSpeedSlowdown,20
;   increaseFanForCooling,1
;   minFanLayerTime,10
;   maxCoolingFanSpeed,30
;   increaseFanForBridging,1
;   bridgingFanSpeed,45
;   use5D,1
;   relativeEdistances,0
;   allowEaxisZeroing,1
;   independentExtruderAxes,0
;   includeM10123,0
;   stickySupport,1
;   applyToolheadOffsets,0
;   gcodeXoffset,0
;   gcodeYoffset,0
;   gcodeZoffset,0
;   overrideMachineDefinition,1
;   machineTypeOverride,0
;   strokeXoverride,200
;   strokeYoverride,200
;   strokeZoverride,175
;   originOffsetXoverride,0
;   originOffsetYoverride,0
;   originOffsetZoverride,0
;   homeXdirOverride,-1
;   homeYdirOverride,-1
;   homeZdirOverride,-1
;   flipXoverride,1
;   flipYoverride,-1
;   flipZoverride,1
;   toolheadOffsets,0,0|0,0|0,0|0,0|0,0|0,0
;   overrideFirmwareConfiguration,1
;   firmwareTypeOverride,RepRap (Marlin/Repetier/Sprinter)
;   GPXconfigOverride,r2
;   baudRateOverride,250000
;   overridePrinterModels,1
;   printerModelsOverride
;   startingGcode,G28 ; home all axes,G92 E0 ; zero the extruded length,G1 Z10 ; lower,G1 E20 F200 ; purge nozzle quickly,G1 E10 F60 ; purge nozzle slowly,G92 E0 ; zero the extruded length again,G1 E-1.5 F400 ; retract,G1 X170 Z0 F9000 ; pull away filament,G1 X180 F9000 ; wipe,G1 Y20 F9000 ; wipe,G1 E0 ; feed filament back
;   layerChangeGcode,
;   retractionGcode,
;   toolChangeGcode,
;   endingGcode,G28 X0 ; home the X-axis,M104 S0 ; turn off heaters,M140 S0 ; turn off bed,M84 ; disable motors
;   exportFileFormat,gcode
;   celebration,0
;   celebrationSong,Random Song
;   postProcessing,
;   defaultSpeed,2500
;   outlineUnderspeed,0.65
;   solidInfillUnderspeed,0.7
;   supportUnderspeed,0.7
;   rapidXYspeed,6000
;   rapidZspeed,1000
;   minBridgingArea,5
;   bridgingExtraInflation,0
;   bridgingExtrusionMultiplier,1
;   bridgingSpeedMultiplier,0.5
;   filamentDiameter,1.75
;   filamentPricePerKg,46
;   filamentDensity,1.25
;   useMinPrintHeight,0
;   minPrintHeight,0
;   useMaxPrintHeight,0
;   maxPrintHeight,0
;   useDiaphragm,0
;   diaphragmLayerInterval,20
;   robustSlicing,1
;   mergeAllIntoSolid,0
;   onlyRetractWhenCrossingOutline,1
;   retractBetweenLayers,0
;   useRetractionMinTravel,1
;   retractionMinTravel,0.02
;   retractWhileWiping,0
;   onlyWipeOutlines,1
;   avoidCrossingOutline,0
;   maxMovementDetourFactor,3
;   toolChangeRetractionDistance,12
;   toolChangeExtraRestartDistance,-0.5
;   toolChangeRetractionSpeed,600
;   allowThinWallGapFill,1
;   thinWallAllowedOverlapPercentage,10
;   horizontalSizeCompensation,0
G90
M82
M106 S0
M140 S100
M190 S100
M104 S230 T0
M109 S230 T0
G28 ; home all axes
G92 E0 ; zero the extruded length
G1 Z10 ; lower
G1 E20 F200 ; purge nozzle quickly
G1 E10 F60 ; purge nozzle slowly
G92 E0 ; zero the extruded length again
G1 E-1.5 F400 ; retract
G1 X170 Z0 F9000 ; pull away filament
G1 X180 F9000 ; wipe
G1 Y20 F9000 ; wipe
G1 E0 ; feed filament back
G92 E0
G1 E-1.5000 F2400
G1 Z0.195 F1000
; layer 1, Z = 0.195
T0
; tool H0.195 W0.400
; skirt
G1 X57.391 Y40.853 F6000
G1 E0.0000 F720
G92 E0
G1 X59.903 Y38.341 E0.1152 F750
G1 X60.124 Y38.250 E0.1229
G1 X139.876 Y38.250 E2.7092
G1 X140.097 Y38.341 E2.7169
G1 X142.609 Y40.853 E2.8321
G1 X142.700 Y41.074 E2.8399
G1 X142.700 Y158.926 E6.6617
G1 X142.609 Y159.147 E6.6694
G1 X140.097 Y161.659 E6.7846
G1 X139.876 Y161.750 E6.7924
G1 X60.124 Y161.750 E9.3786
G1 X59.903 Y161.659 E9.3864
G1 X57.391 Y159.147 E9.5016
G1 X57.300 Y158.926 E9.5093
G1 X57.300 Y41.074 E13.3311
G1 X57.315 Y41.038 E13.3323
G1 X57.391 Y40.853 F750
G1 X57.730 Y41.080 F6000
G92 E0
G1 X60.130 Y38.681 E0.1100 F750
G1 X60.203 Y38.650 E0.1126
G1 X139.797 Y38.650 E2.6937
G1 X139.870 Y38.680 E2.6963
G1 X142.270 Y41.080 E2.8063
G1 X142.300 Y41.153 E2.8089
G1 X142.300 Y158.847 E6.6255
G1 X142.270 Y158.920 E6.6281
G1 X139.870 Y161.320 E6.7382
G1 X139.797 Y161.350 E6.7407
G1 X60.203 Y161.350 E9.3218
G1 X60.130 Y161.320 E9.3244
G1 X57.730 Y158.920 E9.4345
G1 X57.700 Y158.847 E9.4370
G1 X57.700 Y41.274 E13.2498
G1 X57.700 Y41.153 F750
G1 X57.730 Y41.080 F750
G92 E0
G1 E-1.5000 F2400
; inner perimeter
G1 X62.500 Y43.450 F6000
G1 E0.0000 F2400
G92 E0
G1 X137.500 Y43.450 E2.4321 F619
G1 X137.500 Y156.550 E6.0998
G1 X62.500 Y156.550 E8.5320
G1 X62.500 Y43.650 E12.1932
G1 X62.500 Y43.450 F619
; outer perimeter
G1 X62.100 Y43.050 F6000
G92 E0
G1 X137.900 Y43.050 E2.4581 F488
G1 X137.900 Y156.950 E6.1517
G1 X62.100 Y156.950 E8.6098
G1 X62.100 Y43.250 E12.2969
G1 X62.100 Y43.050 F488
; inner perimeter
G1 X94.116 Y90.110 F6000
G92 E0
G1 X92.500 Y91.436 E0.0678 F619
G1 X91.174 Y93.052 E0.1356
G1 X90.189 Y94.896 E0.2033
G1 X89.582 Y96.896 E0.2711
G1 X89.377 Y98.976 E0.3389
G1 X89.582 Y101.056 E0.4067
G1 X90.189 Y103.057 E0.4745
G1 X90.447 Y103.539 E0.4922
G1 X109.633 Y103.539 E1.1144
G1 X109.891 Y103.056 E1.1322
G1 X110.498 Y101.056 E1.1999
G1 X110.702 Y98.976 E1.2677
G1 X110.498 Y96.896 E1.3355
G1 X109.891 Y94.896 E1.4033
G1 X108.905 Y93.052 E1.4711
G1 X107.579 Y91.436 E1.5389
G1 X105.964 Y90.110 E1.6066
G1 X104.120 Y89.125 E1.6744
G1 X102.120 Y88.518 E1.7422
G1 X100.040 Y88.313 E1.8100
G1 X97.960 Y88.518 E1.8778
G1 X95.959 Y89.125 E1.9456
G1 X94.292 Y90.016 E2.0068
G1 X94.116 Y90.110 F619
; outer perimeter
G1 X94.339 Y90.445 F6000
G92 E0
G1 X92.784 Y91.721 E0.0652 F488
G1 X91.508 Y93.275 E0.1305
G1 X90.560 Y95.049 E0.1957
G1 X89.976 Y96.974 E0.2609
G1 X89.779 Y98.976 E0.3261
G1 X89.976 Y100.978 E0.3914
G1 X90.561 Y102.904 E0.4566
G1 X90.687 Y103.139 E0.4653
G1 X109.393 Y103.139 E1.0719
G1 X109.519 Y102.903 E1.0806
G1 X110.103 Y100.978 E1.1458
G1 X110.300 Y98.976 E1.2111
G1 X110.103 Y96.974 E1.2763
G1 X109.519 Y95.049 E1.3415
G1 X108.571 Y93.275 E1.4068
G1 X107.295 Y91.721 E1.4720
G1 X105.740 Y90.445 E1.5372
G1 X103.966 Y89.496 E1.6024
G1 X102.042 Y88.912 E1.6677
G1 X100.040 Y88.715 E1.7329
G1 X98.038 Y88.912 E1.7981
G1 X96.113 Y89.496 E1.8633
G1 X94.516 Y90.350 E1.9221
G1 X94.339 Y90.445 F488
G92 E0
G1 E-1.5000 F2400
; solid layer
G1 X91.354 Y103.799 F6000
G1 E0.0000 F2400
G92 E0
G1 X137.240 Y149.685 E2.1044 F525
G1 X137.240 Y149.119 E2.1227
G1 X91.920 Y103.799 E4.2012
G1 X92.485 Y103.799 E4.2195
G1 X137.240 Y148.554 E6.2720
G1 X137.240 Y147.988 E6.2903
G1 X93.051 Y103.799 E8.3169
G1 X93.617 Y103.799 E8.3352
G1 X137.240 Y147.422 E10.3358
G1 X137.240 Y146.857 E10.3542
G1 X94.182 Y103.799 E12.3289
G1 X94.748 Y103.799 E12.3472
G1 X137.240 Y146.291 E14.2959
G1 X137.240 Y145.725 E14.3143
G1 X95.314 Y103.799 E16.2370
G1 X95.879 Y103.799 E16.2554
G1 X137.240 Y145.160 E18.1522
G1 X137.240 Y144.594 E18.1706
G1 X96.445 Y103.799 E20.0415
G1 X97.011 Y103.799 E20.0598
G1 X137.240 Y144.028 E21.9048
G1 X137.240 Y143.463 E21.9231
G1 X97.576 Y103.799 E23.7421
G1 X98.142 Y103.799 E23.7604
G1 X137.240 Y142.897 E25.5535
G1 X137.240 Y142.331 E25.5719
G1 X98.708 Y103.799 E27.3390
G1 X99.274 Y103.799 E27.3573
G1 X137.240 Y141.765 E29.0985
G1 X137.240 Y141.200 E29.1168
G1 X99.839 Y103.799 E30.8321
G1 X100.405 Y103.799 E30.8504
G1 X137.240 Y140.634 E32.5397
G1 X137.240 Y140.068 E32.5581
G1 X100.971 Y103.799 E34.2214
G1 X101.536 Y103.799 E34.2398
G1 X137.240 Y139.503 E35.8772
G1 X137.240 Y138.937 E35.8955
G1 X102.102 Y103.799 E37.5070
G1 X102.668 Y103.799 E37.5253
G1 X137.240 Y138.371 E39.1108
G1 X137.240 Y137.806 E39.1292
G1 X103.233 Y103.799 E40.6888
G1 X103.799 Y103.799 E40.7071
G1 X137.240 Y137.240 E42.2407
G1 X137.240 Y136.674 E42.2591
G1 X104.365 Y103.799 E43.7668
G1 X104.930 Y103.799 E43.7851
G1 X137.240 Y136.109 E45.2669
G1 X137.240 Y135.543 E45.2852
G1 X105.496 Y103.799 E46.7410
G1 X106.062 Y103.799 E46.7594
G1 X137.240 Y134.977 E48.1892
G1 X137.240 Y134.412 E48.2076
G1 X106.627 Y103.799 E49.6115
G1 X107.193 Y103.799 E49.6298
G1 X137.240 Y133.846 E51.0078
G1 X137.240 Y133.280 E51.0262
G1 X107.759 Y103.799 E52.3782
G1 X108.325 Y103.799 E52.3965
G1 X137.240 Y132.714 E53.7226
G1 X137.240 Y132.149 E53.7410
G1 X108.890 Y103.799 E55.0411
G1 X109.456 Y103.799 E55.0595
G1 X137.240 Y131.583 E56.3337
G1 X137.240 Y131.017 E56.3520
G1 X109.870 Y103.647 E57.6072
G1 X110.067 Y103.279 E57.6208
G1 X137.240 Y130.452 E58.8670
G1 X137.240 Y129.886 E58.8853
G1 X110.220 Y102.866 E60.1245
G1 X110.352 Y102.432 E60.1392
G1 X137.240 Y129.320 E61.3723
G1 X137.240 Y128.755 E61.3907
G1 X110.483 Y101.998 E62.6177
G1 X110.615 Y101.564 E62.6325
G1 X137.240 Y128.189 E63.8535
G1 X137.240 Y127.623 E63.8718
G1 X110.747 Y101.130 E65.0868
G1 X110.754 Y101.107 E65.0876
G1 X110.802 Y100.619 E65.1035
G1 X137.240 Y127.058 E66.3160
G1 X137.240 Y126.492 E66.3343
G1 X110.853 Y100.104 E67.5445
G1 X110.903 Y99.590 E67.5613
G1 X137.240 Y125.926 E68.7691
G1 X137.240 Y125.361 E68.7875
G1 X110.954 Y99.075 E69.9930
G1 X110.964 Y98.976 E69.9962
G1 X110.914 Y98.469 E70.0127
G1 X137.240 Y124.795 E71.2201
G1 X137.240 Y124.229 E71.2384
G1 X110.852 Y97.841 E72.4486
G1 X110.790 Y97.214 E72.4690
G1 X137.240 Y123.664 E73.6820
G1 X137.240 Y123.098 E73.7004
G1 X110.652 Y96.510 E74.9197
G1 X110.406 Y95.698 E74.9473
G1 X137.240 Y122.532 E76.1779
G1 X137.240 Y121.966 E76.1962
G1 X110.160 Y94.886 E77.4382
G1 X110.132 Y94.796 E77.4412
G1 X109.555 Y93.716 E77.4809
G1 X137.240 Y121.401 E78.7506
G1 X137.240 Y120.835 E78.7690
G1 X108.398 Y91.993 E80.0917
G1 X108.257 Y91.852 F525
G1 X137.048 Y43.710 F6000
G92 E0
G1 X137.240 Y43.902 E0.0088 F525
G1 X137.240 Y44.468 E0.0271
G1 X136.482 Y43.710 E0.0619
G1 X135.917 Y43.710 E0.0802
G1 X137.240 Y45.033 E0.1409
G1 X137.240 Y45.599 E0.1593
G1 X135.351 Y43.710 E0.2459
G1 X134.785 Y43.710 E0.2642
G1 X137.240 Y46.165 E0.3768
G1 X137.240 Y46.730 E0.3951
G1 X134.220 Y43.710 E0.5337
G1 X133.654 Y43.710 E0.5520
G1 X137.240 Y47.296 E0.7165
G1 X137.240 Y47.862 E0.7348
G1 X133.088 Y43.710 E0.9252
G1 X132.523 Y43.710 E0.9435
G1 X137.240 Y48.427 E1.1599
G1 X137.240 Y48.993 E1.1782
G1 X131.957 Y43.710 E1.4205
G1 X131.391 Y43.710 E1.4389
G1 X137.240 Y49.559 E1.7071
G1 X137.240 Y50.124 E1.7254
G1 X130.826 Y43.710 E2.0196
G1 X130.260 Y43.710 E2.0379
G1 X137.240 Y50.690 E2.3581
G1 X137.240 Y51.256 E2.3764
G1 X129.694 Y43.710 E2.7225
G1 X129.129 Y43.710 E2.7408
G1 X137.240 Y51.821 E3.1128
G1 X137.240 Y52.387 E3.1311
G1 X128.563 Y43.710 E3.5291
G1 X127.997 Y43.710 E3.5474
G1 X137.240 Y52.953 E3.9713
G1 X137.240 Y53.519 E3.9897
G1 X127.431 Y43.710 E4.4395
G1 X126.866 Y43.710 E4.4578
G1 X137.240 Y54.084 E4.9336
G1 X137.240 Y54.650 E4.9519
G1 X126.300 Y43.710 E5.4537
G1 X125.734 Y43.710 E5.4720
G1 X137.240 Y55.216 E5.9997
G1 X137.240 Y55.781 E6.0180
G1 X125.169 Y43.710 E6.5716
G1 X124.603 Y43.710 E6.5900
G1 X137.240 Y56.347 E7.1695
G1 X137.240 Y56.913 E7.1878
G1 X124.037 Y43.710 E7.7933
G1 X123.472 Y43.710 E7.8117
G1 X137.240 Y57.478 E8.4431
G1 X137.240 Y58.044 E8.4614
G1 X122.906 Y43.710 E9.1188
G1 X122.340 Y43.710 E9.1372
G1 X137.240 Y58.610 E9.8205
G1 X137.240 Y59.175 E9.8388
G1 X121.775 Y43.710 E10.5481
G1 X121.209 Y43.710 E10.5664
G1 X137.240 Y59.741 E11.3016
G1 X137.240 Y60.307 E11.3200
G1 X120.643 Y43.710 E12.0811
G1 X120.078 Y43.710 E12.0994
G1 X137.240 Y60.872 E12.8865
G1 X137.240 Y61.438 E12.9049
G1 X119.512 Y43.710 E13.7179
G1 X118.946 Y43.710 E13.7362
G1 X137.240 Y62.004 E14.5752
G1 X137.240 Y62.569 E14.5936
G1 X118.381 Y43.710 E15.4585
G1 X117.815 Y43.710 E15.4768
G1 X137.240 Y63.135 E16.3677
G1 X137.240 Y63.701 E16.3860
G1 X117.249 Y43.710 E17.3028
G1 X116.683 Y43.710 E17.3212
G1 X137.240 Y64.267 E18.2639
G1 X137.240 Y64.832 E18.2823
G1 X116.118 Y43.710 E19.2509
G1 X115.552 Y43.710 E19.2693
G1 X137.240 Y65.398 E20.2639
G1 X137.240 Y65.964 E20.2823
G1 X114.986 Y43.710 E21.3028
G1 X114.421 Y43.710 E21.3212
G1 X137.240 Y66.529 E22.3677
G1 X137.240 Y67.095 E22.3860
G1 X113.855 Y43.710 E23.4585
G1 X113.289 Y43.710 E23.4768
G1 X137.240 Y67.661 E24.5752
G1 X137.240 Y68.226 E24.5936
G1 X112.724 Y43.710 E25.7179
G1 X112.158 Y43.710 E25.7363
G1 X137.240 Y68.792 E26.8866
G1 X137.240 Y69.358 E26.9049
G1 X111.592 Y43.710 E28.0811
G1 X111.027 Y43.710 E28.0995
G1 X137.240 Y69.923 E29.3016
G1 X137.240 Y70.489 E29.3200
G1 X110.461 Y43.710 E30.5481
G1 X109.895 Y43.710 E30.5664
G1 X137.240 Y71.055 E31.8205
G1 X137.240 Y71.620 E31.8388
G1 X109.330 Y43.710 E33.1188
G1 X108.764 Y43.710 E33.1372
G1 X137.240 Y72.186 E34.4431
G1 X137.240 Y72.752 E34.4615
G1 X108.198 Y43.710 E35.7934
G1 X107.632 Y43.710 E35.8117
G1 X137.240 Y73.318 E37.1695
G1 X137.240 Y73.883 E37.1879
G1 X107.067 Y43.710 E38.5717
G1 X106.501 Y43.710 E38.5900
G1 X137.240 Y74.449 E39.9997
G1 X137.240 Y75.015 E40.0181
G1 X105.935 Y43.710 E41.4537
G1 X105.370 Y43.710 E41.4721
G1 X137.240 Y75.580 E42.9337
G1 X137.240 Y76.146 E42.9520
G1 X104.804 Y43.710 E44.4396
G1 X104.238 Y43.710 E44.4579
G1 X137.240 Y76.712 E45.9714
G1 X137.240 Y77.277 E45.9897
G1 X103.673 Y43.710 E47.5292
G1 X103.107 Y43.710 E47.5475
G1 X137.240 Y77.843 E49.1129
G1 X137.240 Y78.409 E49.1312
G1 X102.541 Y43.710 E50.7225
G1 X101.976 Y43.710 E50.7409
G1 X137.240 Y78.974 E52.3581
G1 X137.240 Y79.540 E52.3765
G1 X101.410 Y43.710 E54.0197
G1 X100.844 Y43.710 E54.0380
G1 X137.240 Y80.106 E55.7072
G1 X137.240 Y80.671 E55.7255
G1 X100.279 Y43.710 E57.4206
G1 X99.713 Y43.710 E57.4389
G1 X137.240 Y81.237 E59.1600
G1 X137.240 Y81.803 E59.1783
G1 X99.147 Y43.710 E60.9253
G1 X98.582 Y43.710 E60.9436
G1 X137.240 Y82.368 E62.7166
G1 X137.240 Y82.934 E62.7349
G1 X98.016 Y43.710 E64.5338
G1 X97.450 Y43.710 E64.5521
