; G-Code generated by Simplify3D(R) Version 3.1.0
; Sep 4, 2016 at 5:32:34 PM
; Settings Summary
;   processName,Process1
;   applyToModels,rectangularprism
;   profileName,Wanhao Duplicator 6
;   profileVersion,2016-08-10 08:00:00
;   baseProfile,
;   printMaterial,ABS
;   printQuality,Medium
;   printExtruders,
;   extruderName,Primary Extruder
;   extruderToolheadNumber,0
;   extruderDiameter,0.4
;   extruderAutoWidth,0
;   extruderWidth,0.4
;   extrusionMultiplier,1
;   extruderUseRetract,1
;   extruderRetractionDistance,1.5
;   extruderExtraRestartDistance,0
;   extruderRetractionZLift,0
;   extruderRetractionSpeed,2400
;   extruderUseCoasting,1
;   extruderCoastingDistance,0.2
;   extruderUseWipe,0
;   extruderWipeDistance,2
;   primaryExtruder,0
;   layerHeight,0.15
;   topSolidLayers,4
;   bottomSolidLayers,3
;   perimeterOutlines,2
;   printPerimetersInsideOut,1
;   startPointOption,2
;   startPointOriginX,0
;   startPointOriginY,0
;   startPointOriginZ,300
;   sequentialIslands,0
;   spiralVaseMode,0
;   firstLayerHeightPercentage,130
;   firstLayerWidthPercentage,100
;   firstLayerUnderspeed,0.3
;   useRaft,0
;   raftExtruder,0
;   raftLayers,3
;   raftOffset,3
;   raftSeparationDistance,0.14
;   raftInfill,85
;   disableRaftBaseLayers,0
;   useSkirt,1
;   skirtExtruder,0
;   skirtLayers,1
;   skirtOutlines,2
;   skirtOffset,4
;   usePrimePillar,0
;   primePillarExtruder,999
;   primePillarWidth,12
;   primePillarLocation,7
;   primePillarSpeedMultiplier,1
;   useOozeShield,0
;   oozeShieldExtruder,999
;   oozeShieldOffset,2
;   oozeShieldOutlines,1
;   oozeShieldSidewallShape,1
;   oozeShieldSidewallAngle,30
;   oozeShieldSpeedMultiplier,1
;   infillExtruder,0
;   internalInfillPattern,Rectilinear
;   externalInfillPattern,Rectilinear
;   infillPercentage,20
;   outlineOverlapPercentage,35
;   infillExtrusionWidthPercentage,125
;   minInfillLength,3
;   infillLayerInterval,1
;   infillAngles,45,-45
;   overlapInfillAngles,0
;   generateSupport,0
;   supportExtruder,0
;   supportInfillPercentage,30
;   supportExtraInflation,0
;   denseSupportLayers,0
;   denseSupportInfillPercentage,70
;   supportLayerInterval,1
;   supportHorizontalPartOffset,0.3
;   supportUpperSeparationLayers,1
;   supportLowerSeparationLayers,1
;   supportType,0
;   supportGridSpacing,4
;   maxOverhangAngle,45
;   supportAngles,0
;   temperatureName,Primary Extruder,Heated Build Platform
;   temperatureNumber,0,1
;   temperatureSetpointCount,1,1
;   temperatureSetpointLayers,1,1
;   temperatureSetpointTemperatures,230,100
;   temperatureStabilizeAtStartup,1,1
;   temperatureHeatedBed,0,1
;   temperatureRelayBetweenLayers,0,0
;   temperatureRelayBetweenLoops,0,0
;   fanLayers,1
;   fanSpeeds,0
;   blipFanToFullPower,1
;   adjustSpeedForCooling,1
;   minSpeedLayerTime,15
;   minCoolingSpeedSlowdown,20
;   increaseFanForCooling,1
;   minFanLayerTime,10
;   maxCoolingFanSpeed,30
;   increaseFanForBridging,1
;   bridgingFanSpeed,45
;   use5D,1
;   relativeEdistances,0
;   allowEaxisZeroing,1
;   independentExtruderAxes,0
;   includeM10123,0
;   stickySupport,1
;   applyToolheadOffsets,0
;   gcodeXoffset,0
;   gcodeYoffset,0
;   gcodeZoffset,0
;   overrideMachineDefinition,1
;   machineTypeOverride,0
;   strokeXoverride,200
;   strokeYoverride,200
;   strokeZoverride,175
;   originOffsetXoverride,0
;   originOffsetYoverride,0
;   originOffsetZoverride,0
;   homeXdirOverride,-1
;   homeYdirOverride,-1
;   homeZdirOverride,-1
;   flipXoverride,1
;   flipYoverride,-1
;   flipZoverride,1
;   toolheadOffsets,0,0|0,0|0,0|0,0|0,0|0,0
;   overrideFirmwareConfiguration,1
;   firmwareTypeOverride,RepRap (Marlin/Repetier/Sprinter)
;   GPXconfigOverride,r2
;   baudRateOverride,250000
;   overridePrinterModels,1
;   printerModelsOverride
;   startingGcode,G28 ; home all axes,G92 E0 ; zero the extruded length,G1 Z10 ; lower,G1 E20 F200 ; purge nozzle quickly,G1 E10 F60 ; purge nozzle slowly,G92 E0 ; zero the extruded length again,G1 E-1.5 F400 ; retract,G1 X170 Z0 F9000 ; pull away filament,G1 X180 F9000 ; wipe,G1 Y20 F9000 ; wipe,G1 E0 ; feed filament back
;   layerChangeGcode,
;   retractionGcode,
;   toolChangeGcode,
;   endingGcode,G28 X0 ; home the X-axis,M104 S0 ; turn off heaters,M140 S0 ; turn off bed,M84 ; disable motors
;   exportFileFormat,gcode
;   celebration,0
;   celebrationSong,Random Song
;   postProcessing,
;   defaultSpeed,2500
;   outlineUnderspeed,0.65
;   solidInfillUnderspeed,0.7
;   supportUnderspeed,0.7
;   rapidXYspeed,6000
;   rapidZspeed,1000
;   minBridgingArea,5
;   bridgingExtraInflation,0
;   bridgingExtrusionMultiplier,1
;   bridgingSpeedMultiplier,0.5
;   filamentDiameter,1.75
;   filamentPricePerKg,46
;   filamentDensity,1.25
;   useMinPrintHeight,0
;   minPrintHeight,0
;   useMaxPrintHeight,0
;   maxPrintHeight,0
;   useDiaphragm,0
;   diaphragmLayerInterval,20
;   robustSlicing,1
;   mergeAllIntoSolid,0
;   onlyRetractWhenCrossingOutline,1
;   retractBetweenLayers,0
;   useRetractionMinTravel,1
;   retractionMinTravel,0.02
;   retractWhileWiping,0
;   onlyWipeOutlines,1
;   avoidCrossingOutline,0
;   maxMovementDetourFactor,3
;   toolChangeRetractionDistance,12
;   toolChangeExtraRestartDistance,-0.5
;   toolChangeRetractionSpeed,600
;   allowThinWallGapFill,1
;   thinWallAllowedOverlapPercentage,10
;   horizontalSizeCompensation,0
G90
M82
M106 S0
M140 S100
M190 S100
M104 S230 T0
M109 S230 T0
G28 ; home all axes
G92 E0 ; zero the extruded length
G1 Z10 ; lower
G1 E20 F200 ; purge nozzle quickly
G1 E10 F60 ; purge nozzle slowly
G92 E0 ; zero the extruded length again
G1 E-1.5 F400 ; retract
G1 X170 Z0 F9000 ; pull away filament
G1 X180 F9000 ; wipe
G1 Y20 F9000 ; wipe
G1 E0 ; feed filament back
G92 E0
G1 E-1.5000 F2400
G1 Z0.195 F1000
; layer 1, Z = 0.195
T0
; tool H0.195 W0.400
; skirt
G1 X66.027 Y57.363 F6000
G1 E0.0000 F720
G92 E0
G1 X68.539 Y54.851 E0.1152 F750
G1 X68.760 Y54.760 E0.1229
G1 X131.240 Y54.760 E2.1491
G1 X131.461 Y54.851 E2.1568
G1 X133.973 Y57.363 E2.2720
G1 X134.064 Y57.584 E2.2798
G1 X134.064 Y142.416 E5.0308
G1 X133.973 Y142.637 E5.0385
G1 X131.461 Y145.149 E5.1537
G1 X131.240 Y145.240 E5.1615
G1 X68.760 Y145.240 E7.1876
G1 X68.539 Y145.149 E7.1953
G1 X66.027 Y142.637 E7.3105
G1 X65.936 Y142.416 E7.3183
G1 X65.936 Y57.584 E10.0693
G1 X65.951 Y57.548 E10.0705
G1 X66.027 Y57.363 F750
G1 X66.366 Y57.590 F6000
G92 E0
G1 X68.766 Y55.190 E0.1100 F750
G1 X68.839 Y55.160 E0.1126
G1 X131.161 Y55.160 E2.1336
G1 X131.234 Y55.190 E2.1362
G1 X133.634 Y57.590 E2.2462
G1 X133.664 Y57.663 E2.2488
G1 X133.664 Y142.337 E4.9946
G1 X133.634 Y142.410 E4.9972
G1 X131.234 Y144.810 E5.1073
G1 X131.161 Y144.840 E5.1098
G1 X68.839 Y144.840 E7.1308
G1 X68.766 Y144.810 E7.1334
G1 X66.366 Y142.410 E7.2435
G1 X66.336 Y142.337 E7.2460
G1 X66.336 Y57.784 E9.9880
G1 X66.336 Y57.663 F750
G1 X66.366 Y57.590 F750
G92 E0
G1 E-1.5000 F2400
; inner perimeter
G1 X71.136 Y59.960 F6000
G1 E0.0000 F2400
G92 E0
G1 X128.864 Y59.960 E1.8720 F619
G1 X128.864 Y140.040 E4.4689
G1 X71.136 Y140.040 E6.3410
G1 X71.136 Y60.160 E8.9314
G1 X71.136 Y59.960 F619
; outer perimeter
G1 X70.736 Y59.560 F6000
G92 E0
G1 X129.264 Y59.560 E1.8980 F488
G1 X129.264 Y140.440 E4.5208
G1 X70.736 Y140.440 E6.4188
G1 X70.736 Y59.760 E9.0351
G1 X70.736 Y59.560 F488
; solid layer
G1 X128.102 Y60.220 F6000
G92 E0
G1 X128.604 Y60.722 E0.0230 F525
G1 X128.604 Y61.287 E0.0414
G1 X127.537 Y60.220 E0.0903
G1 X126.971 Y60.220 E0.1086
G1 X128.604 Y61.853 E0.1835
G1 X128.604 Y62.419 E0.2019
G1 X126.405 Y60.220 E0.3027
G1 X125.840 Y60.220 E0.3211
G1 X128.604 Y62.984 E0.4479
G1 X128.604 Y63.550 E0.4662
G1 X125.274 Y60.220 E0.6189
G1 X124.708 Y60.220 E0.6373
G1 X128.604 Y64.116 E0.8159
G1 X128.604 Y64.682 E0.8343
G1 X124.142 Y60.220 E1.0389
G1 X123.577 Y60.220 E1.0572
G1 X128.604 Y65.247 E1.2878
G1 X128.604 Y65.813 E1.3061
G1 X123.011 Y60.220 E1.5626
G1 X122.445 Y60.220 E1.5810
G1 X128.604 Y66.379 E1.8634
G1 X128.604 Y66.944 E1.8817
G1 X121.880 Y60.220 E2.1901
G1 X121.314 Y60.220 E2.2085
G1 X128.604 Y67.510 E2.5428
G1 X128.604 Y68.076 E2.5611
G1 X120.748 Y60.220 E2.9214
G1 X120.183 Y60.220 E2.9397
G1 X128.604 Y68.641 E3.3260
G1 X128.604 Y69.207 E3.3443
G1 X119.617 Y60.220 E3.7565
G1 X119.051 Y60.220 E3.7748
G1 X128.604 Y69.773 E4.2129
G1 X128.604 Y70.338 E4.2312
G1 X118.486 Y60.220 E4.6953
G1 X117.920 Y60.220 E4.7136
G1 X128.604 Y70.904 E5.2036
G1 X128.604 Y71.470 E5.2219
G1 X117.354 Y60.220 E5.7379
G1 X116.789 Y60.220 E5.7562
G1 X128.604 Y72.035 E6.2981
G1 X128.604 Y72.601 E6.3164
G1 X116.223 Y60.220 E6.8842
G1 X115.657 Y60.220 E6.9026
G1 X128.604 Y73.167 E7.4963
G1 X128.604 Y73.732 E7.5147
G1 X115.092 Y60.220 E8.1344
G1 X114.526 Y60.220 E8.1527
G1 X128.604 Y74.298 E8.7984
G1 X128.604 Y74.864 E8.8167
G1 X113.960 Y60.220 E9.4883
G1 X113.394 Y60.220 E9.5066
G1 X128.604 Y75.430 E10.2042
G1 X128.604 Y75.995 E10.2225
G1 X112.829 Y60.220 E10.9460
G1 X112.263 Y60.220 E10.9643
G1 X128.604 Y76.561 E11.7137
G1 X128.604 Y77.127 E11.7321
G1 X111.697 Y60.220 E12.5074
G1 X111.132 Y60.220 E12.5258
G1 X128.604 Y77.692 E13.3271
G1 X128.604 Y78.258 E13.3454
G1 X110.566 Y60.220 E14.1726
G1 X110.000 Y60.220 E14.1910
G1 X128.604 Y78.824 E15.0442
G1 X128.604 Y79.389 E15.0625
G1 X109.435 Y60.220 E15.9416
G1 X108.869 Y60.220 E15.9600
G1 X128.604 Y79.955 E16.8650
G1 X128.604 Y80.521 E16.8834
G1 X108.303 Y60.220 E17.8144
G1 X107.738 Y60.220 E17.8327
G1 X128.604 Y81.086 E18.7897
G1 X128.604 Y81.652 E18.8080
G1 X107.172 Y60.220 E19.7909
G1 X106.606 Y60.220 E19.8093
G1 X128.604 Y82.218 E20.8181
G1 X128.604 Y82.783 E20.8365
G1 X106.041 Y60.220 E21.8712
G1 X105.475 Y60.220 E21.8896
G1 X128.604 Y83.349 E22.9503
G1 X128.604 Y83.915 E22.9687
G1 X104.909 Y60.220 E24.0553
G1 X104.343 Y60.220 E24.0737
G1 X128.604 Y84.481 E25.1863
G1 X128.604 Y85.046 E25.2046
G1 X103.778 Y60.220 E26.3432
G1 X103.212 Y60.220 E26.3615
G1 X128.604 Y85.612 E27.5260
G1 X128.604 Y86.178 E27.5444
G1 X102.646 Y60.220 E28.7348
G1 X102.081 Y60.220 E28.7532
G1 X128.604 Y86.743 E29.9695
G1 X128.604 Y87.309 E29.9879
G1 X101.515 Y60.220 E31.2302
G1 X100.949 Y60.220 E31.2485
G1 X128.604 Y87.875 E32.5168
G1 X128.604 Y88.440 E32.5352
G1 X100.384 Y60.220 E33.8294
G1 X99.818 Y60.220 E33.8477
G1 X128.604 Y89.006 E35.1679
G1 X128.604 Y89.572 E35.1862
G1 X99.252 Y60.220 E36.5323
G1 X98.687 Y60.220 E36.5507
G1 X128.604 Y90.137 E37.9227
G1 X128.604 Y90.703 E37.9410
G1 X98.121 Y60.220 E39.3390
G1 X97.555 Y60.220 E39.3574
G1 X128.604 Y91.269 E40.7813
G1 X128.604 Y91.834 E40.7996
G1 X96.990 Y60.220 E42.2495
G1 X96.424 Y60.220 E42.2679
G1 X128.604 Y92.400 E43.7437
G1 X128.604 Y92.966 E43.7620
G1 X95.858 Y60.220 E45.2638
G1 X95.293 Y60.220 E45.2821
G1 X128.604 Y93.531 E46.8098
G1 X128.604 Y94.097 E46.8281
G1 X94.727 Y60.220 E48.3818
G1 X94.161 Y60.220 E48.4001
G1 X128.604 Y94.663 E49.9797
G1 X128.604 Y95.229 E49.9981
G1 X93.595 Y60.220 E51.6036
G1 X93.030 Y60.220 E51.6219
G1 X128.604 Y95.794 E53.2534
G1 X128.604 Y96.360 E53.2717
G1 X92.464 Y60.220 E54.9292
G1 X91.898 Y60.220 E54.9475
G1 X128.604 Y96.926 E56.6309
G1 X128.604 Y97.491 E56.6492
G1 X91.333 Y60.220 E58.3585
G1 X90.767 Y60.220 E58.3768
G1 X128.604 Y98.057 E60.1121
G1 X128.604 Y98.623 E60.1304
G1 X90.201 Y60.220 E61.8916
G1 X89.636 Y60.220 E61.9100
G1 X128.604 Y99.188 E63.6971
G1 X128.604 Y99.754 E63.7154
G1 X89.070 Y60.220 E65.5285
G1 X88.504 Y60.220 E65.5468
G1 X128.604 Y100.320 E67.3858
G1 X128.604 Y100.885 E67.4042
G1 X87.939 Y60.220 E69.2691
G1 X87.373 Y60.220 E69.2875
G1 X128.604 Y101.451 E71.1784
G1 X128.604 Y102.017 E71.1967
G1 X86.807 Y60.220 E73.1136
G1 X86.242 Y60.220 E73.1319
G1 X128.604 Y102.582 E75.0747
G1 X128.604 Y103.148 E75.0930
G1 X85.676 Y60.220 E77.0618
G1 X85.110 Y60.220 E77.0801
G1 X128.604 Y103.714 E79.0748
G1 X128.604 Y104.279 E79.0931
G1 X84.545 Y60.220 E81.1137
G1 X83.979 Y60.220 E81.1321
G1 X128.604 Y104.845 E83.1786
G1 X128.604 Y105.411 E83.1970
G1 X83.413 Y60.220 E85.2695
G1 X82.847 Y60.220 E85.2878
G1 X128.604 Y105.977 E87.3863
G1 X128.604 Y106.542 E87.4046
G1 X82.282 Y60.220 E89.5290
G1 X81.716 Y60.220 E89.5473
G1 X128.604 Y107.108 E91.6977
G1 X128.604 Y107.674 E91.7160
G1 X81.150 Y60.220 E93.8923
G1 X80.585 Y60.220 E93.9106
G1 X128.604 Y108.239 E96.1128
G1 X128.604 Y108.805 E96.1312
G1 X80.019 Y60.220 E98.3593
G1 X79.453 Y60.220 E98.3777
G1 X128.604 Y109.371 E100.6318
G1 X128.604 Y109.936 E100.6501
G1 X78.888 Y60.220 E102.9302
G1 X78.322 Y60.220 E102.9485
G1 X128.604 Y110.502 E105.2545
G1 X128.604 Y111.068 E105.2728
G1 X77.756 Y60.220 E107.6048
G1 X77.191 Y60.220 E107.6231
G1 X128.604 Y111.633 E109.9810
G1 X128.604 Y112.199 E109.9993
G1 X76.625 Y60.220 E112.3831
G1 X76.059 Y60.220 E112.4015
G1 X128.604 Y112.765 E114.8112
G1 X128.604 Y113.330 E114.8296
G1 X75.494 Y60.220 E117.2653
G1 X74.928 Y60.220 E117.2836
G1 X128.604 Y113.896 E119.7453
G1 X128.604 Y114.462 E119.7636
G1 X74.362 Y60.220 E122.2512
G1 X73.796 Y60.220 E122.2695
G1 X128.604 Y115.028 E124.7831
G1 X128.604 Y115.593 E124.8014
G1 X73.231 Y60.220 E127.3409
G1 X72.665 Y60.220 E127.3592
G1 X128.604 Y116.159 E129.9246
G1 X128.604 Y116.725 E129.9430
G1 X72.099 Y60.220 E132.5343
G1 X71.534 Y60.220 E132.5527
G1 X128.604 Y117.290 E135.1700
G1 X128.604 Y117.856 E135.1883
G1 X71.396 Y60.648 E137.8119
G1 X71.396 Y61.214 E137.8303
G1 X128.604 Y118.422 E140.4539
G1 X128.604 Y118.987 E140.4723
G1 X71.396 Y61.779 E143.0959
G1 X71.396 Y62.345 E143.1142
G1 X128.604 Y119.553 E145.7378
G1 X128.604 Y120.119 E145.7562
G1 X71.396 Y62.911 E148.3798
G1 X71.396 Y63.476 E148.3981
G1 X128.604 Y120.684 E151.0217
G1 X128.604 Y121.250 E151.0401
G1 X71.396 Y64.042 E153.6637
G1 X71.396 Y64.608 E153.6821
G1 X128.604 Y121.816 E156.3057
G1 X128.604 Y122.381 E156.3240
G1 X71.396 Y65.173 E158.9476
G1 X71.396 Y65.739 E158.9660
G1 X128.604 Y122.947 E161.5896
G1 X128.604 Y123.513 E161.6079
G1 X71.396 Y66.305 E164.2315
G1 X71.396 Y66.871 E164.2499
G1 X128.604 Y124.078 E166.8735
G1 X128.604 Y124.644 E166.8919
G1 X71.396 Y67.436 E169.5155
G1 X71.396 Y68.002 E169.5338
G1 X128.604 Y125.210 E172.1574
G1 X128.604 Y125.776 E172.1758
G1 X71.396 Y68.568 E174.7994
G1 X71.396 Y69.133 E174.8177
G1 X128.604 Y126.341 E177.4413
G1 X128.604 Y126.907 E177.4597
G1 X71.396 Y69.699 E180.0833
G1 X71.396 Y70.265 E180.1017
G1 X128.604 Y127.473 E182.7253
G1 X128.604 Y128.038 E182.7436
G1 X71.396 Y70.830 E185.3672
G1 X71.396 Y71.396 E185.3856
G1 X128.604 Y128.604 E188.0092
G1 X128.604 Y129.170 E188.0275
G1 X71.396 Y71.962 E190.6511
G1 X71.396 Y72.527 E190.6695
G1 X128.604 Y129.735 E193.2931
G1 X128.604 Y130.301 E193.3115
G1 X71.396 Y73.093 E195.9351
G1 X71.396 Y73.659 E195.9534
G1 X128.604 Y130.867 E198.5770
G1 X128.604 Y131.432 E198.5954
G1 X71.396 Y74.224 E201.2190
G1 X71.396 Y74.790 E201.2373
G1 X128.604 Y131.998 E203.8609
G1 X128.604 Y132.564 E203.8793
G1 X71.396 Y75.356 E206.5029
G1 X71.396 Y75.921 E206.5213
G1 X128.604 Y133.129 E209.1449
G1 X128.604 Y133.695 E209.1632
G1 X71.396 Y76.487 E211.7868
G1 X71.396 Y77.053 E211.8052
G1 X128.604 Y134.261 E214.4288
G1 X128.604 Y134.827 E214.4471
G1 X71.396 Y77.619 E217.0707
G1 X71.396 Y78.184 E217.0891
G1 X128.604 Y135.392 E219.7127
G1 X128.604 Y135.958 E219.7311
G1 X71.396 Y78.750 E222.3547
G1 X71.396 Y79.316 E222.3730
G1 X128.604 Y136.524 E224.9966
G1 X128.604 Y137.089 E225.0150
G1 X71.396 Y79.881 E227.6386
G1 X71.396 Y80.447 E227.6569
G1 X128.604 Y137.655 E230.2805
G1 X128.604 Y138.221 E230.2989
G1 X71.396 Y81.013 E232.9225
G1 X71.396 Y81.578 E232.9409
G1 X128.604 Y138.786 E235.5645
G1 X128.604 Y139.352 E235.5828
G1 X71.396 Y82.144 E238.2064
G1 X71.396 Y82.710 E238.2248
G1 X128.466 Y139.780 E240.8421
G1 X127.901 Y139.780 E240.8604
G1 X71.396 Y83.275 E243.4518
G1 X71.396 Y83.841 E243.4701
G1 X127.335 Y139.780 E246.0355
G1 X126.769 Y139.780 E246.0539
G1 X71.396 Y84.407 E248.5934
G1 X71.396 Y84.972 E248.6117
G1 X126.204 Y139.780 E251.1252
G1 X125.638 Y139.780 E251.1436
G1 X71.396 Y85.538 E253.6312
G1 X71.396 Y86.104 E253.6495
G1 X125.072 Y139.780 E256.1111
G1 X124.506 Y139.780 E256.1295
G1 X71.396 Y86.669 E258.5652
G1 X71.396 Y87.235 E258.5835
G1 X123.941 Y139.780 E260.9933
G1 X123.375 Y139.780 E261.0116
