; G-Code generated by Simplify3D(R) Version 3.1.0
; Sep 4, 2016 at 5:34:42 PM
; Settings Summary
;   processName,Process1
;   applyToModels,originalcube
;   profileName,Wanhao Duplicator 6
;   profileVersion,2016-08-10 08:00:00
;   baseProfile,
;   printMaterial,ABS
;   printQuality,Medium
;   printExtruders,
;   extruderName,Primary Extruder
;   extruderToolheadNumber,0
;   extruderDiameter,0.4
;   extruderAutoWidth,0
;   extruderWidth,0.4
;   extrusionMultiplier,1
;   extruderUseRetract,1
;   extruderRetractionDistance,1.5
;   extruderExtraRestartDistance,0
;   extruderRetractionZLift,0
;   extruderRetractionSpeed,2400
;   extruderUseCoasting,1
;   extruderCoastingDistance,0.2
;   extruderUseWipe,0
;   extruderWipeDistance,2
;   primaryExtruder,0
;   layerHeight,0.15
;   topSolidLayers,4
;   bottomSolidLayers,3
;   perimeterOutlines,2
;   printPerimetersInsideOut,1
;   startPointOption,2
;   startPointOriginX,0
;   startPointOriginY,0
;   startPointOriginZ,300
;   sequentialIslands,0
;   spiralVaseMode,0
;   firstLayerHeightPercentage,130
;   firstLayerWidthPercentage,100
;   firstLayerUnderspeed,0.3
;   useRaft,0
;   raftExtruder,0
;   raftLayers,3
;   raftOffset,3
;   raftSeparationDistance,0.14
;   raftInfill,85
;   disableRaftBaseLayers,0
;   useSkirt,1
;   skirtExtruder,0
;   skirtLayers,1
;   skirtOutlines,2
;   skirtOffset,4
;   usePrimePillar,0
;   primePillarExtruder,999
;   primePillarWidth,12
;   primePillarLocation,7
;   primePillarSpeedMultiplier,1
;   useOozeShield,0
;   oozeShieldExtruder,999
;   oozeShieldOffset,2
;   oozeShieldOutlines,1
;   oozeShieldSidewallShape,1
;   oozeShieldSidewallAngle,30
;   oozeShieldSpeedMultiplier,1
;   infillExtruder,0
;   internalInfillPattern,Rectilinear
;   externalInfillPattern,Rectilinear
;   infillPercentage,20
;   outlineOverlapPercentage,35
;   infillExtrusionWidthPercentage,125
;   minInfillLength,3
;   infillLayerInterval,1
;   infillAngles,45,-45
;   overlapInfillAngles,0
;   generateSupport,0
;   supportExtruder,0
;   supportInfillPercentage,30
;   supportExtraInflation,0
;   denseSupportLayers,0
;   denseSupportInfillPercentage,70
;   supportLayerInterval,1
;   supportHorizontalPartOffset,0.3
;   supportUpperSeparationLayers,1
;   supportLowerSeparationLayers,1
;   supportType,0
;   supportGridSpacing,4
;   maxOverhangAngle,45
;   supportAngles,0
;   temperatureName,Primary Extruder,Heated Build Platform
;   temperatureNumber,0,1
;   temperatureSetpointCount,1,1
;   temperatureSetpointLayers,1,1
;   temperatureSetpointTemperatures,230,100
;   temperatureStabilizeAtStartup,1,1
;   temperatureHeatedBed,0,1
;   temperatureRelayBetweenLayers,0,0
;   temperatureRelayBetweenLoops,0,0
;   fanLayers,1
;   fanSpeeds,0
;   blipFanToFullPower,1
;   adjustSpeedForCooling,1
;   minSpeedLayerTime,15
;   minCoolingSpeedSlowdown,20
;   increaseFanForCooling,1
;   minFanLayerTime,10
;   maxCoolingFanSpeed,30
;   increaseFanForBridging,1
;   bridgingFanSpeed,45
;   use5D,1
;   relativeEdistances,0
;   allowEaxisZeroing,1
;   independentExtruderAxes,0
;   includeM10123,0
;   stickySupport,1
;   applyToolheadOffsets,0
;   gcodeXoffset,0
;   gcodeYoffset,0
;   gcodeZoffset,0
;   overrideMachineDefinition,1
;   machineTypeOverride,0
;   strokeXoverride,200
;   strokeYoverride,200
;   strokeZoverride,175
;   originOffsetXoverride,0
;   originOffsetYoverride,0
;   originOffsetZoverride,0
;   homeXdirOverride,-1
;   homeYdirOverride,-1
;   homeZdirOverride,-1
;   flipXoverride,1
;   flipYoverride,-1
;   flipZoverride,1
;   toolheadOffsets,0,0|0,0|0,0|0,0|0,0|0,0
;   overrideFirmwareConfiguration,1
;   firmwareTypeOverride,RepRap (Marlin/Repetier/Sprinter)
;   GPXconfigOverride,r2
;   baudRateOverride,250000
;   overridePrinterModels,1
;   printerModelsOverride
;   startingGcode,G28 ; home all axes,G92 E0 ; zero the extruded length,G1 Z10 ; lower,G1 E20 F200 ; purge nozzle quickly,G1 E10 F60 ; purge nozzle slowly,G92 E0 ; zero the extruded length again,G1 E-1.5 F400 ; retract,G1 X170 Z0 F9000 ; pull away filament,G1 X180 F9000 ; wipe,G1 Y20 F9000 ; wipe,G1 E0 ; feed filament back
;   layerChangeGcode,
;   retractionGcode,
;   toolChangeGcode,
;   endingGcode,G28 X0 ; home the X-axis,M104 S0 ; turn off heaters,M140 S0 ; turn off bed,M84 ; disable motors
;   exportFileFormat,gcode
;   celebration,0
;   celebrationSong,Random Song
;   postProcessing,
;   defaultSpeed,2500
;   outlineUnderspeed,0.65
;   solidInfillUnderspeed,0.7
;   supportUnderspeed,0.7
;   rapidXYspeed,6000
;   rapidZspeed,1000
;   minBridgingArea,5
;   bridgingExtraInflation,0
;   bridgingExtrusionMultiplier,1
;   bridgingSpeedMultiplier,0.5
;   filamentDiameter,1.75
;   filamentPricePerKg,46
;   filamentDensity,1.25
;   useMinPrintHeight,0
;   minPrintHeight,0
;   useMaxPrintHeight,0
;   maxPrintHeight,0
;   useDiaphragm,0
;   diaphragmLayerInterval,20
;   robustSlicing,1
;   mergeAllIntoSolid,0
;   onlyRetractWhenCrossingOutline,1
;   retractBetweenLayers,0
;   useRetractionMinTravel,1
;   retractionMinTravel,0.02
;   retractWhileWiping,0
;   onlyWipeOutlines,1
;   avoidCrossingOutline,0
;   maxMovementDetourFactor,3
;   toolChangeRetractionDistance,12
;   toolChangeExtraRestartDistance,-0.5
;   toolChangeRetractionSpeed,600
;   allowThinWallGapFill,1
;   thinWallAllowedOverlapPercentage,10
;   horizontalSizeCompensation,0
G90
M82
M106 S0
M140 S100
M190 S100
M104 S230 T0
M109 S230 T0
G28 ; home all axes
G92 E0 ; zero the extruded length
G1 Z10 ; lower
G1 E20 F200 ; purge nozzle quickly
G1 E10 F60 ; purge nozzle slowly
G92 E0 ; zero the extruded length again
G1 E-1.5 F400 ; retract
G1 X170 Z0 F9000 ; pull away filament
G1 X180 F9000 ; wipe
G1 Y20 F9000 ; wipe
G1 E0 ; feed filament back
G92 E0
G1 E-1.5000 F2400
G1 Z0.195 F1000
; layer 1, Z = 0.195
T0
; tool H0.195 W0.400
; skirt
G1 X72.603 Y70.091 F6000
G1 E0.0000 F720
G92 E0
G1 X72.824 Y70.000 E0.0077 F750
G1 X127.176 Y70.000 E1.7703
G1 X127.397 Y70.091 E1.7781
G1 X129.909 Y72.603 E1.8933
G1 X130.000 Y72.824 E1.9010
G1 X130.000 Y127.176 E3.6636
G1 X129.909 Y127.397 E3.6713
G1 X127.397 Y129.909 E3.7865
G1 X127.176 Y130.000 E3.7943
G1 X72.824 Y130.000 E5.5568
G1 X72.603 Y129.909 E5.5646
G1 X70.091 Y127.397 E5.6798
G1 X70.000 Y127.176 E5.6875
G1 X70.000 Y72.824 E7.4501
G1 X70.091 Y72.603 E7.4578
G1 X72.462 Y70.233 E7.5665
G1 X72.603 Y70.091 F750
G1 X72.830 Y70.430 F6000
G92 E0
G1 X72.903 Y70.400 E0.0026 F750
G1 X127.097 Y70.400 E1.7600
G1 X127.170 Y70.430 E1.7626
G1 X129.570 Y72.830 E1.8726
G1 X129.600 Y72.903 E1.8752
G1 X129.600 Y127.097 E3.6326
G1 X129.570 Y127.170 E3.6352
G1 X127.170 Y129.570 E3.7452
G1 X127.097 Y129.600 E3.7478
G1 X72.903 Y129.600 E5.5052
G1 X72.830 Y129.570 E5.5078
G1 X70.430 Y127.170 E5.6178
G1 X70.400 Y127.097 E5.6204
G1 X70.400 Y72.903 E7.3778
G1 X70.430 Y72.830 E7.3804
G1 X72.688 Y70.572 E7.4840
G1 X72.830 Y70.430 F750
G92 E0
G1 E-1.5000 F2400
; inner perimeter
G1 X75.200 Y75.200 F6000
G1 E0.0000 F2400
G92 E0
G1 X124.800 Y75.200 E1.6085 F619
G1 X124.800 Y124.800 E3.2169
G1 X75.200 Y124.800 E4.8254
G1 X75.200 Y75.400 E6.4274
G1 X75.200 Y75.200 F619
; outer perimeter
G1 X74.800 Y74.800 F6000
G92 E0
G1 X125.200 Y74.800 E1.6344 F488
G1 X125.200 Y125.200 E3.2688
G1 X74.800 Y125.200 E4.9032
G1 X74.800 Y75.000 E6.5311
G1 X74.800 Y74.800 F488
; solid layer
G1 X124.109 Y75.460 F6000
G92 E0
G1 X124.540 Y75.891 E0.0198 F525
G1 X124.540 Y76.457 E0.0381
G1 X123.543 Y75.460 E0.0838
G1 X122.978 Y75.460 E0.1022
G1 X124.540 Y77.022 E0.1738
G1 X124.540 Y77.588 E0.1922
G1 X122.412 Y75.460 E0.2898
G1 X121.846 Y75.460 E0.3081
G1 X124.540 Y78.154 E0.4316
G1 X124.540 Y78.719 E0.4500
G1 X121.281 Y75.460 E0.5995
G1 X120.715 Y75.460 E0.6178
G1 X124.540 Y79.285 E0.7932
G1 X124.540 Y79.851 E0.8116
G1 X120.149 Y75.460 E1.0130
G1 X119.583 Y75.460 E1.0313
G1 X124.540 Y80.417 E1.2586
G1 X124.540 Y80.982 E1.2770
G1 X119.018 Y75.460 E1.5302
G1 X118.452 Y75.460 E1.5486
G1 X124.540 Y81.548 E1.8278
G1 X124.540 Y82.114 E1.8461
G1 X117.886 Y75.460 E2.1512
G1 X117.321 Y75.460 E2.1696
G1 X124.540 Y82.679 E2.5007
G1 X124.540 Y83.245 E2.5190
G1 X116.755 Y75.460 E2.8760
G1 X116.189 Y75.460 E2.8944
G1 X124.540 Y83.811 E3.2774
G1 X124.540 Y84.376 E3.2957
G1 X115.624 Y75.460 E3.7046
G1 X115.058 Y75.460 E3.7230
G1 X124.540 Y84.942 E4.1578
G1 X124.540 Y85.508 E4.1762
G1 X114.492 Y75.460 E4.6369
G1 X113.927 Y75.460 E4.6553
G1 X124.540 Y86.073 E5.1420
G1 X124.540 Y86.639 E5.1604
G1 X113.361 Y75.460 E5.6731
G1 X112.795 Y75.460 E5.6914
G1 X124.540 Y87.205 E6.2300
G1 X124.540 Y87.770 E6.2484
G1 X112.230 Y75.460 E6.8129
G1 X111.664 Y75.460 E6.8313
G1 X124.540 Y88.336 E7.4218
G1 X124.540 Y88.902 E7.4401
G1 X111.098 Y75.460 E8.0566
G1 X110.533 Y75.460 E8.0749
G1 X124.540 Y89.467 E8.7173
G1 X124.540 Y90.033 E8.7357
G1 X109.967 Y75.460 E9.4040
G1 X109.401 Y75.460 E9.4224
G1 X124.540 Y90.599 E10.1167
G1 X124.540 Y91.165 E10.1350
G1 X108.835 Y75.460 E10.8552
G1 X108.270 Y75.460 E10.8736
G1 X124.540 Y91.730 E11.6197
G1 X124.540 Y92.296 E11.6381
G1 X107.704 Y75.460 E12.4102
G1 X107.138 Y75.460 E12.4285
G1 X124.540 Y92.862 E13.2266
G1 X124.540 Y93.427 E13.2449
G1 X106.573 Y75.460 E14.0689
G1 X106.007 Y75.460 E14.0873
G1 X124.540 Y93.993 E14.9372
G1 X124.540 Y94.559 E14.9556
G1 X105.441 Y75.460 E15.8315
G1 X104.876 Y75.460 E15.8498
G1 X124.540 Y95.124 E16.7516
G1 X124.540 Y95.690 E16.7700
G1 X104.310 Y75.460 E17.6977
G1 X103.744 Y75.460 E17.7161
G1 X124.540 Y96.256 E18.6698
G1 X124.540 Y96.821 E18.6881
G1 X103.179 Y75.460 E19.6678
G1 X102.613 Y75.460 E19.6861
G1 X124.540 Y97.387 E20.6917
G1 X124.540 Y97.953 E20.7101
G1 X102.047 Y75.460 E21.7416
G1 X101.482 Y75.460 E21.7600
G1 X124.540 Y98.518 E22.8175
G1 X124.540 Y99.084 E22.8358
G1 X100.916 Y75.460 E23.9192
G1 X100.350 Y75.460 E23.9376
G1 X124.540 Y99.650 E25.0469
G1 X124.540 Y100.216 E25.0653
G1 X99.784 Y75.460 E26.2006
G1 X99.219 Y75.460 E26.2189
G1 X124.540 Y100.781 E27.3802
G1 X124.540 Y101.347 E27.3985
G1 X98.653 Y75.460 E28.5857
G1 X98.087 Y75.460 E28.6041
G1 X124.540 Y101.913 E29.8172
G1 X124.540 Y102.478 E29.8356
G1 X97.522 Y75.460 E31.0747
G1 X96.956 Y75.460 E31.0930
G1 X124.540 Y103.044 E32.3580
G1 X124.540 Y103.610 E32.3764
G1 X96.390 Y75.460 E33.6673
G1 X95.825 Y75.460 E33.6857
G1 X124.540 Y104.175 E35.0026
G1 X124.540 Y104.741 E35.0209
G1 X95.259 Y75.460 E36.3638
G1 X94.693 Y75.460 E36.3821
G1 X124.540 Y105.307 E37.7509
G1 X124.540 Y105.872 E37.7693
G1 X94.128 Y75.460 E39.1640
G1 X93.562 Y75.460 E39.1824
G1 X124.540 Y106.438 E40.6031
G1 X124.540 Y107.004 E40.6214
G1 X92.996 Y75.460 E42.0680
G1 X92.431 Y75.460 E42.0864
G1 X124.540 Y107.569 E43.5589
G1 X124.540 Y108.135 E43.5773
G1 X91.865 Y75.460 E45.0758
G1 X91.299 Y75.460 E45.0941
G1 X124.540 Y108.701 E46.6186
G1 X124.540 Y109.266 E46.6370
G1 X90.734 Y75.460 E48.1873
G1 X90.168 Y75.460 E48.2057
G1 X124.540 Y109.832 E49.7820
G1 X124.540 Y110.398 E49.8004
G1 X89.602 Y75.460 E51.4027
G1 X89.036 Y75.460 E51.4210
G1 X124.540 Y110.964 E53.0492
G1 X124.540 Y111.529 E53.0676
G1 X88.471 Y75.460 E54.7218
G1 X87.905 Y75.460 E54.7401
G1 X124.540 Y112.095 E56.4202
G1 X124.540 Y112.661 E56.4386
G1 X87.339 Y75.460 E58.1446
G1 X86.774 Y75.460 E58.1630
G1 X124.540 Y113.226 E59.8950
G1 X124.540 Y113.792 E59.9133
G1 X86.208 Y75.460 E61.6712
G1 X85.642 Y75.460 E61.6896
G1 X124.540 Y114.358 E63.4735
G1 X124.540 Y114.923 E63.4918
G1 X85.077 Y75.460 E65.3016
G1 X84.511 Y75.460 E65.3200
G1 X124.540 Y115.489 E67.1558
G1 X124.540 Y116.055 E67.1741
G1 X83.945 Y75.460 E69.0358
G1 X83.380 Y75.460 E69.0542
G1 X124.540 Y116.620 E70.9418
G1 X124.540 Y117.186 E70.9602
G1 X82.814 Y75.460 E72.8738
G1 X82.248 Y75.460 E72.8921
G1 X124.540 Y117.752 E74.8317
G1 X124.540 Y118.317 E74.8500
G1 X81.683 Y75.460 E76.8155
G1 X81.117 Y75.460 E76.8338
G1 X124.540 Y118.883 E78.8253
G1 X124.540 Y119.449 E78.8436
G1 X80.551 Y75.460 E80.8610
G1 X79.986 Y75.460 E80.8793
G1 X124.540 Y120.015 E82.9226
G1 X124.540 Y120.580 E82.9410
G1 X79.420 Y75.460 E85.0102
G1 X78.854 Y75.460 E85.0286
G1 X124.540 Y121.146 E87.1238
G1 X124.540 Y121.712 E87.1421
G1 X78.288 Y75.460 E89.2633
G1 X77.723 Y75.460 E89.2816
G1 X124.540 Y122.277 E91.4287
G1 X124.540 Y122.843 E91.4470
G1 X77.157 Y75.460 E93.6201
G1 X76.591 Y75.460 E93.6384
G1 X124.540 Y123.409 E95.8374
G1 X124.540 Y123.974 E95.8557
G1 X76.026 Y75.460 E98.0806
G1 X75.460 Y75.460 E98.0990
G1 X124.540 Y124.540 E100.3498
G1 X123.974 Y124.540 E100.3682
G1 X75.460 Y76.026 E102.5931
G1 X75.460 Y76.591 E102.6114
G1 X123.409 Y124.540 E104.8104
G1 X122.843 Y124.540 E104.8288
G1 X75.460 Y77.157 E107.0018
G1 X75.460 Y77.723 E107.0201
G1 X122.277 Y124.540 E109.1672
G1 X121.712 Y124.540 E109.1856
G1 X75.460 Y78.288 E111.3067
G1 X75.460 Y78.854 E111.3251
G1 X121.146 Y124.540 E113.4203
G1 X120.580 Y124.540 E113.4386
G1 X75.460 Y79.420 E115.5079
G1 X75.460 Y79.985 E115.5262
G1 X120.015 Y124.540 E117.5695
G1 X119.449 Y124.540 E117.5879
G1 X75.460 Y80.551 E119.6052
G1 X75.460 Y81.117 E119.6236
G1 X118.883 Y124.540 E121.6150
G1 X118.317 Y124.540 E121.6334
G1 X75.460 Y81.683 E123.5989
G1 X75.460 Y82.248 E123.6172
G1 X117.752 Y124.540 E125.5567
G1 X117.186 Y124.540 E125.5751
G1 X75.460 Y82.814 E127.4887
G1 X75.460 Y83.380 E127.5070
G1 X116.620 Y124.540 E129.3947
G1 X116.055 Y124.540 E129.4130
G1 X75.460 Y83.945 E131.2748
G1 X75.460 Y84.511 E131.2931
G1 X115.489 Y124.540 E133.1289
G1 X114.923 Y124.540 E133.1472
G1 X75.460 Y85.077 E134.9570
G1 X75.460 Y85.642 E134.9754
G1 X114.358 Y124.540 E136.7593
G1 X113.792 Y124.540 E136.7776
G1 X75.460 Y86.208 E138.5356
G1 X75.460 Y86.774 E138.5539
G1 X113.226 Y124.540 E140.2859
G1 X112.661 Y124.540 E140.3043
G1 X75.460 Y87.339 E142.0103
G1 X75.460 Y87.905 E142.0287
G1 X112.095 Y124.540 E143.7088
G1 X111.529 Y124.540 E143.7271
G1 X75.460 Y88.471 E145.3813
G1 X75.460 Y89.036 E145.3996
G1 X110.964 Y124.540 E147.0279
G1 X110.398 Y124.540 E147.0462
G1 X75.460 Y89.602 E148.6485
G1 X75.460 Y90.168 E148.6668
G1 X109.832 Y124.540 E150.2432
G1 X109.267 Y124.540 E150.2615
G1 X75.460 Y90.733 E151.8119
G1 X75.460 Y91.299 E151.8303
G1 X108.701 Y124.540 E153.3547
G1 X108.135 Y124.540 E153.3731
G1 X75.460 Y91.865 E154.8716
G1 X75.460 Y92.431 E154.8899
G1 X107.569 Y124.540 E156.3625
G1 X107.004 Y124.540 E156.3809
G1 X75.460 Y92.996 E157.8275
G1 X75.460 Y93.562 E157.8458
G1 X106.438 Y124.540 E159.2665
G1 X105.872 Y124.540 E159.2849
G1 X75.460 Y94.128 E160.6796
G1 X75.460 Y94.693 E160.6979
G1 X105.307 Y124.540 E162.0667
G1 X104.741 Y124.540 E162.0851
G1 X75.460 Y95.259 E163.4279
G1 X75.460 Y95.825 E163.4463
G1 X104.175 Y124.540 E164.7632
G1 X103.610 Y124.540 E164.7816
G1 X75.460 Y96.390 E166.0725
G1 X75.460 Y96.956 E166.0909
G1 X103.044 Y124.540 E167.3559
G1 X102.478 Y124.540 E167.3742
G1 X75.460 Y97.522 E168.6133
G1 X75.460 Y98.087 E168.6317
G1 X101.913 Y124.540 E169.8448
G1 X101.347 Y124.540 E169.8632
G1 X75.460 Y98.653 E171.0504
G1 X75.460 Y99.219 E171.0687
G1 X100.781 Y124.540 E172.2300
G1 X100.216 Y124.540 E172.2483
G1 X75.460 Y99.784 E173.3836
G1 X75.460 Y100.350 E173.4020
G1 X99.650 Y124.540 E174.5113
G1 X99.084 Y124.540 E174.5297
G1 X75.460 Y100.916 E175.6131
G1 X75.460 Y101.482 E175.6315
G1 X98.518 Y124.540 E176.6889
G1 X97.953 Y124.540 E176.7073
G1 X75.460 Y102.047 E177.7388
G1 X75.460 Y102.613 E177.7572
G1 X97.387 Y124.540 E178.7628
G1 X96.821 Y124.540 E178.7811
G1 X75.460 Y103.179 E179.7608
G1 X75.460 Y103.744 E179.7791
G1 X96.256 Y124.540 E180.7328
G1 X95.690 Y124.540 E180.7512
G1 X75.460 Y104.310 E181.6790
G1 X75.460 Y104.876 E181.6973
G1 X95.124 Y124.540 E182.5991
G1 X94.559 Y124.540 E182.6175
G1 X75.460 Y105.441 E183.4934
G1 X75.460 Y106.007 E183.5117
G1 X93.993 Y124.540 E184.3616
G1 X93.427 Y124.540 E184.3800
G1 X75.460 Y106.573 E185.2040
G1 X75.460 Y107.138 E185.2223
G1 X92.862 Y124.540 E186.0204
G1 X92.296 Y124.540 E186.0387
G1 X75.460 Y107.704 E186.8108
G1 X75.460 Y108.270 E186.8292
G1 X91.730 Y124.540 E187.5754
G1 X91.165 Y124.540 E187.5937
G1 X75.460 Y108.835 E188.3139
G1 X75.460 Y109.401 E188.3323
G1 X90.599 Y124.540 E189.0266
G1 X90.033 Y124.540 E189.0449
G1 X75.460 Y109.967 E189.7133
G1 X75.460 Y110.532 E189.7316
G1 X89.468 Y124.540 E190.3740
