; G-Code generated by Simplify3D(R) Version 3.1.0
; Sep 4, 2016 at 5:27:52 PM
; Settings Summary
;   processName,Process1
;   applyToModels,revisedcube
;   profileName,Wanhao Duplicator 6
;   profileVersion,2016-08-10 08:00:00
;   baseProfile,
;   printMaterial,ABS
;   printQuality,Medium
;   printExtruders,
;   extruderName,Primary Extruder
;   extruderToolheadNumber,0
;   extruderDiameter,0.4
;   extruderAutoWidth,0
;   extruderWidth,0.4
;   extrusionMultiplier,1
;   extruderUseRetract,1
;   extruderRetractionDistance,1.5
;   extruderExtraRestartDistance,0
;   extruderRetractionZLift,0
;   extruderRetractionSpeed,2400
;   extruderUseCoasting,1
;   extruderCoastingDistance,0.2
;   extruderUseWipe,0
;   extruderWipeDistance,2
;   primaryExtruder,0
;   layerHeight,0.15
;   topSolidLayers,4
;   bottomSolidLayers,3
;   perimeterOutlines,2
;   printPerimetersInsideOut,1
;   startPointOption,2
;   startPointOriginX,0
;   startPointOriginY,0
;   startPointOriginZ,300
;   sequentialIslands,0
;   spiralVaseMode,0
;   firstLayerHeightPercentage,130
;   firstLayerWidthPercentage,100
;   firstLayerUnderspeed,0.3
;   useRaft,0
;   raftExtruder,0
;   raftLayers,3
;   raftOffset,3
;   raftSeparationDistance,0.14
;   raftInfill,85
;   disableRaftBaseLayers,0
;   useSkirt,1
;   skirtExtruder,0
;   skirtLayers,1
;   skirtOutlines,2
;   skirtOffset,4
;   usePrimePillar,0
;   primePillarExtruder,999
;   primePillarWidth,12
;   primePillarLocation,7
;   primePillarSpeedMultiplier,1
;   useOozeShield,0
;   oozeShieldExtruder,999
;   oozeShieldOffset,2
;   oozeShieldOutlines,1
;   oozeShieldSidewallShape,1
;   oozeShieldSidewallAngle,30
;   oozeShieldSpeedMultiplier,1
;   infillExtruder,0
;   internalInfillPattern,Rectilinear
;   externalInfillPattern,Rectilinear
;   infillPercentage,20
;   outlineOverlapPercentage,35
;   infillExtrusionWidthPercentage,125
;   minInfillLength,3
;   infillLayerInterval,1
;   infillAngles,45,-45
;   overlapInfillAngles,0
;   generateSupport,0
;   supportExtruder,0
;   supportInfillPercentage,30
;   supportExtraInflation,0
;   denseSupportLayers,0
;   denseSupportInfillPercentage,70
;   supportLayerInterval,1
;   supportHorizontalPartOffset,0.3
;   supportUpperSeparationLayers,1
;   supportLowerSeparationLayers,1
;   supportType,0
;   supportGridSpacing,4
;   maxOverhangAngle,45
;   supportAngles,0
;   temperatureName,Primary Extruder,Heated Build Platform
;   temperatureNumber,0,1
;   temperatureSetpointCount,1,1
;   temperatureSetpointLayers,1,1
;   temperatureSetpointTemperatures,230,100
;   temperatureStabilizeAtStartup,1,1
;   temperatureHeatedBed,0,1
;   temperatureRelayBetweenLayers,0,0
;   temperatureRelayBetweenLoops,0,0
;   fanLayers,1
;   fanSpeeds,0
;   blipFanToFullPower,1
;   adjustSpeedForCooling,1
;   minSpeedLayerTime,15
;   minCoolingSpeedSlowdown,20
;   increaseFanForCooling,1
;   minFanLayerTime,10
;   maxCoolingFanSpeed,30
;   increaseFanForBridging,1
;   bridgingFanSpeed,45
;   use5D,1
;   relativeEdistances,0
;   allowEaxisZeroing,1
;   independentExtruderAxes,0
;   includeM10123,0
;   stickySupport,1
;   applyToolheadOffsets,0
;   gcodeXoffset,0
;   gcodeYoffset,0
;   gcodeZoffset,0
;   overrideMachineDefinition,1
;   machineTypeOverride,0
;   strokeXoverride,200
;   strokeYoverride,200
;   strokeZoverride,175
;   originOffsetXoverride,0
;   originOffsetYoverride,0
;   originOffsetZoverride,0
;   homeXdirOverride,-1
;   homeYdirOverride,-1
;   homeZdirOverride,-1
;   flipXoverride,1
;   flipYoverride,-1
;   flipZoverride,1
;   toolheadOffsets,0,0|0,0|0,0|0,0|0,0|0,0
;   overrideFirmwareConfiguration,1
;   firmwareTypeOverride,RepRap (Marlin/Repetier/Sprinter)
;   GPXconfigOverride,r2
;   baudRateOverride,250000
;   overridePrinterModels,1
;   printerModelsOverride
;   startingGcode,G28 ; home all axes,G92 E0 ; zero the extruded length,G1 Z10 ; lower,G1 E20 F200 ; purge nozzle quickly,G1 E10 F60 ; purge nozzle slowly,G92 E0 ; zero the extruded length again,G1 E-1.5 F400 ; retract,G1 X170 Z0 F9000 ; pull away filament,G1 X180 F9000 ; wipe,G1 Y20 F9000 ; wipe,G1 E0 ; feed filament back
;   layerChangeGcode,
;   retractionGcode,
;   toolChangeGcode,
;   endingGcode,G28 X0 ; home the X-axis,M104 S0 ; turn off heaters,M140 S0 ; turn off bed,M84 ; disable motors
;   exportFileFormat,gcode
;   celebration,0
;   celebrationSong,Random Song
;   postProcessing,
;   defaultSpeed,2500
;   outlineUnderspeed,0.65
;   solidInfillUnderspeed,0.7
;   supportUnderspeed,0.7
;   rapidXYspeed,6000
;   rapidZspeed,1000
;   minBridgingArea,5
;   bridgingExtraInflation,0
;   bridgingExtrusionMultiplier,1
;   bridgingSpeedMultiplier,0.5
;   filamentDiameter,1.75
;   filamentPricePerKg,46
;   filamentDensity,1.25
;   useMinPrintHeight,0
;   minPrintHeight,0
;   useMaxPrintHeight,0
;   maxPrintHeight,0
;   useDiaphragm,0
;   diaphragmLayerInterval,20
;   robustSlicing,1
;   mergeAllIntoSolid,0
;   onlyRetractWhenCrossingOutline,1
;   retractBetweenLayers,0
;   useRetractionMinTravel,1
;   retractionMinTravel,0.02
;   retractWhileWiping,0
;   onlyWipeOutlines,1
;   avoidCrossingOutline,0
;   maxMovementDetourFactor,3
;   toolChangeRetractionDistance,12
;   toolChangeExtraRestartDistance,-0.5
;   toolChangeRetractionSpeed,600
;   allowThinWallGapFill,1
;   thinWallAllowedOverlapPercentage,10
;   horizontalSizeCompensation,0
G90
M82
M106 S0
M140 S100
M190 S100
M104 S230 T0
M109 S230 T0
G28 ; home all axes
G92 E0 ; zero the extruded length
G1 Z10 ; lower
G1 E20 F200 ; purge nozzle quickly
G1 E10 F60 ; purge nozzle slowly
G92 E0 ; zero the extruded length again
G1 E-1.5 F400 ; retract
G1 X170 Z0 F9000 ; pull away filament
G1 X180 F9000 ; wipe
G1 Y20 F9000 ; wipe
G1 E0 ; feed filament back
G92 E0
G1 E-1.5000 F2400
G1 Z0.195 F1000
; layer 1, Z = 0.195
T0
; tool H0.195 W0.400
; skirt
G1 X68.651 Y71.163 F6000
G1 E0.0000 F720
G92 E0
G1 X71.163 Y68.651 E0.1152 F750
G1 X71.384 Y68.560 E0.1229
G1 X128.616 Y68.560 E1.9789
G1 X128.837 Y68.651 E1.9866
G1 X131.349 Y71.163 E2.1018
G1 X131.440 Y71.384 E2.1096
G1 X131.440 Y128.616 E3.9655
G1 X131.349 Y128.837 E3.9733
G1 X128.837 Y131.349 E4.0885
G1 X128.616 Y131.440 E4.0962
G1 X71.384 Y131.440 E5.9522
G1 X71.163 Y131.349 E5.9599
G1 X68.651 Y128.837 E6.0751
G1 X68.560 Y128.616 E6.0829
G1 X68.560 Y71.384 E7.9388
G1 X68.575 Y71.348 E7.9401
G1 X68.651 Y71.163 F750
G1 X68.991 Y71.390 F6000
G92 E0
G1 X71.390 Y68.991 E0.1100 F750
G1 X71.463 Y68.960 E0.1126
G1 X128.536 Y68.960 E1.9634
G1 X128.610 Y68.991 E1.9660
G1 X131.009 Y71.390 E2.0760
G1 X131.040 Y71.463 E2.0786
G1 X131.040 Y128.536 E3.9294
G1 X131.009 Y128.610 E3.9320
G1 X128.610 Y131.009 E4.0420
G1 X128.537 Y131.040 E4.0446
G1 X71.464 Y131.040 E5.8954
G1 X71.390 Y131.009 E5.8980
G1 X68.991 Y128.610 E6.0080
G1 X68.960 Y128.537 E6.0106
G1 X68.960 Y71.584 E7.8575
G1 X68.960 Y71.463 F750
G1 X68.991 Y71.390 F750
G92 E0
G1 E-1.5000 F2400
; inner perimeter
G1 X73.760 Y73.760 F6000
G1 E0.0000 F2400
G92 E0
G1 X126.240 Y73.760 E1.7018 F619
G1 X126.240 Y126.240 E3.4037
G1 X73.760 Y126.240 E5.1055
G1 X73.760 Y73.960 E6.8009
G1 X73.760 Y73.760 F619
; outer perimeter
G1 X73.360 Y73.360 F6000
G92 E0
G1 X126.640 Y73.360 E1.7278 F488
G1 X126.640 Y126.640 E3.4556
G1 X73.360 Y126.640 E5.1834
G1 X73.360 Y73.560 E6.9047
G1 X73.360 Y73.360 F488
; solid layer
G1 X125.498 Y74.020 F6000
G92 E0
G1 X125.980 Y74.502 E0.0221 F525
G1 X125.980 Y75.068 E0.0405
G1 X124.932 Y74.020 E0.0885
G1 X124.366 Y74.020 E0.1069
G1 X125.980 Y75.634 E0.1809
G1 X125.980 Y76.200 E0.1992
G1 X123.800 Y74.020 E0.2992
G1 X123.235 Y74.020 E0.3175
G1 X125.980 Y76.765 E0.4434
G1 X125.980 Y77.331 E0.4618
G1 X122.669 Y74.020 E0.6136
G1 X122.103 Y74.020 E0.6319
G1 X125.980 Y77.897 E0.8097
G1 X125.980 Y78.462 E0.8281
G1 X121.538 Y74.020 E1.0318
G1 X120.972 Y74.020 E1.0501
G1 X125.980 Y79.028 E1.2798
G1 X125.980 Y79.594 E1.2981
G1 X120.406 Y74.020 E1.5537
G1 X119.841 Y74.020 E1.5721
G1 X125.980 Y80.159 E1.8536
G1 X125.980 Y80.725 E1.8720
G1 X119.275 Y74.020 E2.1795
G1 X118.709 Y74.020 E2.1978
G1 X125.980 Y81.291 E2.5313
G1 X125.980 Y81.856 E2.5496
G1 X118.144 Y74.020 E2.9090
G1 X117.578 Y74.020 E2.9273
G1 X125.980 Y82.422 E3.3127
G1 X125.980 Y82.988 E3.3310
G1 X117.012 Y74.020 E3.7423
G1 X116.447 Y74.020 E3.7606
G1 X125.980 Y83.553 E4.1978
G1 X125.980 Y84.119 E4.2162
G1 X115.881 Y74.020 E4.6793
G1 X115.315 Y74.020 E4.6977
G1 X125.980 Y84.685 E5.1867
G1 X125.980 Y85.251 E5.2051
G1 X114.749 Y74.020 E5.7201
G1 X114.184 Y74.020 E5.7385
G1 X125.980 Y85.816 E6.2795
G1 X125.980 Y86.382 E6.2978
G1 X113.618 Y74.020 E6.8647
G1 X113.052 Y74.020 E6.8831
G1 X125.980 Y86.948 E7.4759
G1 X125.980 Y87.513 E7.4943
G1 X112.487 Y74.020 E8.1131
G1 X111.921 Y74.020 E8.1314
G1 X125.980 Y88.079 E8.7762
G1 X125.980 Y88.645 E8.7945
G1 X111.355 Y74.020 E9.4652
G1 X110.790 Y74.020 E9.4836
G1 X125.980 Y89.210 E10.1802
G1 X125.980 Y89.776 E10.1985
G1 X110.224 Y74.020 E10.9211
G1 X109.658 Y74.020 E10.9395
G1 X125.980 Y90.342 E11.6880
G1 X125.980 Y90.907 E11.7063
G1 X109.093 Y74.020 E12.4808
G1 X108.527 Y74.020 E12.4991
G1 X125.980 Y91.473 E13.2996
G1 X125.980 Y92.039 E13.3179
G1 X107.961 Y74.020 E14.1443
G1 X107.396 Y74.020 E14.1626
G1 X125.980 Y92.604 E15.0149
G1 X125.980 Y93.170 E15.0332
G1 X106.830 Y74.020 E15.9115
G1 X106.264 Y74.020 E15.9298
G1 X125.980 Y93.736 E16.8340
G1 X125.980 Y94.301 E16.8523
G1 X105.699 Y74.020 E17.7825
G1 X105.133 Y74.020 E17.8008
G1 X125.980 Y94.867 E18.7569
G1 X125.980 Y95.433 E18.7752
G1 X104.567 Y74.020 E19.7572
G1 X104.001 Y74.020 E19.7756
G1 X125.980 Y95.999 E20.7835
G1 X125.980 Y96.564 E20.8019
G1 X103.436 Y74.020 E21.8358
G1 X102.870 Y74.020 E21.8541
G1 X125.980 Y97.130 E22.9139
G1 X125.980 Y97.696 E22.9323
G1 X102.304 Y74.020 E24.0181
G1 X101.739 Y74.020 E24.0364
G1 X125.980 Y98.261 E25.1481
G1 X125.980 Y98.827 E25.1665
G1 X101.173 Y74.020 E26.3042
G1 X100.607 Y74.020 E26.3225
G1 X125.980 Y99.393 E27.4861
G1 X125.980 Y99.958 E27.5045
G1 X100.042 Y74.020 E28.6940
G1 X99.476 Y74.020 E28.7123
G1 X125.980 Y100.524 E29.9278
G1 X125.980 Y101.090 E29.9462
G1 X98.910 Y74.020 E31.1876
G1 X98.345 Y74.020 E31.2060
G1 X125.980 Y101.655 E32.4734
G1 X125.980 Y102.221 E32.4917
G1 X97.779 Y74.020 E33.7850
G1 X97.213 Y74.020 E33.8034
G1 X125.980 Y102.787 E35.1226
G1 X125.980 Y103.352 E35.1410
G1 X96.648 Y74.020 E36.4862
G1 X96.082 Y74.020 E36.5045
G1 X125.980 Y103.918 E37.8757
G1 X125.980 Y104.484 E37.8940
G1 X95.516 Y74.020 E39.2911
G1 X94.950 Y74.020 E39.3095
G1 X125.980 Y105.049 E40.7325
G1 X125.980 Y105.615 E40.7509
G1 X94.385 Y74.020 E42.1998
G1 X93.819 Y74.020 E42.2182
G1 X125.980 Y106.181 E43.6931
G1 X125.980 Y106.747 E43.7114
G1 X93.253 Y74.020 E45.2123
G1 X92.688 Y74.020 E45.2307
G1 X125.980 Y107.312 E46.7575
G1 X125.980 Y107.878 E46.7758
G1 X92.122 Y74.020 E48.3286
G1 X91.556 Y74.020 E48.3469
G1 X125.980 Y108.444 E49.9256
G1 X125.980 Y109.009 E49.9439
G1 X90.991 Y74.020 E51.5486
G1 X90.425 Y74.020 E51.5669
G1 X125.980 Y109.575 E53.1975
G1 X125.980 Y110.141 E53.2159
G1 X89.859 Y74.020 E54.8724
G1 X89.294 Y74.020 E54.8907
G1 X125.980 Y110.706 E56.5732
G1 X125.980 Y111.272 E56.5915
G1 X88.728 Y74.020 E58.3000
G1 X88.162 Y74.020 E58.3183
G1 X125.980 Y111.838 E60.0526
G1 X125.980 Y112.403 E60.0710
G1 X87.597 Y74.020 E61.8313
G1 X87.031 Y74.020 E61.8496
G1 X125.980 Y112.969 E63.6359
G1 X125.980 Y113.535 E63.6542
G1 X86.465 Y74.020 E65.4664
G1 X85.900 Y74.020 E65.4847
G1 X125.980 Y114.100 E67.3229
G1 X125.980 Y114.666 E67.3412
G1 X85.334 Y74.020 E69.2053
G1 X84.768 Y74.020 E69.2236
G1 X125.980 Y115.232 E71.1136
G1 X125.980 Y115.798 E71.1320
G1 X84.202 Y74.020 E73.0479
G1 X83.637 Y74.020 E73.0663
G1 X125.980 Y116.363 E75.0082
G1 X125.980 Y116.929 E75.0265
G1 X83.071 Y74.020 E76.9944
G1 X82.505 Y74.020 E77.0127
G1 X125.980 Y117.495 E79.0065
G1 X125.980 Y118.060 E79.0248
G1 X81.940 Y74.020 E81.0446
G1 X81.374 Y74.020 E81.0629
G1 X125.980 Y118.626 E83.1086
G1 X125.980 Y119.192 E83.1269
G1 X80.808 Y74.020 E85.1985
G1 X80.243 Y74.020 E85.2169
G1 X125.980 Y119.757 E87.3144
G1 X125.980 Y120.323 E87.3328
G1 X79.677 Y74.020 E89.4563
G1 X79.111 Y74.020 E89.4746
G1 X125.980 Y120.889 E91.6240
G1 X125.980 Y121.454 E91.6424
G1 X78.546 Y74.020 E93.8178
G1 X77.980 Y74.020 E93.8361
G1 X125.980 Y122.020 E96.0374
G1 X125.980 Y122.586 E96.0558
G1 X77.414 Y74.020 E98.2831
G1 X76.849 Y74.020 E98.3014
G1 X125.980 Y123.151 E100.5546
G1 X125.980 Y123.717 E100.5730
G1 X76.283 Y74.020 E102.8521
G1 X75.717 Y74.020 E102.8705
G1 X125.980 Y124.283 E105.1756
G1 X125.980 Y124.848 E105.1939
G1 X75.152 Y74.020 E107.5249
G1 X74.586 Y74.020 E107.5433
G1 X125.980 Y125.414 E109.9003
G1 X125.980 Y125.980 E109.9186
G1 X74.020 Y74.020 E112.3015
G1 X74.020 Y74.586 E112.3199
G1 X125.414 Y125.980 E114.6769
G1 X124.848 Y125.980 E114.6952
G1 X74.020 Y75.151 E117.0263
G1 X74.020 Y75.717 E117.0446
G1 X124.283 Y125.980 E119.3497
G1 X123.717 Y125.980 E119.3680
G1 X74.020 Y76.283 E121.6472
G1 X74.020 Y76.849 E121.6655
G1 X123.151 Y125.980 E123.9187
G1 X122.586 Y125.980 E123.9371
G1 X74.020 Y77.414 E126.1644
G1 X74.020 Y77.980 E126.1827
G1 X122.020 Y125.980 E128.3840
G1 X121.454 Y125.980 E128.4024
G1 X74.020 Y78.546 E130.5778
G1 X74.020 Y79.111 E130.5961
G1 X120.889 Y125.980 E132.7455
G1 X120.323 Y125.980 E132.7639
G1 X74.020 Y79.677 E134.8874
G1 X74.020 Y80.243 E134.9057
G1 X119.757 Y125.980 E137.0033
G1 X119.192 Y125.980 E137.0216
G1 X74.020 Y80.808 E139.0932
G1 X74.020 Y81.374 E139.1116
G1 X118.626 Y125.980 E141.1573
G1 X118.060 Y125.980 E141.1756
G1 X74.020 Y81.940 E143.1953
G1 X74.020 Y82.505 E143.2137
G1 X117.495 Y125.980 E145.2074
G1 X116.929 Y125.980 E145.2258
G1 X74.020 Y83.071 E147.1936
G1 X74.020 Y83.637 E147.2120
G1 X116.363 Y125.980 E149.1539
G1 X115.798 Y125.980 E149.1722
G1 X74.020 Y84.202 E151.0882
G1 X74.020 Y84.768 E151.1065
G1 X115.232 Y125.980 E152.9965
G1 X114.666 Y125.980 E153.0149
G1 X74.020 Y85.334 E154.8789
G1 X74.020 Y85.900 E154.8973
G1 X114.100 Y125.980 E156.7354
G1 X113.535 Y125.980 E156.7538
G1 X74.020 Y86.465 E158.5659
G1 X74.020 Y87.031 E158.5843
G1 X112.969 Y125.980 E160.3705
G1 X112.403 Y125.980 E160.3889
G1 X74.020 Y87.597 E162.1492
G1 X74.020 Y88.162 E162.1675
G1 X111.838 Y125.980 E163.9019
G1 X111.272 Y125.980 E163.9202
G1 X74.020 Y88.728 E165.6286
G1 X74.020 Y89.294 E165.6470
G1 X110.706 Y125.980 E167.3294
G1 X110.141 Y125.980 E167.3478
G1 X74.020 Y89.859 E169.0043
G1 X74.020 Y90.425 E169.0226
G1 X109.575 Y125.980 E170.6532
G1 X109.009 Y125.980 E170.6716
G1 X74.020 Y90.991 E172.2762
G1 X74.020 Y91.556 E172.2946
G1 X108.444 Y125.980 E173.8732
G1 X107.878 Y125.980 E173.8916
G1 X74.020 Y92.122 E175.4443
G1 X74.020 Y92.688 E175.4627
G1 X107.312 Y125.980 E176.9895
G1 X106.747 Y125.980 E177.0078
G1 X74.020 Y93.253 E178.5087
G1 X74.020 Y93.819 E178.5271
G1 X106.181 Y125.980 E180.0020
G1 X105.615 Y125.980 E180.0203
G1 X74.020 Y94.385 E181.4693
G1 X74.020 Y94.950 E181.4877
G1 X105.050 Y125.980 E182.9107
G1 X104.484 Y125.980 E182.9290
G1 X74.020 Y95.516 E184.3261
G1 X74.020 Y96.082 E184.3445
G1 X103.918 Y125.980 E185.7156
G1 X103.352 Y125.980 E185.7340
G1 X74.020 Y96.648 E187.0792
G1 X74.020 Y97.213 E187.0975
G1 X102.787 Y125.980 E188.4168
G1 X102.221 Y125.980 E188.4351
G1 X74.020 Y97.779 E189.7285
G1 X74.020 Y98.345 E189.7468
G1 X101.655 Y125.980 E191.0142
G1 X101.090 Y125.980 E191.0325
G1 X74.020 Y98.910 E192.2740
G1 X74.020 Y99.476 E192.2923
G1 X100.524 Y125.980 E193.5078
G1 X99.958 Y125.980 E193.5262
G1 X74.020 Y100.042 E194.7157
G1 X74.020 Y100.607 E194.7341
G1 X99.393 Y125.980 E195.8977
G1 X98.827 Y125.980 E195.9160
G1 X74.020 Y101.173 E197.0537
G1 X74.020 Y101.739 E197.0720
G1 X98.261 Y125.980 E198.1837
G1 X97.696 Y125.980 E198.2021
G1 X74.020 Y102.304 E199.2879
G1 X74.020 Y102.870 E199.3062
G1 X97.130 Y125.980 E200.3661
G1 X96.564 Y125.980 E200.3844
G1 X74.020 Y103.436 E201.4183
G1 X74.020 Y104.001 E201.4366
G1 X95.999 Y125.980 E202.4446
G1 X95.433 Y125.980 E202.4629
G1 X74.020 Y104.567 E203.4449
G1 X74.020 Y105.133 E203.4633
G1 X94.867 Y125.980 E204.4194
G1 X94.301 Y125.980 E204.4377
G1 X74.020 Y105.699 E205.3678
G1 X74.020 Y106.264 E205.3862
G1 X93.736 Y125.980 E206.2903
