; G-Code generated by Simplify3D(R) Version 3.1.0
; Sep 4, 2016 at 5:29:48 PM
; Settings Summary
;   processName,Process1
;   applyToModels,cube4(biggerbottom)
;   profileName,Wanhao Duplicator 6
;   profileVersion,2016-08-10 08:00:00
;   baseProfile,
;   printMaterial,ABS
;   printQuality,Medium
;   printExtruders,
;   extruderName,Primary Extruder
;   extruderToolheadNumber,0
;   extruderDiameter,0.4
;   extruderAutoWidth,0
;   extruderWidth,0.4
;   extrusionMultiplier,1
;   extruderUseRetract,1
;   extruderRetractionDistance,1.5
;   extruderExtraRestartDistance,0
;   extruderRetractionZLift,0
;   extruderRetractionSpeed,2400
;   extruderUseCoasting,1
;   extruderCoastingDistance,0.2
;   extruderUseWipe,0
;   extruderWipeDistance,2
;   primaryExtruder,0
;   layerHeight,0.15
;   topSolidLayers,4
;   bottomSolidLayers,3
;   perimeterOutlines,2
;   printPerimetersInsideOut,1
;   startPointOption,2
;   startPointOriginX,0
;   startPointOriginY,0
;   startPointOriginZ,300
;   sequentialIslands,0
;   spiralVaseMode,0
;   firstLayerHeightPercentage,130
;   firstLayerWidthPercentage,100
;   firstLayerUnderspeed,0.3
;   useRaft,0
;   raftExtruder,0
;   raftLayers,3
;   raftOffset,3
;   raftSeparationDistance,0.14
;   raftInfill,85
;   disableRaftBaseLayers,0
;   useSkirt,1
;   skirtExtruder,0
;   skirtLayers,1
;   skirtOutlines,2
;   skirtOffset,4
;   usePrimePillar,0
;   primePillarExtruder,999
;   primePillarWidth,12
;   primePillarLocation,7
;   primePillarSpeedMultiplier,1
;   useOozeShield,0
;   oozeShieldExtruder,999
;   oozeShieldOffset,2
;   oozeShieldOutlines,1
;   oozeShieldSidewallShape,1
;   oozeShieldSidewallAngle,30
;   oozeShieldSpeedMultiplier,1
;   infillExtruder,0
;   internalInfillPattern,Rectilinear
;   externalInfillPattern,Rectilinear
;   infillPercentage,20
;   outlineOverlapPercentage,35
;   infillExtrusionWidthPercentage,125
;   minInfillLength,3
;   infillLayerInterval,1
;   infillAngles,45,-45
;   overlapInfillAngles,0
;   generateSupport,0
;   supportExtruder,0
;   supportInfillPercentage,30
;   supportExtraInflation,0
;   denseSupportLayers,0
;   denseSupportInfillPercentage,70
;   supportLayerInterval,1
;   supportHorizontalPartOffset,0.3
;   supportUpperSeparationLayers,1
;   supportLowerSeparationLayers,1
;   supportType,0
;   supportGridSpacing,4
;   maxOverhangAngle,45
;   supportAngles,0
;   temperatureName,Primary Extruder,Heated Build Platform
;   temperatureNumber,0,1
;   temperatureSetpointCount,1,1
;   temperatureSetpointLayers,1,1
;   temperatureSetpointTemperatures,230,100
;   temperatureStabilizeAtStartup,1,1
;   temperatureHeatedBed,0,1
;   temperatureRelayBetweenLayers,0,0
;   temperatureRelayBetweenLoops,0,0
;   fanLayers,1
;   fanSpeeds,0
;   blipFanToFullPower,1
;   adjustSpeedForCooling,1
;   minSpeedLayerTime,15
;   minCoolingSpeedSlowdown,20
;   increaseFanForCooling,1
;   minFanLayerTime,10
;   maxCoolingFanSpeed,30
;   increaseFanForBridging,1
;   bridgingFanSpeed,45
;   use5D,1
;   relativeEdistances,0
;   allowEaxisZeroing,1
;   independentExtruderAxes,0
;   includeM10123,0
;   stickySupport,1
;   applyToolheadOffsets,0
;   gcodeXoffset,0
;   gcodeYoffset,0
;   gcodeZoffset,0
;   overrideMachineDefinition,1
;   machineTypeOverride,0
;   strokeXoverride,200
;   strokeYoverride,200
;   strokeZoverride,175
;   originOffsetXoverride,0
;   originOffsetYoverride,0
;   originOffsetZoverride,0
;   homeXdirOverride,-1
;   homeYdirOverride,-1
;   homeZdirOverride,-1
;   flipXoverride,1
;   flipYoverride,-1
;   flipZoverride,1
;   toolheadOffsets,0,0|0,0|0,0|0,0|0,0|0,0
;   overrideFirmwareConfiguration,1
;   firmwareTypeOverride,RepRap (Marlin/Repetier/Sprinter)
;   GPXconfigOverride,r2
;   baudRateOverride,250000
;   overridePrinterModels,1
;   printerModelsOverride
;   startingGcode,G28 ; home all axes,G92 E0 ; zero the extruded length,G1 Z10 ; lower,G1 E20 F200 ; purge nozzle quickly,G1 E10 F60 ; purge nozzle slowly,G92 E0 ; zero the extruded length again,G1 E-1.5 F400 ; retract,G1 X170 Z0 F9000 ; pull away filament,G1 X180 F9000 ; wipe,G1 Y20 F9000 ; wipe,G1 E0 ; feed filament back
;   layerChangeGcode,
;   retractionGcode,
;   toolChangeGcode,
;   endingGcode,G28 X0 ; home the X-axis,M104 S0 ; turn off heaters,M140 S0 ; turn off bed,M84 ; disable motors
;   exportFileFormat,gcode
;   celebration,0
;   celebrationSong,Random Song
;   postProcessing,
;   defaultSpeed,2500
;   outlineUnderspeed,0.65
;   solidInfillUnderspeed,0.7
;   supportUnderspeed,0.7
;   rapidXYspeed,6000
;   rapidZspeed,1000
;   minBridgingArea,5
;   bridgingExtraInflation,0
;   bridgingExtrusionMultiplier,1
;   bridgingSpeedMultiplier,0.5
;   filamentDiameter,1.75
;   filamentPricePerKg,46
;   filamentDensity,1.25
;   useMinPrintHeight,0
;   minPrintHeight,0
;   useMaxPrintHeight,0
;   maxPrintHeight,0
;   useDiaphragm,0
;   diaphragmLayerInterval,20
;   robustSlicing,1
;   mergeAllIntoSolid,0
;   onlyRetractWhenCrossingOutline,1
;   retractBetweenLayers,0
;   useRetractionMinTravel,1
;   retractionMinTravel,0.02
;   retractWhileWiping,0
;   onlyWipeOutlines,1
;   avoidCrossingOutline,0
;   maxMovementDetourFactor,3
;   toolChangeRetractionDistance,12
;   toolChangeExtraRestartDistance,-0.5
;   toolChangeRetractionSpeed,600
;   allowThinWallGapFill,1
;   thinWallAllowedOverlapPercentage,10
;   horizontalSizeCompensation,0
G90
M82
M106 S0
M140 S100
M190 S100
M104 S230 T0
M109 S230 T0
G28 ; home all axes
G92 E0 ; zero the extruded length
G1 Z10 ; lower
G1 E20 F200 ; purge nozzle quickly
G1 E10 F60 ; purge nozzle slowly
G92 E0 ; zero the extruded length again
G1 E-1.5 F400 ; retract
G1 X170 Z0 F9000 ; pull away filament
G1 X180 F9000 ; wipe
G1 Y20 F9000 ; wipe
G1 E0 ; feed filament back
G92 E0
G1 E-1.5000 F2400
G1 Z0.195 F1000
; layer 1, Z = 0.195
T0
; tool H0.195 W0.400
; skirt
G1 X68.261 Y70.773 F6000
G1 E0.0000 F720
G92 E0
G1 X70.773 Y68.261 E0.1152 F750
G1 X70.994 Y68.170 E0.1229
G1 X129.006 Y68.170 E2.0042
G1 X129.227 Y68.261 E2.0119
G1 X131.739 Y70.773 E2.1271
G1 X131.830 Y70.994 E2.1349
G1 X131.830 Y129.006 E4.0162
G1 X131.739 Y129.227 E4.0239
G1 X129.227 Y131.739 E4.1391
G1 X129.006 Y131.830 E4.1468
G1 X70.994 Y131.830 E6.0281
G1 X70.773 Y131.739 E6.0358
G1 X68.261 Y129.227 E6.1510
G1 X68.170 Y129.006 E6.1588
G1 X68.170 Y70.994 E8.0401
G1 X68.185 Y70.958 E8.0413
G1 X68.261 Y70.773 F750
G1 X68.600 Y71.000 F6000
G92 E0
G1 X71.000 Y68.600 E0.1100 F750
G1 X71.073 Y68.570 E0.1126
G1 X128.927 Y68.570 E1.9887
G1 X129.000 Y68.600 E1.9913
G1 X131.400 Y71.000 E2.1013
G1 X131.430 Y71.073 E2.1039
G1 X131.430 Y128.927 E3.9800
G1 X131.400 Y129.000 E3.9826
G1 X129.000 Y131.400 E4.0927
G1 X128.927 Y131.430 E4.0952
G1 X71.073 Y131.430 E5.9713
G1 X71.000 Y131.400 E5.9739
G1 X68.600 Y129.000 E6.0840
G1 X68.570 Y128.927 E6.0865
G1 X68.570 Y71.194 E7.9587
G1 X68.570 Y71.073 F750
G1 X68.600 Y71.000 F750
G92 E0
G1 E-1.5000 F2400
; inner perimeter
G1 X73.370 Y73.370 F6000
G1 E0.0000 F2400
G92 E0
G1 X126.630 Y73.370 E1.7272 F619
G1 X126.630 Y126.630 E3.4543
G1 X73.370 Y126.630 E5.1815
G1 X73.370 Y73.570 E6.9021
G1 X73.370 Y73.370 F619
; outer perimeter
G1 X72.970 Y72.970 F6000
G92 E0
G1 X127.030 Y72.970 E1.7531 F488
G1 X127.030 Y127.030 E3.5062
G1 X72.970 Y127.030 E5.2593
G1 X72.970 Y73.170 E7.0059
G1 X72.970 Y72.970 F488
; solid layer
G1 X126.239 Y73.630 F6000
G92 E0
G1 X126.370 Y73.761 E0.0060 F525
G1 X126.370 Y74.327 E0.0244
G1 X125.673 Y73.630 E0.0563
G1 X125.107 Y73.630 E0.0747
G1 X126.370 Y74.893 E0.1326
G1 X126.370 Y75.458 E0.1509
G1 X124.542 Y73.630 E0.2348
G1 X123.976 Y73.630 E0.2531
G1 X126.370 Y76.024 E0.3629
G1 X126.370 Y76.590 E0.3813
G1 X123.410 Y73.630 E0.5170
G1 X122.845 Y73.630 E0.5354
G1 X126.370 Y77.155 E0.6970
G1 X126.370 Y77.721 E0.7154
G1 X122.279 Y73.630 E0.9030
G1 X121.713 Y73.630 E0.9214
G1 X126.370 Y78.287 E1.1349
G1 X126.370 Y78.852 E1.1533
G1 X121.148 Y73.630 E1.3928
G1 X120.582 Y73.630 E1.4111
G1 X126.370 Y79.418 E1.6766
G1 X126.370 Y79.984 E1.6949
G1 X120.016 Y73.630 E1.9863
G1 X119.450 Y73.630 E2.0047
G1 X126.370 Y80.550 E2.3220
G1 X126.370 Y81.115 E2.3404
G1 X118.885 Y73.630 E2.6836
G1 X118.319 Y73.630 E2.7020
G1 X126.370 Y81.681 E3.0712
G1 X126.370 Y82.247 E3.0896
G1 X117.753 Y73.630 E3.4847
G1 X117.188 Y73.630 E3.5031
G1 X126.370 Y82.812 E3.9242
G1 X126.370 Y83.378 E3.9425
G1 X116.622 Y73.630 E4.3896
G1 X116.056 Y73.630 E4.4079
G1 X126.370 Y83.944 E4.8809
G1 X126.370 Y84.509 E4.8993
G1 X115.491 Y73.630 E5.3982
G1 X114.925 Y73.630 E5.4165
G1 X126.370 Y85.075 E5.9414
G1 X126.370 Y85.641 E5.9598
G1 X114.359 Y73.630 E6.5106
G1 X113.794 Y73.630 E6.5289
G1 X126.370 Y86.206 E7.1057
G1 X126.370 Y86.772 E7.1241
G1 X113.228 Y73.630 E7.7268
G1 X112.662 Y73.630 E7.7451
G1 X126.370 Y87.338 E8.3738
G1 X126.370 Y87.903 E8.3921
G1 X112.097 Y73.630 E9.0467
G1 X111.531 Y73.630 E9.0651
G1 X126.370 Y88.469 E9.7456
G1 X126.370 Y89.035 E9.7639
G1 X110.965 Y73.630 E10.4704
G1 X110.399 Y73.630 E10.4888
G1 X126.370 Y89.600 E11.2212
G1 X126.370 Y90.166 E11.2395
G1 X109.834 Y73.630 E11.9979
G1 X109.268 Y73.630 E12.0163
G1 X126.370 Y90.732 E12.8006
G1 X126.370 Y91.298 E12.8189
G1 X108.702 Y73.630 E13.6292
G1 X108.137 Y73.630 E13.6475
G1 X126.370 Y91.863 E14.4837
G1 X126.370 Y92.429 E14.5021
G1 X107.571 Y73.630 E15.3642
G1 X107.005 Y73.630 E15.3825
G1 X126.370 Y92.995 E16.2706
G1 X126.370 Y93.560 E16.2890
G1 X106.440 Y73.630 E17.2030
G1 X105.874 Y73.630 E17.2213
G1 X126.370 Y94.126 E18.1613
G1 X126.370 Y94.692 E18.1797
G1 X105.308 Y73.630 E19.1456
G1 X104.743 Y73.630 E19.1639
G1 X126.370 Y95.257 E20.1558
G1 X126.370 Y95.823 E20.1741
G1 X104.177 Y73.630 E21.1919
G1 X103.611 Y73.630 E21.2103
G1 X126.370 Y96.389 E22.2540
G1 X126.370 Y96.954 E22.2723
G1 X103.046 Y73.630 E23.3420
G1 X102.480 Y73.630 E23.3604
G1 X126.370 Y97.520 E24.4560
G1 X126.370 Y98.086 E24.4743
G1 X101.914 Y73.630 E25.5959
G1 X101.349 Y73.630 E25.6143
G1 X126.370 Y98.651 E26.7618
G1 X126.370 Y99.217 E26.7801
G1 X100.783 Y73.630 E27.9536
G1 X100.217 Y73.630 E27.9719
G1 X126.370 Y99.783 E29.1713
G1 X126.370 Y100.349 E29.1897
G1 X99.651 Y73.630 E30.4150
G1 X99.086 Y73.630 E30.4333
G1 X126.370 Y100.914 E31.6846
G1 X126.370 Y101.480 E31.7030
G1 X98.520 Y73.630 E32.9802
G1 X97.954 Y73.630 E32.9986
G1 X126.370 Y102.046 E34.3017
G1 X126.370 Y102.611 E34.3201
G1 X97.389 Y73.630 E35.6492
G1 X96.823 Y73.630 E35.6675
G1 X126.370 Y103.177 E37.0226
G1 X126.370 Y103.743 E37.0409
G1 X96.257 Y73.630 E38.4219
G1 X95.692 Y73.630 E38.4403
G1 X126.370 Y104.308 E39.8472
G1 X126.370 Y104.874 E39.8656
G1 X95.126 Y73.630 E41.2984
G1 X94.560 Y73.630 E41.3168
G1 X126.370 Y105.440 E42.7756
G1 X126.370 Y106.005 E42.7940
G1 X93.995 Y73.630 E44.2787
G1 X93.429 Y73.630 E44.2971
G1 X126.370 Y106.571 E45.8078
G1 X126.370 Y107.137 E45.8261
G1 X92.863 Y73.630 E47.3628
G1 X92.298 Y73.630 E47.3811
G1 X126.370 Y107.702 E48.9437
G1 X126.370 Y108.268 E48.9621
G1 X91.732 Y73.630 E50.5506
G1 X91.166 Y73.630 E50.5690
G1 X126.370 Y108.834 E52.1834
G1 X126.370 Y109.399 E52.2018
G1 X90.601 Y73.630 E53.8422
G1 X90.035 Y73.630 E53.8606
G1 X126.370 Y109.965 E55.5269
G1 X126.370 Y110.531 E55.5453
G1 X89.469 Y73.630 E57.2376
G1 X88.903 Y73.630 E57.2559
G1 X126.370 Y111.097 E58.9742
G1 X126.370 Y111.662 E58.9925
G1 X88.338 Y73.630 E60.7367
G1 X87.772 Y73.630 E60.7551
G1 X126.370 Y112.228 E62.5252
G1 X126.370 Y112.794 E62.5436
G1 X87.206 Y73.630 E64.3397
G1 X86.641 Y73.630 E64.3580
G1 X126.370 Y113.359 E66.1800
G1 X126.370 Y113.925 E66.1984
G1 X86.075 Y73.630 E68.0463
G1 X85.509 Y73.630 E68.0647
G1 X126.370 Y114.491 E69.9386
G1 X126.370 Y115.056 E69.9570
G1 X84.944 Y73.630 E71.8568
G1 X84.378 Y73.630 E71.8752
G1 X126.370 Y115.622 E73.8010
G1 X126.370 Y116.188 E73.8193
G1 X83.812 Y73.630 E75.7710
G1 X83.247 Y73.630 E75.7894
G1 X126.370 Y116.753 E77.7671
G1 X126.370 Y117.319 E77.7854
G1 X82.681 Y73.630 E79.7890
G1 X82.115 Y73.630 E79.8074
G1 X126.370 Y117.885 E81.8370
G1 X126.370 Y118.450 E81.8553
G1 X81.550 Y73.630 E83.9108
G1 X80.984 Y73.630 E83.9292
G1 X126.370 Y119.016 E86.0106
G1 X126.370 Y119.582 E86.0290
G1 X80.418 Y73.630 E88.1364
G1 X79.852 Y73.630 E88.1547
G1 X126.370 Y120.148 E90.2881
G1 X126.370 Y120.713 E90.3064
G1 X79.287 Y73.630 E92.4657
G1 X78.721 Y73.630 E92.4840
G1 X126.370 Y121.279 E94.6693
G1 X126.370 Y121.845 E94.6876
G1 X78.155 Y73.630 E96.8988
G1 X77.590 Y73.630 E96.9171
G1 X126.370 Y122.410 E99.1542
G1 X126.370 Y122.976 E99.1726
G1 X77.024 Y73.630 E101.4356
G1 X76.458 Y73.630 E101.4540
G1 X126.370 Y123.542 E103.7430
G1 X126.370 Y124.107 E103.7613
G1 X75.893 Y73.630 E106.0763
G1 X75.327 Y73.630 E106.0946
G1 X126.370 Y124.673 E108.4355
G1 X126.370 Y125.239 E108.4539
G1 X74.761 Y73.630 E110.8207
G1 X74.196 Y73.630 E110.8390
G1 X126.370 Y125.804 E113.2318
G1 X126.370 Y126.370 E113.2501
G1 X73.630 Y73.630 E115.6689
G1 X73.630 Y74.196 E115.6872
G1 X125.804 Y126.370 E118.0800
G1 X125.239 Y126.370 E118.0983
G1 X73.630 Y74.761 E120.4651
G1 X73.630 Y75.327 E120.4835
G1 X124.673 Y126.370 E122.8244
G1 X124.107 Y126.370 E122.8427
G1 X73.630 Y75.893 E125.1577
G1 X73.630 Y76.458 E125.1760
G1 X123.542 Y126.370 E127.4650
G1 X122.976 Y126.370 E127.4834
G1 X73.630 Y77.024 E129.7464
G1 X73.630 Y77.590 E129.7648
G1 X122.410 Y126.370 E132.0019
G1 X121.845 Y126.370 E132.0202
G1 X73.630 Y78.155 E134.2314
G1 X73.630 Y78.721 E134.2497
G1 X121.279 Y126.370 E136.4350
G1 X120.713 Y126.370 E136.4533
G1 X73.630 Y79.287 E138.6126
G1 X73.630 Y79.852 E138.6309
G1 X120.148 Y126.370 E140.7643
G1 X119.582 Y126.370 E140.7826
G1 X73.630 Y80.418 E142.8900
G1 X73.630 Y80.984 E142.9084
G1 X119.016 Y126.370 E144.9898
G1 X118.450 Y126.370 E145.0082
G1 X73.630 Y81.550 E147.0637
G1 X73.630 Y82.115 E147.0820
G1 X117.885 Y126.370 E149.1116
G1 X117.319 Y126.370 E149.1300
G1 X73.630 Y82.681 E151.1336
G1 X73.630 Y83.247 E151.1519
G1 X116.753 Y126.370 E153.1296
G1 X116.188 Y126.370 E153.1480
G1 X73.630 Y83.812 E155.0997
G1 X73.630 Y84.378 E155.1180
G1 X115.622 Y126.370 E157.0438
G1 X115.056 Y126.370 E157.0622
G1 X73.630 Y84.944 E158.9620
G1 X73.630 Y85.509 E158.9804
G1 X114.491 Y126.370 E160.8543
G1 X113.925 Y126.370 E160.8727
G1 X73.630 Y86.075 E162.7206
G1 X73.630 Y86.641 E162.7390
G1 X113.359 Y126.370 E164.5610
G1 X112.794 Y126.370 E164.5793
G1 X73.630 Y87.206 E166.3754
G1 X73.630 Y87.772 E166.3938
G1 X112.228 Y126.370 E168.1639
G1 X111.662 Y126.370 E168.1823
G1 X73.630 Y88.338 E169.9265
G1 X73.630 Y88.903 E169.9448
G1 X111.097 Y126.370 E171.6631
G1 X110.531 Y126.370 E171.6814
G1 X73.630 Y89.469 E173.3737
G1 X73.630 Y90.035 E173.3921
G1 X109.965 Y126.370 E175.0584
G1 X109.400 Y126.370 E175.0768
G1 X73.630 Y90.600 E176.7172
G1 X73.630 Y91.166 E176.7356
G1 X108.834 Y126.370 E178.3500
G1 X108.268 Y126.370 E178.3684
G1 X73.630 Y91.732 E179.9569
G1 X73.630 Y92.298 E179.9753
G1 X107.702 Y126.370 E181.5379
G1 X107.137 Y126.370 E181.5562
G1 X73.630 Y92.863 E183.0929
G1 X73.630 Y93.429 E183.1112
G1 X106.571 Y126.370 E184.6219
G1 X106.005 Y126.370 E184.6403
G1 X73.630 Y93.995 E186.1250
G1 X73.630 Y94.560 E186.1434
G1 X105.440 Y126.370 E187.6022
G1 X104.874 Y126.370 E187.6206
G1 X73.630 Y95.126 E189.0534
G1 X73.630 Y95.692 E189.0718
G1 X104.308 Y126.370 E190.4787
G1 X103.743 Y126.370 E190.4971
G1 X73.630 Y96.257 E191.8781
G1 X73.630 Y96.823 E191.8964
G1 X103.177 Y126.370 E193.2515
G1 X102.611 Y126.370 E193.2698
G1 X73.630 Y97.389 E194.5989
G1 X73.630 Y97.954 E194.6173
G1 X102.046 Y126.370 E195.9205
G1 X101.480 Y126.370 E195.9388
G1 X73.630 Y98.520 E197.2160
G1 X73.630 Y99.086 E197.2344
G1 X100.914 Y126.370 E198.4857
G1 X100.349 Y126.370 E198.5040
G1 X73.630 Y99.651 E199.7293
G1 X73.630 Y100.217 E199.7477
G1 X99.783 Y126.370 E200.9471
G1 X99.217 Y126.370 E200.9654
G1 X73.630 Y100.783 E202.1389
G1 X73.630 Y101.349 E202.1572
G1 X98.651 Y126.370 E203.3047
G1 X98.086 Y126.370 E203.3231
G1 X73.630 Y101.914 E204.4447
G1 X73.630 Y102.480 E204.4630
G1 X97.520 Y126.370 E205.5586
G1 X96.954 Y126.370 E205.5770
G1 X73.630 Y103.046 E206.6467
G1 X73.630 Y103.611 E206.6650
G1 X96.389 Y126.370 E207.7087
G1 X95.823 Y126.370 E207.7271
G1 X73.630 Y104.177 E208.7449
G1 X73.630 Y104.743 E208.7632
G1 X95.257 Y126.370 E209.7551
