; G-Code generated by Simplify3D(R) Version 3.1.0
; Sep 4, 2016 at 5:28:32 PM
; Settings Summary
;   processName,Process1
;   applyToModels,secondtrycube
;   profileName,Wanhao Duplicator 6
;   profileVersion,2016-08-10 08:00:00
;   baseProfile,
;   printMaterial,ABS
;   printQuality,Medium
;   printExtruders,
;   extruderName,Primary Extruder
;   extruderToolheadNumber,0
;   extruderDiameter,0.4
;   extruderAutoWidth,0
;   extruderWidth,0.4
;   extrusionMultiplier,1
;   extruderUseRetract,1
;   extruderRetractionDistance,1.5
;   extruderExtraRestartDistance,0
;   extruderRetractionZLift,0
;   extruderRetractionSpeed,2400
;   extruderUseCoasting,1
;   extruderCoastingDistance,0.2
;   extruderUseWipe,0
;   extruderWipeDistance,2
;   primaryExtruder,0
;   layerHeight,0.15
;   topSolidLayers,4
;   bottomSolidLayers,3
;   perimeterOutlines,2
;   printPerimetersInsideOut,1
;   startPointOption,2
;   startPointOriginX,0
;   startPointOriginY,0
;   startPointOriginZ,300
;   sequentialIslands,0
;   spiralVaseMode,0
;   firstLayerHeightPercentage,130
;   firstLayerWidthPercentage,100
;   firstLayerUnderspeed,0.3
;   useRaft,0
;   raftExtruder,0
;   raftLayers,3
;   raftOffset,3
;   raftSeparationDistance,0.14
;   raftInfill,85
;   disableRaftBaseLayers,0
;   useSkirt,1
;   skirtExtruder,0
;   skirtLayers,1
;   skirtOutlines,2
;   skirtOffset,4
;   usePrimePillar,0
;   primePillarExtruder,999
;   primePillarWidth,12
;   primePillarLocation,7
;   primePillarSpeedMultiplier,1
;   useOozeShield,0
;   oozeShieldExtruder,999
;   oozeShieldOffset,2
;   oozeShieldOutlines,1
;   oozeShieldSidewallShape,1
;   oozeShieldSidewallAngle,30
;   oozeShieldSpeedMultiplier,1
;   infillExtruder,0
;   internalInfillPattern,Rectilinear
;   externalInfillPattern,Rectilinear
;   infillPercentage,20
;   outlineOverlapPercentage,35
;   infillExtrusionWidthPercentage,125
;   minInfillLength,3
;   infillLayerInterval,1
;   infillAngles,45,-45
;   overlapInfillAngles,0
;   generateSupport,0
;   supportExtruder,0
;   supportInfillPercentage,30
;   supportExtraInflation,0
;   denseSupportLayers,0
;   denseSupportInfillPercentage,70
;   supportLayerInterval,1
;   supportHorizontalPartOffset,0.3
;   supportUpperSeparationLayers,1
;   supportLowerSeparationLayers,1
;   supportType,0
;   supportGridSpacing,4
;   maxOverhangAngle,45
;   supportAngles,0
;   temperatureName,Primary Extruder,Heated Build Platform
;   temperatureNumber,0,1
;   temperatureSetpointCount,1,1
;   temperatureSetpointLayers,1,1
;   temperatureSetpointTemperatures,230,100
;   temperatureStabilizeAtStartup,1,1
;   temperatureHeatedBed,0,1
;   temperatureRelayBetweenLayers,0,0
;   temperatureRelayBetweenLoops,0,0
;   fanLayers,1
;   fanSpeeds,0
;   blipFanToFullPower,1
;   adjustSpeedForCooling,1
;   minSpeedLayerTime,15
;   minCoolingSpeedSlowdown,20
;   increaseFanForCooling,1
;   minFanLayerTime,10
;   maxCoolingFanSpeed,30
;   increaseFanForBridging,1
;   bridgingFanSpeed,45
;   use5D,1
;   relativeEdistances,0
;   allowEaxisZeroing,1
;   independentExtruderAxes,0
;   includeM10123,0
;   stickySupport,1
;   applyToolheadOffsets,0
;   gcodeXoffset,0
;   gcodeYoffset,0
;   gcodeZoffset,0
;   overrideMachineDefinition,1
;   machineTypeOverride,0
;   strokeXoverride,200
;   strokeYoverride,200
;   strokeZoverride,175
;   originOffsetXoverride,0
;   originOffsetYoverride,0
;   originOffsetZoverride,0
;   homeXdirOverride,-1
;   homeYdirOverride,-1
;   homeZdirOverride,-1
;   flipXoverride,1
;   flipYoverride,-1
;   flipZoverride,1
;   toolheadOffsets,0,0|0,0|0,0|0,0|0,0|0,0
;   overrideFirmwareConfiguration,1
;   firmwareTypeOverride,RepRap (Marlin/Repetier/Sprinter)
;   GPXconfigOverride,r2
;   baudRateOverride,250000
;   overridePrinterModels,1
;   printerModelsOverride
;   startingGcode,G28 ; home all axes,G92 E0 ; zero the extruded length,G1 Z10 ; lower,G1 E20 F200 ; purge nozzle quickly,G1 E10 F60 ; purge nozzle slowly,G92 E0 ; zero the extruded length again,G1 E-1.5 F400 ; retract,G1 X170 Z0 F9000 ; pull away filament,G1 X180 F9000 ; wipe,G1 Y20 F9000 ; wipe,G1 E0 ; feed filament back
;   layerChangeGcode,
;   retractionGcode,
;   toolChangeGcode,
;   endingGcode,G28 X0 ; home the X-axis,M104 S0 ; turn off heaters,M140 S0 ; turn off bed,M84 ; disable motors
;   exportFileFormat,gcode
;   celebration,0
;   celebrationSong,Random Song
;   postProcessing,
;   defaultSpeed,2500
;   outlineUnderspeed,0.65
;   solidInfillUnderspeed,0.7
;   supportUnderspeed,0.7
;   rapidXYspeed,6000
;   rapidZspeed,1000
;   minBridgingArea,5
;   bridgingExtraInflation,0
;   bridgingExtrusionMultiplier,1
;   bridgingSpeedMultiplier,0.5
;   filamentDiameter,1.75
;   filamentPricePerKg,46
;   filamentDensity,1.25
;   useMinPrintHeight,0
;   minPrintHeight,0
;   useMaxPrintHeight,0
;   maxPrintHeight,0
;   useDiaphragm,0
;   diaphragmLayerInterval,20
;   robustSlicing,1
;   mergeAllIntoSolid,0
;   onlyRetractWhenCrossingOutline,1
;   retractBetweenLayers,0
;   useRetractionMinTravel,1
;   retractionMinTravel,0.02
;   retractWhileWiping,0
;   onlyWipeOutlines,1
;   avoidCrossingOutline,0
;   maxMovementDetourFactor,3
;   toolChangeRetractionDistance,12
;   toolChangeExtraRestartDistance,-0.5
;   toolChangeRetractionSpeed,600
;   allowThinWallGapFill,1
;   thinWallAllowedOverlapPercentage,10
;   horizontalSizeCompensation,0
G90
M82
M106 S0
M140 S100
M190 S100
M104 S230 T0
M109 S230 T0
G28 ; home all axes
G92 E0 ; zero the extruded length
G1 Z10 ; lower
G1 E20 F200 ; purge nozzle quickly
G1 E10 F60 ; purge nozzle slowly
G92 E0 ; zero the extruded length again
G1 E-1.5 F400 ; retract
G1 X170 Z0 F9000 ; pull away filament
G1 X180 F9000 ; wipe
G1 Y20 F9000 ; wipe
G1 E0 ; feed filament back
G92 E0
G1 E-1.5000 F2400
G1 Z0.195 F1000
; layer 1, Z = 0.195
T0
; tool H0.195 W0.400
; skirt
G1 X87.718 Y90.230 F6000
G1 E0.0000 F720
G92 E0
G1 X90.230 Y87.718 E0.1152 F750
G1 X90.451 Y87.627 E0.1229
G1 X109.549 Y87.627 E0.7423
G1 X109.770 Y87.718 E0.7500
G1 X112.282 Y90.230 E0.8652
G1 X112.373 Y90.451 E0.8730
G1 X112.373 Y109.549 E1.4923
G1 X112.282 Y109.770 E1.5001
G1 X109.770 Y112.282 E1.6153
G1 X109.549 Y112.373 E1.6230
G1 X90.451 Y112.373 E2.2423
G1 X90.230 Y112.282 E2.2501
G1 X87.718 Y109.770 E2.3653
G1 X87.627 Y109.549 E2.3730
G1 X87.627 Y90.451 E2.9924
G1 X87.642 Y90.415 E2.9936
G1 X87.718 Y90.230 F750
G1 X88.057 Y90.457 F6000
G92 E0
G1 X90.457 Y88.057 E0.1100 F750
G1 X90.530 Y88.027 E0.1126
G1 X109.470 Y88.027 E0.7268
G1 X109.543 Y88.057 E0.7294
G1 X111.943 Y90.457 E0.8394
G1 X111.973 Y90.530 E0.8420
G1 X111.973 Y109.470 E1.4562
G1 X111.943 Y109.543 E1.4588
G1 X109.543 Y111.943 E1.5688
G1 X109.470 Y111.973 E1.5714
G1 X90.530 Y111.973 E2.1856
G1 X90.457 Y111.943 E2.1882
G1 X88.057 Y109.543 E2.2982
G1 X88.027 Y109.470 E2.3008
G1 X88.027 Y90.651 E2.9111
G1 X88.027 Y90.530 F750
G1 X88.057 Y90.457 F750
G92 E0
G1 E-1.5000 F2400
; inner perimeter
G1 X92.827 Y92.827 F6000
G1 E0.0000 F2400
G92 E0
G1 X107.173 Y92.827 E0.4652 F619
G1 X107.173 Y107.173 E0.9305
G1 X92.827 Y107.173 E1.3957
G1 X92.827 Y93.027 E1.8544
G1 X92.827 Y92.827 F619
; outer perimeter
G1 X92.427 Y92.427 F6000
G92 E0
G1 X107.573 Y92.427 E0.4912 F488
G1 X107.573 Y107.573 E0.9824
G1 X92.427 Y107.573 E1.4735
G1 X92.427 Y92.627 E1.9582
G1 X92.427 Y92.427 F488
; solid layer
G1 X106.663 Y93.087 F6000
G92 E0
G1 X106.913 Y93.337 E0.0115 F525
G1 X106.913 Y93.902 E0.0298
G1 X106.098 Y93.087 E0.0672
G1 X105.532 Y93.087 E0.0856
G1 X106.913 Y94.468 E0.1489
G1 X106.913 Y95.034 E0.1672
G1 X104.966 Y93.087 E0.2565
G1 X104.401 Y93.087 E0.2749
G1 X106.913 Y95.599 E0.3901
G1 X106.913 Y96.165 E0.4085
G1 X103.835 Y93.087 E0.5496
G1 X103.269 Y93.087 E0.5680
G1 X106.913 Y96.731 E0.7351
G1 X106.913 Y97.297 E0.7534
G1 X102.703 Y93.087 E0.9465
G1 X102.138 Y93.087 E0.9649
G1 X106.913 Y97.862 E1.1839
G1 X106.913 Y98.428 E1.2022
G1 X101.572 Y93.087 E1.4472
G1 X101.006 Y93.087 E1.4655
G1 X106.913 Y98.994 E1.7364
G1 X106.913 Y99.559 E1.7547
G1 X100.441 Y93.087 E2.0516
G1 X99.875 Y93.087 E2.0699
G1 X106.913 Y100.125 E2.3927
G1 X106.913 Y100.691 E2.4110
G1 X99.309 Y93.087 E2.7598
G1 X98.744 Y93.087 E2.7781
G1 X106.913 Y101.256 E3.1528
G1 X106.913 Y101.822 E3.1711
G1 X98.178 Y93.087 E3.5717
G1 X97.612 Y93.087 E3.5901
G1 X106.913 Y102.388 E4.0166
G1 X106.913 Y102.953 E4.0349
G1 X97.047 Y93.087 E4.4874
G1 X96.481 Y93.087 E4.5058
G1 X106.913 Y103.519 E4.9842
G1 X106.913 Y104.085 E5.0026
G1 X95.915 Y93.087 E5.5069
G1 X95.350 Y93.087 E5.5253
G1 X106.913 Y104.650 E6.0556
G1 X106.913 Y105.216 E6.0739
G1 X94.784 Y93.087 E6.6302
G1 X94.218 Y93.087 E6.6486
G1 X106.913 Y105.782 E7.2308
G1 X106.913 Y106.347 E7.2491
G1 X93.652 Y93.087 E7.8573
G1 X93.087 Y93.087 E7.8756
G1 X106.913 Y106.913 E8.5097
G1 X106.348 Y106.913 E8.5280
G1 X93.087 Y93.652 E9.1362
G1 X93.087 Y94.218 E9.1545
G1 X105.782 Y106.913 E9.7367
G1 X105.216 Y106.913 E9.7551
G1 X93.087 Y94.784 E10.3113
G1 X93.087 Y95.350 E10.3297
G1 X104.650 Y106.913 E10.8600
G1 X104.085 Y106.913 E10.8784
G1 X93.087 Y95.915 E11.3827
G1 X93.087 Y96.481 E11.4011
G1 X103.519 Y106.913 E11.8795
G1 X102.953 Y106.913 E11.8979
G1 X93.087 Y97.047 E12.3503
G1 X93.087 Y97.612 E12.3687
G1 X102.388 Y106.913 E12.7952
G1 X101.822 Y106.913 E12.8136
G1 X93.087 Y98.178 E13.2142
G1 X93.087 Y98.744 E13.2325
G1 X101.256 Y106.913 E13.6072
G1 X100.691 Y106.913 E13.6255
G1 X93.087 Y99.309 E13.9743
G1 X93.087 Y99.875 E13.9926
G1 X100.125 Y106.913 E14.3154
G1 X99.559 Y106.913 E14.3337
G1 X93.087 Y100.441 E14.6306
G1 X93.087 Y101.006 E14.6489
G1 X98.994 Y106.913 E14.9198
G1 X98.428 Y106.913 E14.9381
G1 X93.087 Y101.572 E15.1831
G1 X93.087 Y102.138 E15.2014
G1 X97.862 Y106.913 E15.4204
G1 X97.297 Y106.913 E15.4388
G1 X93.087 Y102.703 E15.6319
G1 X93.087 Y103.269 E15.6502
G1 X96.731 Y106.913 E15.8173
G1 X96.165 Y106.913 E15.8357
G1 X93.087 Y103.835 E15.9768
G1 X93.087 Y104.401 E15.9952
G1 X95.599 Y106.913 E16.1104
G1 X95.034 Y106.913 E16.1288
G1 X93.087 Y104.966 E16.2181
G1 X93.087 Y105.532 E16.2364
G1 X94.468 Y106.913 E16.2997
G1 X93.902 Y106.913 E16.3181
G1 X93.087 Y106.098 E16.3555
G1 X93.087 Y106.663 E16.3738
G1 X93.195 Y106.772 E16.3788
G1 X93.337 Y106.913 F525
; layer 2, Z = 0.345
; tool H0.150 W0.400
; inner perimeter
G1 X92.830 Y107.170 F6000
G1 Z0.345 F1000
G92 E0
G1 X92.830 Y92.830 E0.3577 F2062
G1 X107.170 Y92.830 E0.7154
G1 X107.170 Y107.170 E1.0731
G1 X93.030 Y107.170 E1.4259
G1 X92.830 Y107.170 F2062
; outer perimeter
G1 X92.430 Y107.570 F6000
G92 E0
G1 X92.430 Y92.430 E0.3777 F1625
G1 X107.570 Y92.430 E0.7553
G1 X107.570 Y107.570 E1.1330
G1 X92.630 Y107.570 E1.5057
G1 X92.430 Y107.570 F1625
; solid layer
G1 X93.090 Y93.334 F6000
G92 E0
G1 X93.334 Y93.090 E0.0086 F1750
G1 X93.899 Y93.090 E0.0227
G1 X93.090 Y93.899 E0.0513
G1 X93.090 Y94.465 E0.0654
G1 X94.465 Y93.090 E0.1139
G1 X95.031 Y93.090 E0.1280
G1 X93.090 Y95.031 E0.1965
G1 X93.090 Y95.596 E0.2106
G1 X95.596 Y93.090 E0.2990
G1 X96.162 Y93.090 E0.3131
G1 X93.090 Y96.162 E0.4215
G1 X93.090 Y96.728 E0.4356
G1 X96.728 Y93.090 E0.5639
G1 X97.293 Y93.090 E0.5780
G1 X93.090 Y97.293 E0.7263
G1 X93.090 Y97.859 E0.7404
G1 X97.859 Y93.090 E0.9087
G1 X98.425 Y93.090 E0.9228
G1 X93.090 Y98.425 E1.1110
G1 X93.090 Y98.990 E1.1251
G1 X98.990 Y93.090 E1.3333
G1 X99.556 Y93.090 E1.3474
G1 X93.090 Y99.556 E1.5755
G1 X93.090 Y100.122 E1.5896
G1 X100.122 Y93.090 E1.8377
G1 X100.688 Y93.090 E1.8518
G1 X93.090 Y100.688 E2.1198
G1 X93.090 Y101.253 E2.1339
G1 X101.253 Y93.090 E2.4219
G1 X101.819 Y93.090 E2.4360
G1 X93.090 Y101.819 E2.7439
G1 X93.090 Y102.385 E2.7580
G1 X102.385 Y93.090 E3.0859
G1 X102.950 Y93.090 E3.1000
G1 X93.090 Y102.950 E3.4479
G1 X93.090 Y103.516 E3.4620
G1 X103.516 Y93.090 E3.8298
G1 X104.082 Y93.090 E3.8439
G1 X93.090 Y104.082 E4.2317
G1 X93.090 Y104.647 E4.2458
G1 X104.647 Y93.090 E4.6535
G1 X105.213 Y93.090 E4.6676
G1 X93.090 Y105.213 E5.0953
G1 X93.090 Y105.779 E5.1094
G1 X105.779 Y93.090 E5.5570
G1 X106.344 Y93.090 E5.5712
G1 X93.090 Y106.344 E6.0387
G1 X93.090 Y106.910 E6.0528
G1 X106.910 Y93.090 E6.5404
G1 X106.910 Y93.656 E6.5545
G1 X93.656 Y106.910 E7.0221
G1 X94.221 Y106.910 E7.0362
G1 X106.910 Y94.221 E7.4838
G1 X106.910 Y94.787 E7.4979
G1 X94.787 Y106.910 E7.9256
G1 X95.353 Y106.910 E7.9397
G1 X106.910 Y95.353 E8.3474
G1 X106.910 Y95.918 E8.3615
G1 X95.918 Y106.910 E8.7493
G1 X96.484 Y106.910 E8.7634
G1 X106.910 Y96.484 E9.1312
G1 X106.910 Y97.050 E9.1453
G1 X97.050 Y106.910 E9.4932
G1 X97.615 Y106.910 E9.5073
G1 X106.910 Y97.615 E9.8352
G1 X106.910 Y98.181 E9.8493
G1 X98.181 Y106.910 E10.1572
G1 X98.747 Y106.910 E10.1713
G1 X106.910 Y98.747 E10.4593
G1 X106.910 Y99.313 E10.4734
G1 X99.313 Y106.910 E10.7414
G1 X99.878 Y106.910 E10.7555
G1 X106.910 Y99.878 E11.0036
G1 X106.910 Y100.444 E11.0177
G1 X100.444 Y106.910 E11.2458
G1 X101.010 Y106.910 E11.2599
G1 X106.910 Y101.010 E11.4681
G1 X106.910 Y101.575 E11.4822
G1 X101.575 Y106.910 E11.6704
G1 X102.141 Y106.910 E11.6845
G1 X106.910 Y102.141 E11.8528
G1 X106.910 Y102.707 E11.8669
G1 X102.707 Y106.910 E12.0152
G1 X103.272 Y106.910 E12.0293
G1 X106.910 Y103.272 E12.1576
G1 X106.910 Y103.838 E12.1717
G1 X103.838 Y106.910 E12.2801
G1 X104.404 Y106.910 E12.2942
G1 X106.910 Y104.404 E12.3826
G1 X106.910 Y104.969 E12.3967
G1 X104.969 Y106.910 E12.4652
G1 X105.535 Y106.910 E12.4793
G1 X106.910 Y105.535 E12.5278
G1 X106.910 Y106.101 E12.5419
G1 X106.101 Y106.910 E12.5705
G1 X106.666 Y106.910 E12.5846
G1 X106.769 Y106.808 E12.5882
G1 X106.910 Y106.666 F1750
; layer 3, Z = 0.495
; inner perimeter
G1 X107.167 Y107.167 F6000
G1 Z0.495 F1000
G92 E0
G1 X92.833 Y107.167 E0.3576 F2062
G1 X92.833 Y92.833 E0.7152
G1 X107.167 Y92.833 E1.0727
G1 X107.167 Y106.967 E1.4253
G1 X107.167 Y107.167 F2062
; outer perimeter
G1 X107.567 Y107.567 F6000
G92 E0
G1 X92.433 Y107.567 E0.3775 F1625
G1 X92.433 Y92.433 E0.7551
G1 X107.567 Y92.433 E1.1326
G1 X107.567 Y107.367 E1.5051
G1 X107.567 Y107.567 F1625
; solid layer
G1 X93.331 Y106.907 F6000
G92 E0
G1 X93.093 Y106.669 E0.0084 F1750
G1 X93.093 Y106.103 E0.0225
G1 X93.897 Y106.907 E0.0509
G1 X94.462 Y106.907 E0.0650
G1 X93.093 Y105.538 E0.1133
G1 X93.093 Y104.972 E0.1274
G1 X95.028 Y106.907 E0.1957
G1 X95.594 Y106.907 E0.2098
G1 X93.093 Y104.406 E0.2980
G1 X93.093 Y103.841 E0.3121
G1 X96.159 Y106.907 E0.4203
G1 X96.725 Y106.907 E0.4344
G1 X93.093 Y103.275 E0.5625
G1 X93.093 Y102.709 E0.5767
G1 X97.291 Y106.907 E0.7248
G1 X97.856 Y106.907 E0.7389
G1 X93.093 Y102.144 E0.9069
G1 X93.093 Y101.578 E0.9210
G1 X98.422 Y106.907 E1.1090
G1 X98.988 Y106.907 E1.1231
G1 X93.093 Y101.012 E1.3311
G1 X93.093 Y100.447 E1.3452
G1 X99.553 Y106.907 E1.5731
G1 X100.119 Y106.907 E1.5872
G1 X93.093 Y99.881 E1.8351
G1 X93.093 Y99.315 E1.8492
G1 X100.685 Y106.907 E2.1171
G1 X101.250 Y106.907 E2.1312
G1 X93.093 Y98.750 E2.4190
G1 X93.093 Y98.184 E2.4331
G1 X101.816 Y106.907 E2.7408
G1 X102.382 Y106.907 E2.7549
G1 X93.093 Y97.618 E3.0826
G1 X93.093 Y97.053 E3.0967
G1 X102.947 Y106.907 E3.4444
G1 X103.513 Y106.907 E3.4585
G1 X93.093 Y96.487 E3.8261
G1 X93.093 Y95.921 E3.8402
G1 X104.079 Y106.907 E4.2278
G1 X104.645 Y106.907 E4.2419
G1 X93.093 Y95.355 E4.6494
G1 X93.093 Y94.790 E4.6635
G1 X105.210 Y106.907 E5.0910
G1 X105.776 Y106.907 E5.1051
G1 X93.093 Y94.224 E5.5525
G1 X93.093 Y93.658 E5.5667
G1 X106.342 Y106.907 E6.0340
G1 X106.907 Y106.907 E6.0482
G1 X93.093 Y93.093 E6.5355
G1 X93.658 Y93.093 E6.5496
G1 X106.907 Y106.342 E7.0170
G1 X106.907 Y105.776 E7.0311
G1 X94.224 Y93.093 E7.4786
G1 X94.790 Y93.093 E7.4927
G1 X106.907 Y105.210 E7.9201
G1 X106.907 Y104.645 E7.9343
G1 X95.355 Y93.093 E8.3418
G1 X95.921 Y93.093 E8.3559
G1 X106.907 Y104.079 E8.7434
G1 X106.907 Y103.513 E8.7576
G1 X96.487 Y93.093 E9.1252
G1 X97.053 Y93.093 E9.1393
G1 X106.907 Y102.947 E9.4869
G1 X106.907 Y102.382 E9.5010
G1 X97.618 Y93.093 E9.8287
G1 X98.184 Y93.093 E9.8429
G1 X106.907 Y101.816 E10.1506
G1 X106.907 Y101.250 E10.1647
G1 X98.750 Y93.093 E10.4525
G1 X99.315 Y93.093 E10.4666
G1 X106.907 Y100.685 E10.7344
G1 X106.907 Y100.119 E10.7485
G1 X99.881 Y93.093 E10.9964
G1 X100.447 Y93.093 E11.0105
G1 X106.907 Y99.553 E11.2384
G1 X106.907 Y98.988 E11.2526
