; G-Code generated by Simplify3D(R) Version 3.1.0
; Sep 4, 2016 at 5:29:13 PM
; Settings Summary
;   processName,Process1
;   applyToModels,cube3
;   profileName,Wanhao Duplicator 6
;   profileVersion,2016-08-10 08:00:00
;   baseProfile,
;   printMaterial,ABS
;   printQuality,Medium
;   printExtruders,
;   extruderName,Primary Extruder
;   extruderToolheadNumber,0
;   extruderDiameter,0.4
;   extruderAutoWidth,0
;   extruderWidth,0.4
;   extrusionMultiplier,1
;   extruderUseRetract,1
;   extruderRetractionDistance,1.5
;   extruderExtraRestartDistance,0
;   extruderRetractionZLift,0
;   extruderRetractionSpeed,2400
;   extruderUseCoasting,1
;   extruderCoastingDistance,0.2
;   extruderUseWipe,0
;   extruderWipeDistance,2
;   primaryExtruder,0
;   layerHeight,0.15
;   topSolidLayers,4
;   bottomSolidLayers,3
;   perimeterOutlines,2
;   printPerimetersInsideOut,1
;   startPointOption,2
;   startPointOriginX,0
;   startPointOriginY,0
;   startPointOriginZ,300
;   sequentialIslands,0
;   spiralVaseMode,0
;   firstLayerHeightPercentage,130
;   firstLayerWidthPercentage,100
;   firstLayerUnderspeed,0.3
;   useRaft,0
;   raftExtruder,0
;   raftLayers,3
;   raftOffset,3
;   raftSeparationDistance,0.14
;   raftInfill,85
;   disableRaftBaseLayers,0
;   useSkirt,1
;   skirtExtruder,0
;   skirtLayers,1
;   skirtOutlines,2
;   skirtOffset,4
;   usePrimePillar,0
;   primePillarExtruder,999
;   primePillarWidth,12
;   primePillarLocation,7
;   primePillarSpeedMultiplier,1
;   useOozeShield,0
;   oozeShieldExtruder,999
;   oozeShieldOffset,2
;   oozeShieldOutlines,1
;   oozeShieldSidewallShape,1
;   oozeShieldSidewallAngle,30
;   oozeShieldSpeedMultiplier,1
;   infillExtruder,0
;   internalInfillPattern,Rectilinear
;   externalInfillPattern,Rectilinear
;   infillPercentage,20
;   outlineOverlapPercentage,35
;   infillExtrusionWidthPercentage,125
;   minInfillLength,3
;   infillLayerInterval,1
;   infillAngles,45,-45
;   overlapInfillAngles,0
;   generateSupport,0
;   supportExtruder,0
;   supportInfillPercentage,30
;   supportExtraInflation,0
;   denseSupportLayers,0
;   denseSupportInfillPercentage,70
;   supportLayerInterval,1
;   supportHorizontalPartOffset,0.3
;   supportUpperSeparationLayers,1
;   supportLowerSeparationLayers,1
;   supportType,0
;   supportGridSpacing,4
;   maxOverhangAngle,45
;   supportAngles,0
;   temperatureName,Primary Extruder,Heated Build Platform
;   temperatureNumber,0,1
;   temperatureSetpointCount,1,1
;   temperatureSetpointLayers,1,1
;   temperatureSetpointTemperatures,230,100
;   temperatureStabilizeAtStartup,1,1
;   temperatureHeatedBed,0,1
;   temperatureRelayBetweenLayers,0,0
;   temperatureRelayBetweenLoops,0,0
;   fanLayers,1
;   fanSpeeds,0
;   blipFanToFullPower,1
;   adjustSpeedForCooling,1
;   minSpeedLayerTime,15
;   minCoolingSpeedSlowdown,20
;   increaseFanForCooling,1
;   minFanLayerTime,10
;   maxCoolingFanSpeed,30
;   increaseFanForBridging,1
;   bridgingFanSpeed,45
;   use5D,1
;   relativeEdistances,0
;   allowEaxisZeroing,1
;   independentExtruderAxes,0
;   includeM10123,0
;   stickySupport,1
;   applyToolheadOffsets,0
;   gcodeXoffset,0
;   gcodeYoffset,0
;   gcodeZoffset,0
;   overrideMachineDefinition,1
;   machineTypeOverride,0
;   strokeXoverride,200
;   strokeYoverride,200
;   strokeZoverride,175
;   originOffsetXoverride,0
;   originOffsetYoverride,0
;   originOffsetZoverride,0
;   homeXdirOverride,-1
;   homeYdirOverride,-1
;   homeZdirOverride,-1
;   flipXoverride,1
;   flipYoverride,-1
;   flipZoverride,1
;   toolheadOffsets,0,0|0,0|0,0|0,0|0,0|0,0
;   overrideFirmwareConfiguration,1
;   firmwareTypeOverride,RepRap (Marlin/Repetier/Sprinter)
;   GPXconfigOverride,r2
;   baudRateOverride,250000
;   overridePrinterModels,1
;   printerModelsOverride
;   startingGcode,G28 ; home all axes,G92 E0 ; zero the extruded length,G1 Z10 ; lower,G1 E20 F200 ; purge nozzle quickly,G1 E10 F60 ; purge nozzle slowly,G92 E0 ; zero the extruded length again,G1 E-1.5 F400 ; retract,G1 X170 Z0 F9000 ; pull away filament,G1 X180 F9000 ; wipe,G1 Y20 F9000 ; wipe,G1 E0 ; feed filament back
;   layerChangeGcode,
;   retractionGcode,
;   toolChangeGcode,
;   endingGcode,G28 X0 ; home the X-axis,M104 S0 ; turn off heaters,M140 S0 ; turn off bed,M84 ; disable motors
;   exportFileFormat,gcode
;   celebration,0
;   celebrationSong,Random Song
;   postProcessing,
;   defaultSpeed,2500
;   outlineUnderspeed,0.65
;   solidInfillUnderspeed,0.7
;   supportUnderspeed,0.7
;   rapidXYspeed,6000
;   rapidZspeed,1000
;   minBridgingArea,5
;   bridgingExtraInflation,0
;   bridgingExtrusionMultiplier,1
;   bridgingSpeedMultiplier,0.5
;   filamentDiameter,1.75
;   filamentPricePerKg,46
;   filamentDensity,1.25
;   useMinPrintHeight,0
;   minPrintHeight,0
;   useMaxPrintHeight,0
;   maxPrintHeight,0
;   useDiaphragm,0
;   diaphragmLayerInterval,20
;   robustSlicing,1
;   mergeAllIntoSolid,0
;   onlyRetractWhenCrossingOutline,1
;   retractBetweenLayers,0
;   useRetractionMinTravel,1
;   retractionMinTravel,0.02
;   retractWhileWiping,0
;   onlyWipeOutlines,1
;   avoidCrossingOutline,0
;   maxMovementDetourFactor,3
;   toolChangeRetractionDistance,12
;   toolChangeExtraRestartDistance,-0.5
;   toolChangeRetractionSpeed,600
;   allowThinWallGapFill,1
;   thinWallAllowedOverlapPercentage,10
;   horizontalSizeCompensation,0
G90
M82
M106 S0
M140 S100
M190 S100
M104 S230 T0
M109 S230 T0
G28 ; home all axes
G92 E0 ; zero the extruded length
G1 Z10 ; lower
G1 E20 F200 ; purge nozzle quickly
G1 E10 F60 ; purge nozzle slowly
G92 E0 ; zero the extruded length again
G1 E-1.5 F400 ; retract
G1 X170 Z0 F9000 ; pull away filament
G1 X180 F9000 ; wipe
G1 Y20 F9000 ; wipe
G1 E0 ; feed filament back
G92 E0
G1 E-1.5000 F2400
G1 Z0.195 F1000
; layer 1, Z = 0.195
T0
; tool H0.195 W0.400
; skirt
G1 X71.683 Y69.171 F6000
G1 E0.0000 F720
G92 E0
G1 X71.904 Y69.080 E0.0077 F750
G1 X128.096 Y69.080 E1.8300
G1 X128.317 Y69.171 E1.8377
G1 X130.829 Y71.683 E1.9529
G1 X130.920 Y71.904 E1.9607
G1 X130.920 Y128.096 E3.7829
G1 X130.829 Y128.317 E3.7907
G1 X128.317 Y130.829 E3.9059
G1 X128.096 Y130.920 E3.9136
G1 X71.904 Y130.920 E5.7359
G1 X71.683 Y130.829 E5.7436
G1 X69.171 Y128.317 E5.8588
G1 X69.080 Y128.096 E5.8665
G1 X69.080 Y71.904 E7.6888
G1 X69.171 Y71.683 E7.6965
G1 X71.542 Y69.313 E7.8052
G1 X71.683 Y69.171 F750
G1 X71.910 Y69.510 F6000
G92 E0
G1 X71.983 Y69.480 E0.0026 F750
G1 X128.017 Y69.480 E1.8197
G1 X128.090 Y69.510 E1.8223
G1 X130.490 Y71.910 E1.9323
G1 X130.520 Y71.983 E1.9349
G1 X130.520 Y128.017 E3.7520
G1 X130.490 Y128.090 E3.7545
G1 X128.090 Y130.490 E3.8646
G1 X128.017 Y130.520 E3.8672
G1 X71.983 Y130.520 E5.6843
G1 X71.910 Y130.490 E5.6868
G1 X69.510 Y128.090 E5.7969
G1 X69.480 Y128.017 E5.7995
G1 X69.480 Y71.983 E7.6165
G1 X69.510 Y71.910 E7.6191
G1 X71.768 Y69.652 E7.7227
G1 X71.910 Y69.510 F750
G92 E0
G1 E-1.5000 F2400
; inner perimeter
G1 X74.280 Y74.280 F6000
G1 E0.0000 F2400
G92 E0
G1 X125.720 Y74.280 E1.6681 F619
G1 X125.720 Y125.720 E3.3363
G1 X74.280 Y125.720 E5.0044
G1 X74.280 Y74.480 E6.6661
G1 X74.280 Y74.280 F619
; outer perimeter
G1 X73.880 Y73.880 F6000
G92 E0
G1 X126.120 Y73.880 E1.6941 F488
G1 X126.120 Y126.120 E3.3882
G1 X73.880 Y126.120 E5.0822
G1 X73.880 Y74.080 E6.7698
G1 X73.880 Y73.880 F488
; solid layer
G1 X125.452 Y74.540 F6000
G92 E0
G1 X125.460 Y74.548 E0.0004 F525
G1 X125.460 Y75.114 E0.0187
G1 X124.886 Y74.540 E0.0451
G1 X124.320 Y74.540 E0.0634
G1 X125.460 Y75.680 E0.1157
G1 X125.460 Y76.246 E0.1340
G1 X123.754 Y74.540 E0.2123
G1 X123.189 Y74.540 E0.2306
G1 X125.460 Y76.811 E0.3348
G1 X125.460 Y77.377 E0.3531
G1 X122.623 Y74.540 E0.4832
G1 X122.057 Y74.540 E0.5016
G1 X125.460 Y77.943 E0.6576
G1 X125.460 Y78.508 E0.6760
G1 X121.492 Y74.540 E0.8580
G1 X120.926 Y74.540 E0.8763
G1 X125.460 Y79.074 E1.0843
G1 X125.460 Y79.640 E1.1026
G1 X120.360 Y74.540 E1.3365
G1 X119.795 Y74.540 E1.3548
G1 X125.460 Y80.205 E1.6147
G1 X125.460 Y80.771 E1.6330
G1 X119.229 Y74.540 E1.9188
G1 X118.663 Y74.540 E1.9371
G1 X125.460 Y81.337 E2.2488
G1 X125.460 Y81.902 E2.2672
G1 X118.098 Y74.540 E2.6048
G1 X117.532 Y74.540 E2.6232
G1 X125.460 Y82.468 E2.9868
G1 X125.460 Y83.034 E3.0051
G1 X116.966 Y74.540 E3.3946
G1 X116.401 Y74.540 E3.4130
G1 X125.460 Y83.599 E3.8285
G1 X125.460 Y84.165 E3.8468
G1 X115.835 Y74.540 E4.2882
G1 X115.269 Y74.540 E4.3066
G1 X125.460 Y84.731 E4.7740
G1 X125.460 Y85.296 E4.7923
G1 X114.704 Y74.540 E5.2856
G1 X114.138 Y74.540 E5.3040
G1 X125.460 Y85.862 E5.8232
G1 X125.460 Y86.428 E5.8416
G1 X113.572 Y74.540 E6.3868
G1 X113.006 Y74.540 E6.4051
G1 X125.460 Y86.994 E6.9762
G1 X125.460 Y87.559 E6.9946
G1 X112.441 Y74.540 E7.5917
G1 X111.875 Y74.540 E7.6100
G1 X125.460 Y88.125 E8.2330
G1 X125.460 Y88.691 E8.2514
G1 X111.309 Y74.540 E8.9003
G1 X110.744 Y74.540 E8.9187
G1 X125.460 Y89.256 E9.5936
G1 X125.460 Y89.822 E9.6119
G1 X110.178 Y74.540 E10.3128
G1 X109.612 Y74.540 E10.3311
G1 X125.460 Y90.388 E11.0579
G1 X125.460 Y90.953 E11.0763
G1 X109.047 Y74.540 E11.8290
G1 X108.481 Y74.540 E11.8474
G1 X125.460 Y91.519 E12.6261
G1 X125.460 Y92.085 E12.6444
G1 X107.915 Y74.540 E13.4490
G1 X107.350 Y74.540 E13.4674
G1 X125.460 Y92.650 E14.2979
G1 X125.460 Y93.216 E14.3163
G1 X106.784 Y74.540 E15.1728
G1 X106.218 Y74.540 E15.1911
G1 X125.460 Y93.782 E16.0736
G1 X125.460 Y94.347 E16.0919
G1 X105.653 Y74.540 E17.0003
G1 X105.087 Y74.540 E17.0187
G1 X125.460 Y94.913 E17.9530
G1 X125.460 Y95.479 E17.9714
G1 X104.521 Y74.540 E18.9316
G1 X103.955 Y74.540 E18.9500
G1 X125.460 Y96.045 E19.9362
G1 X125.460 Y96.610 E19.9546
G1 X103.390 Y74.540 E20.9667
G1 X102.824 Y74.540 E20.9851
G1 X125.460 Y97.176 E22.0232
G1 X125.460 Y97.742 E22.0415
G1 X102.258 Y74.540 E23.1056
G1 X101.693 Y74.540 E23.1239
G1 X125.460 Y98.307 E24.2139
G1 X125.460 Y98.873 E24.2323
G1 X101.127 Y74.540 E25.3482
G1 X100.561 Y74.540 E25.3666
G1 X125.460 Y99.439 E26.5084
G1 X125.460 Y100.004 E26.5268
G1 X99.996 Y74.540 E27.6946
G1 X99.430 Y74.540 E27.7130
G1 X125.460 Y100.570 E28.9067
G1 X125.460 Y101.136 E28.9251
G1 X98.864 Y74.540 E30.1448
G1 X98.299 Y74.540 E30.1631
G1 X125.460 Y101.701 E31.4088
G1 X125.460 Y102.267 E31.4271
G1 X97.733 Y74.540 E32.6987
G1 X97.167 Y74.540 E32.7171
G1 X125.460 Y102.833 E34.0146
G1 X125.460 Y103.398 E34.0330
G1 X96.602 Y74.540 E35.3564
G1 X96.036 Y74.540 E35.3748
G1 X125.460 Y103.964 E36.7242
G1 X125.460 Y104.530 E36.7426
G1 X95.470 Y74.540 E38.1179
G1 X94.905 Y74.540 E38.1363
G1 X125.460 Y105.095 E39.5376
G1 X125.460 Y105.661 E39.5559
G1 X94.339 Y74.540 E40.9832
G1 X93.773 Y74.540 E41.0015
G1 X125.460 Y106.227 E42.4547
G1 X125.460 Y106.793 E42.4731
G1 X93.207 Y74.540 E43.9522
G1 X92.642 Y74.540 E43.9705
G1 X125.460 Y107.358 E45.4756
G1 X125.460 Y107.924 E45.4940
G1 X92.076 Y74.540 E47.0250
G1 X91.510 Y74.540 E47.0433
G1 X125.460 Y108.490 E48.6003
G1 X125.460 Y109.055 E48.6187
G1 X90.945 Y74.540 E50.2016
G1 X90.379 Y74.540 E50.2199
G1 X125.460 Y109.621 E51.8288
G1 X125.460 Y110.187 E51.8471
G1 X89.813 Y74.540 E53.4819
G1 X89.248 Y74.540 E53.5003
G1 X125.460 Y110.752 E55.1610
G1 X125.460 Y111.318 E55.1793
G1 X88.682 Y74.540 E56.8660
G1 X88.116 Y74.540 E56.8844
G1 X125.460 Y111.884 E58.5970
G1 X125.460 Y112.449 E58.6153
G1 X87.551 Y74.540 E60.3539
G1 X86.985 Y74.540 E60.3723
G1 X125.460 Y113.015 E62.1368
G1 X125.460 Y113.581 E62.1551
G1 X86.419 Y74.540 E63.9456
G1 X85.854 Y74.540 E63.9639
G1 X125.460 Y114.146 E65.7803
G1 X125.460 Y114.712 E65.7987
G1 X85.288 Y74.540 E67.6410
G1 X84.722 Y74.540 E67.6594
G1 X125.460 Y115.278 E69.5276
G1 X125.460 Y115.843 E69.5460
G1 X84.157 Y74.540 E71.4402
G1 X83.591 Y74.540 E71.4586
G1 X125.460 Y116.409 E73.3787
G1 X125.460 Y116.975 E73.3971
G1 X83.025 Y74.540 E75.3432
G1 X82.459 Y74.540 E75.3615
G1 X125.460 Y117.541 E77.3336
G1 X125.460 Y118.106 E77.3519
G1 X81.894 Y74.540 E79.3499
G1 X81.328 Y74.540 E79.3683
G1 X125.460 Y118.672 E81.3922
G1 X125.460 Y119.238 E81.4106
G1 X80.762 Y74.540 E83.4604
G1 X80.197 Y74.540 E83.4788
G1 X125.460 Y119.803 E85.5546
G1 X125.460 Y120.369 E85.5730
G1 X79.631 Y74.540 E87.6747
G1 X79.065 Y74.540 E87.6931
G1 X125.460 Y120.935 E89.8208
G1 X125.460 Y121.500 E89.8391
G1 X78.500 Y74.540 E91.9928
G1 X77.934 Y74.540 E92.0111
G1 X125.460 Y122.066 E94.1907
G1 X125.460 Y122.632 E94.2091
G1 X77.368 Y74.540 E96.4146
G1 X76.803 Y74.540 E96.4330
G1 X125.460 Y123.197 E98.6644
G1 X125.460 Y123.763 E98.6828
G1 X76.237 Y74.540 E100.9402
G1 X75.671 Y74.540 E100.9586
G1 X125.460 Y124.329 E103.2419
G1 X125.460 Y124.894 E103.2603
G1 X75.106 Y74.540 E105.5696
G1 X74.540 Y74.540 E105.5879
G1 X125.460 Y125.460 E107.9232
G1 X124.894 Y125.460 E107.9415
G1 X74.540 Y75.106 E110.2509
G1 X74.540 Y75.671 E110.2692
G1 X124.329 Y125.460 E112.5526
G1 X123.763 Y125.460 E112.5709
G1 X74.540 Y76.237 E114.8283
G1 X74.540 Y76.803 E114.8467
G1 X123.197 Y125.460 E117.0782
G1 X122.632 Y125.460 E117.0965
G1 X74.540 Y77.368 E119.3021
G1 X74.540 Y77.934 E119.3204
G1 X122.066 Y125.460 E121.5000
G1 X121.500 Y125.460 E121.5184
G1 X74.540 Y78.500 E123.6720
G1 X74.540 Y79.065 E123.6904
G1 X120.935 Y125.460 E125.8181
G1 X120.369 Y125.460 E125.8364
G1 X74.540 Y79.631 E127.9382
G1 X74.540 Y80.197 E127.9565
G1 X119.803 Y125.460 E130.0324
G1 X119.238 Y125.460 E130.0507
G1 X74.540 Y80.762 E132.1006
G1 X74.540 Y81.328 E132.1189
G1 X118.672 Y125.460 E134.1429
G1 X118.106 Y125.460 E134.1612
G1 X74.540 Y81.894 E136.1592
G1 X74.540 Y82.459 E136.1776
G1 X117.541 Y125.460 E138.1496
G1 X116.975 Y125.460 E138.1680
G1 X74.540 Y83.025 E140.1141
G1 X74.540 Y83.591 E140.1324
G1 X116.409 Y125.460 E142.0526
G1 X115.844 Y125.460 E142.0709
G1 X74.540 Y84.156 E143.9652
G1 X74.540 Y84.722 E143.9835
G1 X115.278 Y125.460 E145.8518
G1 X114.712 Y125.460 E145.8701
G1 X74.540 Y85.288 E147.7125
G1 X74.540 Y85.854 E147.7308
G1 X114.146 Y125.460 E149.5472
G1 X113.581 Y125.460 E149.5656
G1 X74.540 Y86.419 E151.3560
G1 X74.540 Y86.985 E151.3744
G1 X113.015 Y125.460 E153.1389
G1 X112.449 Y125.460 E153.1572
G1 X74.540 Y87.551 E154.8958
G1 X74.540 Y88.116 E154.9141
G1 X111.884 Y125.460 E156.6268
G1 X111.318 Y125.460 E156.6451
G1 X74.540 Y88.682 E158.3318
G1 X74.540 Y89.248 E158.3501
G1 X110.752 Y125.460 E160.0109
G1 X110.187 Y125.460 E160.0292
G1 X74.540 Y89.813 E161.6640
G1 X74.540 Y90.379 E161.6824
G1 X109.621 Y125.460 E163.2912
G1 X109.055 Y125.460 E163.3096
G1 X74.540 Y90.945 E164.8925
G1 X74.540 Y91.510 E164.9108
G1 X108.490 Y125.460 E166.4678
G1 X107.924 Y125.460 E166.4862
G1 X74.540 Y92.076 E168.0172
G1 X74.540 Y92.642 E168.0355
G1 X107.358 Y125.460 E169.5406
G1 X106.793 Y125.460 E169.5590
G1 X74.540 Y93.207 E171.0381
G1 X74.540 Y93.773 E171.0564
G1 X106.227 Y125.460 E172.5096
G1 X105.661 Y125.460 E172.5280
G1 X74.540 Y94.339 E173.9552
G1 X74.540 Y94.905 E173.9736
G1 X105.095 Y125.460 E175.3749
G1 X104.530 Y125.460 E175.3932
G1 X74.540 Y95.470 E176.7686
G1 X74.540 Y96.036 E176.7870
G1 X103.964 Y125.460 E178.1364
G1 X103.398 Y125.460 E178.1547
G1 X74.540 Y96.602 E179.4782
G1 X74.540 Y97.167 E179.4966
G1 X102.833 Y125.460 E180.7941
G1 X102.267 Y125.460 E180.8124
G1 X74.540 Y97.733 E182.0840
G1 X74.540 Y98.299 E182.1024
G1 X101.701 Y125.460 E183.3480
G1 X101.136 Y125.460 E183.3664
G1 X74.540 Y98.864 E184.5861
G1 X74.540 Y99.430 E184.6044
G1 X100.570 Y125.460 E185.7982
G1 X100.004 Y125.460 E185.8166
G1 X74.540 Y99.996 E186.9844
G1 X74.540 Y100.561 E187.0027
G1 X99.439 Y125.460 E188.1446
G1 X98.873 Y125.460 E188.1630
G1 X74.540 Y101.127 E189.2789
G1 X74.540 Y101.693 E189.2972
G1 X98.307 Y125.460 E190.3872
G1 X97.742 Y125.460 E190.4056
G1 X74.540 Y102.258 E191.4696
G1 X74.540 Y102.824 E191.4880
G1 X97.176 Y125.460 E192.5261
G1 X96.610 Y125.460 E192.5444
G1 X74.540 Y103.390 E193.5566
G1 X74.540 Y103.955 E193.5750
G1 X96.045 Y125.460 E194.5612
G1 X95.479 Y125.460 E194.5795
G1 X74.540 Y104.521 E195.5398
G1 X74.540 Y105.087 E195.5582
G1 X94.913 Y125.460 E196.4925
G1 X94.347 Y125.460 E196.5108
G1 X74.540 Y105.653 E197.4192
G1 X74.540 Y106.218 E197.4376
G1 X93.782 Y125.460 E198.3200
G1 X93.216 Y125.460 E198.3384
G1 X74.540 Y106.784 E199.1949
G1 X74.540 Y107.350 E199.2132
G1 X92.650 Y125.460 E200.0438
