; G-Code generated by Simplify3D(R) Version 3.1.0
; Sep 3, 2016 at 2:39:18 PM
; Settings Summary
;   processName,Process2
;   applyToModels,cube
;   profileName,Wanhao Duplicator i3 (modified)
;   profileVersion,2015-09-04 08:00:00
;   baseProfile,
;   printMaterial,PLA
;   printQuality,Medium
;   printExtruders,
;   extruderName,Primary Extruder
;   extruderToolheadNumber,0
;   extruderDiameter,35.25
;   extruderAutoWidth,0
;   extruderWidth,0.4
;   extrusionMultiplier,0.9
;   extruderUseRetract,1
;   extruderRetractionDistance,1
;   extruderExtraRestartDistance,0
;   extruderRetractionZLift,0
;   extruderRetractionSpeed,1815
;   extruderUseCoasting,0
;   extruderCoastingDistance,0.2
;   extruderUseWipe,0
;   extruderWipeDistance,5
;   primaryExtruder,0
;   layerHeight,0.2
;   topSolidLayers,3
;   bottomSolidLayers,3
;   perimeterOutlines,2
;   printPerimetersInsideOut,1
;   startPointOption,2
;   startPointOriginX,0
;   startPointOriginY,0
;   startPointOriginZ,300
;   sequentialIslands,0
;   spiralVaseMode,0
;   firstLayerHeightPercentage,90
;   firstLayerWidthPercentage,100
;   firstLayerUnderspeed,0.5
;   useRaft,0
;   raftExtruder,0
;   raftLayers,3
;   raftOffset,3
;   raftSeparationDistance,0.14
;   raftInfill,85
;   disableRaftBaseLayers,0
;   useSkirt,1
;   skirtExtruder,0
;   skirtLayers,1
;   skirtOutlines,2
;   skirtOffset,4
;   usePrimePillar,0
;   primePillarExtruder,999
;   primePillarWidth,12
;   primePillarLocation,7
;   primePillarSpeedMultiplier,1
;   useOozeShield,0
;   oozeShieldExtruder,999
;   oozeShieldOffset,2
;   oozeShieldOutlines,1
;   oozeShieldSidewallShape,1
;   oozeShieldSidewallAngle,30
;   oozeShieldSpeedMultiplier,1
;   infillExtruder,0
;   internalInfillPattern,Rectilinear
;   externalInfillPattern,Rectilinear
;   infillPercentage,20
;   outlineOverlapPercentage,25
;   infillExtrusionWidthPercentage,125
;   minInfillLength,5
;   infillLayerInterval,1
;   infillAngles,45,-45
;   overlapInfillAngles,0
;   generateSupport,0
;   supportExtruder,0
;   supportInfillPercentage,30
;   supportExtraInflation,0
;   denseSupportLayers,0
;   denseSupportInfillPercentage,70
;   supportLayerInterval,1
;   supportHorizontalPartOffset,0.3
;   supportUpperSeparationLayers,1
;   supportLowerSeparationLayers,1
;   supportType,0
;   supportGridSpacing,4
;   maxOverhangAngle,45
;   supportAngles,0
;   temperatureName,Primary Extruder,Heated Bed
;   temperatureNumber,0,0
;   temperatureSetpointCount,1,1
;   temperatureSetpointLayers,1,1
;   temperatureSetpointTemperatures,190,60
;   temperatureStabilizeAtStartup,1,1
;   temperatureHeatedBed,0,1
;   temperatureRelayBetweenLayers,0,0
;   temperatureRelayBetweenLoops,0,0
;   fanLayers,1,2
;   fanSpeeds,0,100
;   blipFanToFullPower,0
;   adjustSpeedForCooling,1
;   minSpeedLayerTime,15
;   minCoolingSpeedSlowdown,20
;   increaseFanForCooling,0
;   minFanLayerTime,45
;   maxCoolingFanSpeed,100
;   increaseFanForBridging,0
;   bridgingFanSpeed,100
;   use5D,1
;   relativeEdistances,0
;   allowEaxisZeroing,1
;   independentExtruderAxes,0
;   includeM10123,0
;   stickySupport,1
;   applyToolheadOffsets,0
;   gcodeXoffset,0
;   gcodeYoffset,0
;   gcodeZoffset,0
;   overrideMachineDefinition,1
;   machineTypeOverride,0
;   strokeXoverride,200
;   strokeYoverride,200
;   strokeZoverride,180
;   originOffsetXoverride,0
;   originOffsetYoverride,0
;   originOffsetZoverride,0
;   homeXdirOverride,-1
;   homeYdirOverride,-1
;   homeZdirOverride,-1
;   flipXoverride,1
;   flipYoverride,-1
;   flipZoverride,1
;   toolheadOffsets,0,0|0,0|0,0|0,0|0,0|0,0
;   overrideFirmwareConfiguration,1
;   firmwareTypeOverride,RepRap (Marlin/Repetier/Sprinter)
;   GPXconfigOverride,r2
;   baudRateOverride,115200
;   overridePrinterModels,1
;   printerModelsOverride
;   startingGcode,G28 ; home all axes
;   layerChangeGcode,
;   retractionGcode,
;   toolChangeGcode,
;   endingGcode,G28 X0 ; home X-axis,M104 S0 ; turn off extruder,M140 S0 ; turn off bed,M84 ; disable motors
;   exportFileFormat,gcode
;   celebration,0
;   celebrationSong,Random Song
;   postProcessing,
;   defaultSpeed,3600
;   outlineUnderspeed,0.5
;   solidInfillUnderspeed,0.8
;   supportUnderspeed,0.8
;   rapidXYspeed,4800
;   rapidZspeed,1000
;   minBridgingArea,50
;   bridgingExtraInflation,0
;   bridgingExtrusionMultiplier,1
;   bridgingSpeedMultiplier,1
;   filamentDiameter,1.75
;   filamentPricePerKg,46
;   filamentDensity,1.25
;   useMinPrintHeight,0
;   minPrintHeight,0
;   useMaxPrintHeight,0
;   maxPrintHeight,0
;   useDiaphragm,0
;   diaphragmLayerInterval,20
;   robustSlicing,1
;   mergeAllIntoSolid,0
;   onlyRetractWhenCrossingOutline,1
;   retractBetweenLayers,1
;   useRetractionMinTravel,0
;   retractionMinTravel,3
;   retractWhileWiping,0
;   onlyWipeOutlines,1
;   avoidCrossingOutline,0
;   maxMovementDetourFactor,3
;   toolChangeRetractionDistance,12
;   toolChangeExtraRestartDistance,-0.5
;   toolChangeRetractionSpeed,600
;   allowThinWallGapFill,1
;   thinWallAllowedOverlapPercentage,10
;   horizontalSizeCompensation,0
G90
M82
M106 S0
M140 S60
M190 S60
M104 S190 T0
M109 S190 T0
G28 ; home all axes
G92 E0
G1 E-1.0000 F1815
G1 Z0.180 F1000
; layer 1, Z = 0.18
T0
; tool H0.200 W0.400
; skirt
G1 X87.461 Y84.949 F4800
G1 E0.0000 F544
G92 E0
G1 X87.681 Y84.858 E0.0071 F1800
G1 X112.318 Y84.858 E0.7446
G1 X112.539 Y84.949 E0.7518
G1 X115.051 Y87.461 E0.8581
G1 X115.142 Y87.681 E0.8653
G1 X115.142 Y112.318 E1.6027
G1 X115.051 Y112.539 E1.6099
G1 X112.539 Y115.051 E1.7162
G1 X112.318 Y115.142 E1.7234
G1 X87.682 Y115.142 E2.4609
G1 X87.461 Y115.051 E2.4680
G1 X84.949 Y112.539 E2.5743
G1 X84.858 Y112.319 E2.5815
G1 X84.858 Y87.682 E3.3190
G1 X84.949 Y87.461 E3.3261
G1 X87.461 Y84.949 E3.4325
G1 X87.688 Y85.288 F4800
G92 E0
G1 X87.761 Y85.258 E0.0024 F1800
G1 X112.239 Y85.258 E0.7351
G1 X112.312 Y85.288 E0.7375
G1 X114.712 Y87.688 E0.8391
G1 X114.742 Y87.761 E0.8414
G1 X114.742 Y112.239 E1.5742
G1 X114.712 Y112.312 E1.5765
G1 X112.312 Y114.712 E1.6781
G1 X112.239 Y114.742 E1.6805
G1 X87.761 Y114.742 E2.4132
G1 X87.688 Y114.712 E2.4156
G1 X85.288 Y112.312 E2.5172
G1 X85.258 Y112.239 E2.5196
G1 X85.258 Y87.761 E3.2523
G1 X85.288 Y87.688 E3.2547
G1 X87.688 Y85.288 E3.3562
G92 E0
G1 E-1.0000 F1815
; inner perimeter
G1 X90.058 Y90.058 F4800
G1 E0.0000 F1815
G92 E0
G1 X109.942 Y90.058 E0.5952 F1350
G1 X109.942 Y109.942 E1.1905
G1 X90.058 Y109.942 E1.7857
G1 X90.058 Y90.058 E2.3809
; outer perimeter
G1 X89.658 Y89.658 F4800
G92 E0
G1 X110.342 Y89.658 E0.6192 F900
G1 X110.342 Y110.342 E1.2383
G1 X89.658 Y110.342 E1.8575
G1 X89.658 Y89.658 E2.4767
; solid layer
G1 X109.591 Y90.358 F4800
G92 E0
G1 X109.642 Y90.409 E0.0022 F1440
G1 X109.642 Y90.975 E0.0191
G1 X109.025 Y90.358 E0.0452
G1 X108.460 Y90.358 E0.0622
G1 X109.642 Y91.540 E0.1122
G1 X109.642 Y92.106 E0.1292
G1 X107.894 Y90.358 E0.2032
G1 X107.328 Y90.358 E0.2201
G1 X109.642 Y92.672 E0.3181
G1 X109.642 Y93.237 E0.3350
G1 X106.763 Y90.358 E0.4569
G1 X106.197 Y90.358 E0.4738
G1 X109.642 Y93.803 E0.6197
G1 X109.642 Y94.369 E0.6366
G1 X105.631 Y90.358 E0.8064
G1 X105.066 Y90.358 E0.8234
G1 X109.642 Y94.934 E1.0171
G1 X109.642 Y95.500 E1.0340
G1 X104.500 Y90.358 E1.2517
G1 X103.934 Y90.358 E1.2687
G1 X109.642 Y96.066 E1.5103
G1 X109.642 Y96.632 E1.5272
G1 X103.368 Y90.358 E1.7928
G1 X102.803 Y90.358 E1.8098
G1 X109.642 Y97.197 E2.0993
G1 X109.642 Y97.763 E2.1162
G1 X102.237 Y90.358 E2.4297
G1 X101.671 Y90.358 E2.4467
G1 X109.642 Y98.329 E2.7841
G1 X109.642 Y98.894 E2.8010
G1 X101.106 Y90.358 E3.1624
G1 X100.540 Y90.358 E3.1793
G1 X109.642 Y99.460 E3.5647
G1 X109.642 Y100.026 E3.5816
G1 X99.974 Y90.358 E3.9909
G1 X99.409 Y90.358 E4.0078
G1 X109.642 Y100.591 E4.4410
G1 X109.642 Y101.157 E4.4580
G1 X98.843 Y90.358 E4.9151
G1 X98.277 Y90.358 E4.9321
G1 X109.642 Y101.723 E5.4132
G1 X109.642 Y102.288 E5.4301
G1 X97.712 Y90.358 E5.9352
G1 X97.146 Y90.358 E5.9521
G1 X109.642 Y102.854 E6.4811
G1 X109.642 Y103.420 E6.4981
G1 X96.580 Y90.358 E7.0510
G1 X96.015 Y90.358 E7.0679
G1 X109.642 Y103.985 E7.6449
G1 X109.642 Y104.551 E7.6618
G1 X95.449 Y90.358 E8.2626
G1 X94.883 Y90.358 E8.2796
G1 X109.642 Y105.117 E8.9044
G1 X109.642 Y105.682 E8.9213
G1 X94.318 Y90.358 E9.5701
G1 X93.752 Y90.358 E9.5870
G1 X109.642 Y106.248 E10.2597
G1 X109.642 Y106.814 E10.2766
G1 X93.186 Y90.358 E10.9733
G1 X92.620 Y90.358 E10.9902
G1 X109.642 Y107.380 E11.7108
G1 X109.642 Y107.945 E11.7277
G1 X92.055 Y90.358 E12.4722
G1 X91.489 Y90.358 E12.4892
G1 X109.642 Y108.511 E13.2577
G1 X109.642 Y109.077 E13.2746
G1 X90.923 Y90.358 E14.0670
G1 X90.358 Y90.358 E14.0840
G1 X109.642 Y109.642 E14.9003
G1 X109.077 Y109.642 E14.9173
G1 X90.358 Y90.923 E15.7097
G1 X90.358 Y91.489 E15.7266
G1 X108.511 Y109.642 E16.4951
G1 X107.945 Y109.642 E16.5121
G1 X90.358 Y92.055 E17.2566
G1 X90.358 Y92.620 E17.2735
G1 X107.380 Y109.642 E17.9941
G1 X106.814 Y109.642 E18.0110
G1 X90.358 Y93.186 E18.7077
G1 X90.358 Y93.752 E18.7246
G1 X106.248 Y109.642 E19.3973
G1 X105.682 Y109.642 E19.4143
G1 X90.358 Y94.317 E20.0630
G1 X90.358 Y94.883 E20.0799
G1 X105.117 Y109.642 E20.7047
G1 X104.551 Y109.642 E20.7217
G1 X90.358 Y95.449 E21.3225
G1 X90.358 Y96.015 E21.3395
G1 X103.985 Y109.642 E21.9164
G1 X103.420 Y109.642 E21.9333
G1 X90.358 Y96.580 E22.4863
G1 X90.358 Y97.146 E22.5032
G1 X102.854 Y109.642 E23.0322
G1 X102.288 Y109.642 E23.0491
G1 X90.358 Y97.712 E23.5542
G1 X90.358 Y98.277 E23.5711
G1 X101.723 Y109.642 E24.0522
G1 X101.157 Y109.642 E24.0692
G1 X90.358 Y98.843 E24.5263
G1 X90.358 Y99.409 E24.5433
G1 X100.591 Y109.642 E24.9765
G1 X100.026 Y109.642 E24.9934
G1 X90.358 Y99.974 E25.4027
G1 X90.358 Y100.540 E25.4196
G1 X99.460 Y109.642 E25.8050
G1 X98.894 Y109.642 E25.8219
G1 X90.358 Y101.106 E26.1833
G1 X90.358 Y101.671 E26.2002
G1 X98.329 Y109.642 E26.5376
G1 X97.763 Y109.642 E26.5546
G1 X90.358 Y102.237 E26.8681
G1 X90.358 Y102.803 E26.8850
G1 X97.197 Y109.642 E27.1745
G1 X96.632 Y109.642 E27.1915
G1 X90.358 Y103.368 E27.4571
G1 X90.358 Y103.934 E27.4740
G1 X96.066 Y109.642 E27.7156
G1 X95.500 Y109.642 E27.7326
G1 X90.358 Y104.500 E27.9503
G1 X90.358 Y105.066 E27.9672
G1 X94.934 Y109.642 E28.1610
G1 X94.369 Y109.642 E28.1779
G1 X90.358 Y105.631 E28.3477
G1 X90.358 Y106.197 E28.3646
G1 X93.803 Y109.642 E28.5105
G1 X93.237 Y109.642 E28.5274
G1 X90.358 Y106.763 E28.6493
G1 X90.358 Y107.328 E28.6662
G1 X92.672 Y109.642 E28.7642
G1 X92.106 Y109.642 E28.7811
G1 X90.358 Y107.894 E28.8552
G1 X90.358 Y108.460 E28.8721
G1 X91.540 Y109.642 E28.9222
G1 X90.975 Y109.642 E28.9391
G1 X90.358 Y109.025 E28.9652
G1 X90.358 Y109.591 E28.9821
G1 X90.409 Y109.642 E28.9843
G92 E0
G1 E-1.0000 F1815
; layer 2, Z = 0.38
M106 S255
; inner perimeter
G1 X90.058 Y109.942 F4800
G1 Z0.380 F1000
G1 E0.0000 F1815
G92 E0
G1 X90.058 Y90.058 E0.5952 F2700
G1 X109.942 Y90.058 E1.1905
G1 X109.942 Y109.942 E1.7857
G1 X90.058 Y109.942 E2.3809
; outer perimeter
G1 X89.658 Y110.342 F4800
G92 E0
G1 X89.658 Y89.658 E0.6192 F1800
G1 X110.342 Y89.658 E1.2383
G1 X110.342 Y110.342 E1.8575
G1 X89.658 Y110.342 E2.4767
; solid layer
G1 X90.358 Y90.409 F4800
G92 E0
G1 X90.409 Y90.358 E0.0022 F2880
G1 X90.975 Y90.358 E0.0191
G1 X90.358 Y90.975 E0.0452
G1 X90.358 Y91.540 E0.0622
G1 X91.540 Y90.358 E0.1122
G1 X92.106 Y90.358 E0.1292
G1 X90.358 Y92.106 E0.2032
G1 X90.358 Y92.672 E0.2201
G1 X92.672 Y90.358 E0.3181
G1 X93.237 Y90.358 E0.3350
G1 X90.358 Y93.237 E0.4569
G1 X90.358 Y93.803 E0.4738
G1 X93.803 Y90.358 E0.6197
G1 X94.369 Y90.358 E0.6366
G1 X90.358 Y94.369 E0.8064
G1 X90.358 Y94.935 E0.8234
G1 X94.935 Y90.358 E1.0171
G1 X95.500 Y90.358 E1.0341
G1 X90.358 Y95.500 E1.2518
G1 X90.358 Y96.066 E1.2687
G1 X96.066 Y90.358 E1.5103
G1 X96.632 Y90.358 E1.5273
G1 X90.358 Y96.632 E1.7929
G1 X90.358 Y97.197 E1.8098
G1 X97.197 Y90.358 E2.0993
G1 X97.763 Y90.358 E2.1163
G1 X90.358 Y97.763 E2.4298
G1 X90.358 Y98.329 E2.4467
G1 X98.329 Y90.358 E2.7841
G1 X98.894 Y90.358 E2.8011
G1 X90.358 Y98.894 E3.1624
G1 X90.358 Y99.460 E3.1794
G1 X99.460 Y90.358 E3.5647
G1 X100.026 Y90.358 E3.5816
G1 X90.358 Y100.026 E3.9909
G1 X90.358 Y100.591 E4.0078
G1 X100.591 Y90.358 E4.4411
G1 X101.157 Y90.358 E4.4580
G1 X90.358 Y101.157 E4.9152
G1 X90.358 Y101.723 E4.9321
G1 X101.723 Y90.358 E5.4132
G1 X102.288 Y90.358 E5.4302
G1 X90.358 Y102.288 E5.9352
G1 X90.358 Y102.854 E5.9522
G1 X102.854 Y90.358 E6.4812
G1 X103.420 Y90.358 E6.4981
G1 X90.358 Y103.420 E7.0511
G1 X90.358 Y103.985 E7.0680
G1 X103.985 Y90.358 E7.6449
G1 X104.551 Y90.358 E7.6618
G1 X90.358 Y104.551 E8.2627
G1 X90.358 Y105.117 E8.2796
G1 X105.117 Y90.358 E8.9044
G1 X105.683 Y90.358 E8.9214
G1 X90.358 Y105.683 E9.5701
G1 X90.358 Y106.248 E9.5870
G1 X106.248 Y90.358 E10.2597
G1 X106.814 Y90.358 E10.2767
G1 X90.358 Y106.814 E10.9733
G1 X90.358 Y107.380 E10.9902
G1 X107.380 Y90.358 E11.7108
G1 X107.945 Y90.358 E11.7278
G1 X90.358 Y107.945 E12.4723
G1 X90.358 Y108.511 E12.4892
G1 X108.511 Y90.358 E13.2577
G1 X109.077 Y90.358 E13.2747
G1 X90.358 Y109.077 E14.0671
G1 X90.358 Y109.642 E14.0840
G1 X109.642 Y90.358 E14.9004
G1 X109.642 Y90.923 E14.9173
G1 X90.923 Y109.642 E15.7098
G1 X91.489 Y109.642 E15.7267
G1 X109.642 Y91.489 E16.4952
G1 X109.642 Y92.055 E16.5121
G1 X92.055 Y109.642 E17.2566
G1 X92.620 Y109.642 E17.2736
G1 X109.642 Y92.620 E17.9942
G1 X109.642 Y93.186 E18.0111
G1 X93.186 Y109.642 E18.7077
G1 X93.752 Y109.642 E18.7247
G1 X109.642 Y93.752 E19.3974
G1 X109.642 Y94.318 E19.4143
G1 X94.318 Y109.642 E20.0631
G1 X94.883 Y109.642 E20.0800
G1 X109.642 Y94.883 E20.7048
G1 X109.642 Y95.449 E20.7217
G1 X95.449 Y109.642 E21.3226
G1 X96.015 Y109.642 E21.3395
G1 X109.642 Y96.015 E21.9164
G1 X109.642 Y96.580 E21.9333
G1 X96.580 Y109.642 E22.4863
G1 X97.146 Y109.642 E22.5032
G1 X109.642 Y97.146 E23.0322
G1 X109.642 Y97.712 E23.0492
G1 X97.712 Y109.642 E23.5542
G1 X98.277 Y109.642 E23.5712
G1 X109.642 Y98.277 E24.0523
G1 X109.642 Y98.843 E24.0692
G1 X98.843 Y109.642 E24.5264
G1 X99.409 Y109.642 E24.5433
G1 X109.642 Y99.409 E24.9765
G1 X109.642 Y99.974 E24.9935
G1 X99.974 Y109.642 E25.4027
G1 X100.540 Y109.642 E25.4197
G1 X109.642 Y100.540 E25.8050
G1 X109.642 Y101.106 E25.8219
G1 X101.106 Y109.642 E26.1833
G1 X101.671 Y109.642 E26.2002
G1 X109.642 Y101.671 E26.5377
G1 X109.642 Y102.237 E26.5546
G1 X102.237 Y109.642 E26.8681
G1 X102.803 Y109.642 E26.8850
G1 X109.642 Y102.803 E27.1746
G1 X109.642 Y103.369 E27.1915
G1 X103.369 Y109.642 E27.4571
G1 X103.934 Y109.642 E27.4740
G1 X109.642 Y103.934 E27.7157
G1 X109.642 Y104.500 E27.7326
G1 X104.500 Y109.642 E27.9503
G1 X105.066 Y109.642 E27.9672
G1 X109.642 Y105.066 E28.1610
G1 X109.642 Y105.631 E28.1779
G1 X105.631 Y109.642 E28.3477
G1 X106.197 Y109.642 E28.3646
G1 X109.642 Y106.197 E28.5105
G1 X109.642 Y106.763 E28.5274
G1 X106.763 Y109.642 E28.6493
G1 X107.328 Y109.642 E28.6663
G1 X109.642 Y107.328 E28.7642
G1 X109.642 Y107.894 E28.7811
G1 X107.894 Y109.642 E28.8552
G1 X108.460 Y109.642 E28.8721
G1 X109.642 Y108.460 E28.9222
G1 X109.642 Y109.025 E28.9391
G1 X109.025 Y109.642 E28.9652
G1 X109.591 Y109.642 E28.9821
G1 X109.642 Y109.591 E28.9843
G92 E0
G1 E-1.0000 F1815
; layer 3, Z = 0.58
; inner perimeter
G1 X109.942 Y109.942 F4800
G1 Z0.580 F1000
G1 E0.0000 F1815
G92 E0
G1 X90.058 Y109.942 E0.5952 F2700
G1 X90.058 Y90.058 E1.1905
G1 X109.942 Y90.058 E1.7857
G1 X109.942 Y109.942 E2.3809
; outer perimeter
G1 X110.342 Y110.342 F4800
G92 E0
G1 X89.658 Y110.342 E0.6192 F1800
G1 X89.658 Y89.658 E1.2383
G1 X110.342 Y89.658 E1.8575
G1 X110.342 Y110.342 E2.4767
; solid layer
G1 X90.409 Y109.642 F4800
G92 E0
G1 X90.358 Y109.591 E0.0022 F2880
G1 X90.358 Y109.025 E0.0191
G1 X90.975 Y109.642 E0.0452
G1 X91.540 Y109.642 E0.0622
G1 X90.358 Y108.460 E0.1122
G1 X90.358 Y107.894 E0.1292
G1 X92.106 Y109.642 E0.2032
G1 X92.672 Y109.642 E0.2201
G1 X90.358 Y107.328 E0.3181
G1 X90.358 Y106.763 E0.3350
G1 X93.237 Y109.642 E0.4569
G1 X93.803 Y109.642 E0.4738
G1 X90.358 Y106.197 E0.6197
G1 X90.358 Y105.631 E0.6366
G1 X94.369 Y109.642 E0.8064
G1 X94.934 Y109.642 E0.8234
G1 X90.358 Y105.066 E1.0171
G1 X90.358 Y104.500 E1.0340
G1 X95.500 Y109.642 E1.2517
G1 X96.066 Y109.642 E1.2687
G1 X90.358 Y103.934 E1.5103
