; G-Code generated by Simplify3D(R) Version 3.1.0
; Sep 4, 2016 at 5:34:17 PM
; Settings Summary
;   processName,Process1
;   applyToModels,body-alienhead
;   profileName,Wanhao Duplicator 6
;   profileVersion,2016-08-10 08:00:00
;   baseProfile,
;   printMaterial,ABS
;   printQuality,Medium
;   printExtruders,
;   extruderName,Primary Extruder
;   extruderToolheadNumber,0
;   extruderDiameter,0.4
;   extruderAutoWidth,0
;   extruderWidth,0.4
;   extrusionMultiplier,1
;   extruderUseRetract,1
;   extruderRetractionDistance,1.5
;   extruderExtraRestartDistance,0
;   extruderRetractionZLift,0
;   extruderRetractionSpeed,2400
;   extruderUseCoasting,1
;   extruderCoastingDistance,0.2
;   extruderUseWipe,0
;   extruderWipeDistance,2
;   primaryExtruder,0
;   layerHeight,0.15
;   topSolidLayers,4
;   bottomSolidLayers,3
;   perimeterOutlines,2
;   printPerimetersInsideOut,1
;   startPointOption,2
;   startPointOriginX,0
;   startPointOriginY,0
;   startPointOriginZ,300
;   sequentialIslands,0
;   spiralVaseMode,0
;   firstLayerHeightPercentage,130
;   firstLayerWidthPercentage,100
;   firstLayerUnderspeed,0.3
;   useRaft,0
;   raftExtruder,0
;   raftLayers,3
;   raftOffset,3
;   raftSeparationDistance,0.14
;   raftInfill,85
;   disableRaftBaseLayers,0
;   useSkirt,1
;   skirtExtruder,0
;   skirtLayers,1
;   skirtOutlines,2
;   skirtOffset,4
;   usePrimePillar,0
;   primePillarExtruder,999
;   primePillarWidth,12
;   primePillarLocation,7
;   primePillarSpeedMultiplier,1
;   useOozeShield,0
;   oozeShieldExtruder,999
;   oozeShieldOffset,2
;   oozeShieldOutlines,1
;   oozeShieldSidewallShape,1
;   oozeShieldSidewallAngle,30
;   oozeShieldSpeedMultiplier,1
;   infillExtruder,0
;   internalInfillPattern,Rectilinear
;   externalInfillPattern,Rectilinear
;   infillPercentage,20
;   outlineOverlapPercentage,35
;   infillExtrusionWidthPercentage,125
;   minInfillLength,3
;   infillLayerInterval,1
;   infillAngles,45,-45
;   overlapInfillAngles,0
;   generateSupport,0
;   supportExtruder,0
;   supportInfillPercentage,30
;   supportExtraInflation,0
;   denseSupportLayers,0
;   denseSupportInfillPercentage,70
;   supportLayerInterval,1
;   supportHorizontalPartOffset,0.3
;   supportUpperSeparationLayers,1
;   supportLowerSeparationLayers,1
;   supportType,0
;   supportGridSpacing,4
;   maxOverhangAngle,45
;   supportAngles,0
;   temperatureName,Primary Extruder,Heated Build Platform
;   temperatureNumber,0,1
;   temperatureSetpointCount,1,1
;   temperatureSetpointLayers,1,1
;   temperatureSetpointTemperatures,230,100
;   temperatureStabilizeAtStartup,1,1
;   temperatureHeatedBed,0,1
;   temperatureRelayBetweenLayers,0,0
;   temperatureRelayBetweenLoops,0,0
;   fanLayers,1
;   fanSpeeds,0
;   blipFanToFullPower,1
;   adjustSpeedForCooling,1
;   minSpeedLayerTime,15
;   minCoolingSpeedSlowdown,20
;   increaseFanForCooling,1
;   minFanLayerTime,10
;   maxCoolingFanSpeed,30
;   increaseFanForBridging,1
;   bridgingFanSpeed,45
;   use5D,1
;   relativeEdistances,0
;   allowEaxisZeroing,1
;   independentExtruderAxes,0
;   includeM10123,0
;   stickySupport,1
;   applyToolheadOffsets,0
;   gcodeXoffset,0
;   gcodeYoffset,0
;   gcodeZoffset,0
;   overrideMachineDefinition,1
;   machineTypeOverride,0
;   strokeXoverride,200
;   strokeYoverride,200
;   strokeZoverride,175
;   originOffsetXoverride,0
;   originOffsetYoverride,0
;   originOffsetZoverride,0
;   homeXdirOverride,-1
;   homeYdirOverride,-1
;   homeZdirOverride,-1
;   flipXoverride,1
;   flipYoverride,-1
;   flipZoverride,1
;   toolheadOffsets,0,0|0,0|0,0|0,0|0,0|0,0
;   overrideFirmwareConfiguration,1
;   firmwareTypeOverride,RepRap (Marlin/Repetier/Sprinter)
;   GPXconfigOverride,r2
;   baudRateOverride,250000
;   overridePrinterModels,1
;   printerModelsOverride
;   startingGcode,G28 ; home all axes,G92 E0 ; zero the extruded length,G1 Z10 ; lower,G1 E20 F200 ; purge nozzle quickly,G1 E10 F60 ; purge nozzle slowly,G92 E0 ; zero the extruded length again,G1 E-1.5 F400 ; retract,G1 X170 Z0 F9000 ; pull away filament,G1 X180 F9000 ; wipe,G1 Y20 F9000 ; wipe,G1 E0 ; feed filament back
;   layerChangeGcode,
;   retractionGcode,
;   toolChangeGcode,
;   endingGcode,G28 X0 ; home the X-axis,M104 S0 ; turn off heaters,M140 S0 ; turn off bed,M84 ; disable motors
;   exportFileFormat,gcode
;   celebration,0
;   celebrationSong,Random Song
;   postProcessing,
;   defaultSpeed,2500
;   outlineUnderspeed,0.65
;   solidInfillUnderspeed,0.7
;   supportUnderspeed,0.7
;   rapidXYspeed,6000
;   rapidZspeed,1000
;   minBridgingArea,5
;   bridgingExtraInflation,0
;   bridgingExtrusionMultiplier,1
;   bridgingSpeedMultiplier,0.5
;   filamentDiameter,1.75
;   filamentPricePerKg,46
;   filamentDensity,1.25
;   useMinPrintHeight,0
;   minPrintHeight,0
;   useMaxPrintHeight,0
;   maxPrintHeight,0
;   useDiaphragm,0
;   diaphragmLayerInterval,20
;   robustSlicing,1
;   mergeAllIntoSolid,0
;   onlyRetractWhenCrossingOutline,1
;   retractBetweenLayers,0
;   useRetractionMinTravel,1
;   retractionMinTravel,0.02
;   retractWhileWiping,0
;   onlyWipeOutlines,1
;   avoidCrossingOutline,0
;   maxMovementDetourFactor,3
;   toolChangeRetractionDistance,12
;   toolChangeExtraRestartDistance,-0.5
;   toolChangeRetractionSpeed,600
;   allowThinWallGapFill,1
;   thinWallAllowedOverlapPercentage,10
;   horizontalSizeCompensation,0
G90
M82
M106 S0
M140 S100
M190 S100
M104 S230 T0
M109 S230 T0
G28 ; home all axes
G92 E0 ; zero the extruded length
G1 Z10 ; lower
G1 E20 F200 ; purge nozzle quickly
G1 E10 F60 ; purge nozzle slowly
G92 E0 ; zero the extruded length again
G1 E-1.5 F400 ; retract
G1 X170 Z0 F9000 ; pull away filament
G1 X180 F9000 ; wipe
G1 Y20 F9000 ; wipe
G1 E0 ; feed filament back
G92 E0
G1 E-1.5000 F2400
G1 Z0.195 F1000
; layer 1, Z = 0.195
T0
; tool H0.195 W0.400
; skirt
G1 X84.322 Y79.723 F6000
G1 E0.0000 F720
G92 E0
G1 X87.246 Y78.812 E0.0993 F750
G1 X87.274 Y78.805 E0.1003
G1 X87.540 Y78.749 E0.1091
G1 X87.543 Y78.726 E0.1098
G1 X87.550 Y78.690 E0.1110
G1 X87.689 Y78.176 E0.1283
G1 X87.701 Y78.141 E0.1295
G1 X88.804 Y75.441 E0.2241
G1 X89.046 Y75.246 E0.2341
G1 X93.186 Y74.528 E0.3704
G1 X93.376 Y73.920 E0.3910
G1 X93.564 Y73.720 E0.3999
G1 X97.419 Y72.231 E0.5339
G1 X97.692 Y72.253 E0.5428
G1 X99.827 Y73.504 E0.6231
G1 X99.839 Y73.512 E0.6235
G1 X99.988 Y73.609 E0.6293
G1 X102.574 Y71.893 E0.7300
G1 X102.917 Y71.883 E0.7411
G1 X106.994 Y74.265 E0.8942
G1 X111.674 Y75.585 E1.0519
G1 X111.906 Y75.842 E1.0631
G1 X112.315 Y78.164 E1.1396
G1 X112.403 Y78.446 E1.1492
G1 X112.414 Y78.494 E1.1508
G1 X112.447 Y78.732 E1.1586
G1 X113.242 Y78.865 E1.1847
G1 X113.348 Y78.904 E1.1884
G1 X116.039 Y80.517 E1.2901
G1 X116.190 Y80.750 E1.2991
G1 X116.610 Y84.254 E1.4135
G1 X117.185 Y84.390 E1.4327
G1 X117.407 Y84.582 E1.4422
G1 X119.052 Y88.729 E1.5869
G1 X119.021 Y89.022 E1.5964
G1 X117.594 Y91.187 E1.6805
G1 X117.880 Y91.611 E1.6971
G1 X117.904 Y91.656 E1.6988
G1 X119.118 Y94.352 E1.7947
G1 X119.092 Y94.661 E1.8047
G1 X117.010 Y97.785 E1.9265
G1 X115.688 Y102.768 E2.0936
G1 X115.442 Y103.002 E2.1046
G1 X113.313 Y103.452 E2.1752
G1 X113.016 Y103.580 E2.1857
G1 X112.934 Y103.603 E2.1885
G1 X112.452 Y103.664 E2.2042
G1 X112.377 Y103.981 E2.2148
G1 X112.369 Y104.008 E2.2157
G1 X111.475 Y106.673 E2.3069
G1 X111.252 Y106.880 E2.3167
G1 X106.877 Y108.012 E2.4633
G1 X106.773 Y108.418 E2.4769
G1 X106.582 Y108.634 E2.4862
G1 X102.517 Y110.241 E2.6280
G1 X102.230 Y110.214 E2.6373
G1 X100.012 Y108.801 E2.7226
G1 X97.826 Y110.626 E2.8150
G1 X97.461 Y110.664 E2.8269
G1 X92.387 Y107.966 E3.0133
G1 X92.285 Y107.776 E3.0202
G1 X92.123 Y107.819 E3.0257
G1 X91.948 Y107.813 E3.0313
G1 X89.519 Y107.003 E3.1144
G1 X89.376 Y106.903 E3.1201
G1 X88.262 Y105.495 E3.1783
G1 X88.233 Y105.452 E3.1800
G1 X87.878 Y104.796 E3.2041
G1 X87.857 Y104.749 E3.2058
G1 X87.624 Y104.053 E3.2296
G1 X87.615 Y104.021 E3.2307
G1 X87.534 Y103.641 E3.2433
G1 X86.678 Y103.477 E3.2715
G1 X86.591 Y103.446 E3.2745
G1 X85.424 Y102.814 E3.3176
G1 X85.351 Y102.758 E3.3206
G1 X83.659 Y101.007 E3.3995
G1 X83.572 Y100.794 E3.4070
G1 X83.552 Y98.740 E3.4736
G1 X83.430 Y98.675 E3.4781
G1 X80.763 Y94.354 E3.6428
G1 X80.757 Y94.025 E3.6534
G1 X82.224 Y91.454 E3.7494
G1 X82.233 Y91.439 E3.7500
G1 X82.371 Y91.227 E3.7582
G1 X82.381 Y91.213 E3.7587
G1 X82.389 Y91.202 E3.7592
G1 X80.571 Y88.802 E3.8568
G1 X80.549 Y88.439 E3.8686
G1 X83.292 Y83.734 E4.0452
G1 X84.103 Y79.963 E4.1703
G1 X84.187 Y79.871 E4.1744
G1 X84.322 Y79.723 F750
G1 X84.544 Y80.073 F6000
G92 E0
G1 X87.356 Y79.196 E0.0955 F750
G1 X87.365 Y79.194 E0.0958
G1 X87.746 Y79.114 E0.1084
G1 X87.755 Y79.112 E0.1087
G1 X87.894 Y79.097 E0.1133
G1 X87.937 Y78.794 E0.1232
G1 X87.940 Y78.782 E0.1236
G1 X88.072 Y78.292 E0.1400
G1 X88.076 Y78.281 E0.1405
G1 X89.136 Y75.688 E0.2313
G1 X89.216 Y75.623 E0.2346
G1 X93.495 Y74.880 E0.3755
G1 X93.731 Y74.127 E0.4011
G1 X93.793 Y74.060 E0.4040
G1 X97.478 Y72.637 E0.5321
G1 X97.569 Y72.644 E0.5351
G1 X99.621 Y73.847 E0.6122
G1 X99.625 Y73.850 E0.6124
G1 X99.788 Y73.956 E0.6187
G1 X99.792 Y73.958 E0.6188
G1 X99.980 Y74.094 E0.6264
G1 X102.700 Y72.289 E0.7322
G1 X102.814 Y72.286 E0.7359
G1 X106.836 Y74.637 E0.8870
G1 X111.455 Y75.939 E1.0426
G1 X111.532 Y76.024 E1.0463
G1 X111.925 Y78.259 E1.1199
G1 X112.016 Y78.550 E1.1298
G1 X112.020 Y78.566 E1.1304
G1 X112.092 Y79.079 E1.1471
G1 X113.139 Y79.254 E1.1816
G1 X113.175 Y79.267 E1.1828
G1 X115.753 Y80.812 E1.2803
G1 X115.804 Y80.890 E1.2833
G1 X116.246 Y84.578 E1.4038
G1 X116.998 Y84.757 E1.4288
G1 X117.072 Y84.821 E1.4320
G1 X118.644 Y88.786 E1.5703
G1 X118.634 Y88.883 E1.5735
G1 X117.108 Y91.197 E1.6634
G1 X117.137 Y91.228 E1.6647
G1 X117.148 Y91.241 E1.6653
G1 X117.538 Y91.820 E1.6880
G1 X117.547 Y91.835 E1.6885
G1 X118.710 Y94.422 E1.7805
G1 X118.702 Y94.525 E1.7838
G1 X116.613 Y97.661 E1.9060
G1 X116.622 Y97.690 E1.9070
G1 X115.331 Y102.556 E2.0703
G1 X115.249 Y102.634 E2.0739
G1 X113.192 Y103.069 E2.1421
G1 X112.883 Y103.202 E2.1530
G1 X112.856 Y103.209 E2.1539
G1 X112.106 Y103.305 E2.1785
G1 X112.079 Y103.499 E2.1848
G1 X112.077 Y103.509 E2.1851
G1 X111.990 Y103.880 E2.1975
G1 X111.987 Y103.889 E2.1978
G1 X111.128 Y106.449 E2.2854
G1 X111.054 Y106.519 E2.2887
G1 X106.755 Y107.631 E2.4327
G1 X106.657 Y107.606 E2.4360
G1 X106.585 Y107.540 E2.4391
G1 X106.409 Y108.226 E2.4620
G1 X106.346 Y108.298 E2.4652
G1 X102.460 Y109.834 E2.6007
G1 X102.364 Y109.825 E2.6038
G1 X99.981 Y108.306 E2.6954
G1 X97.663 Y110.241 E2.7934
G1 X97.541 Y110.254 E2.7973
G1 X92.682 Y107.670 E2.9758
G1 X92.625 Y107.562 E2.9797
G1 X92.655 Y107.265 E2.9894
G1 X92.078 Y107.417 E3.0088
G1 X92.019 Y107.415 E3.0107
G1 X89.701 Y106.642 E3.0899
G1 X89.653 Y106.609 E3.0918
G1 X88.586 Y105.260 E3.1476
G1 X88.576 Y105.246 E3.1482
G1 X88.238 Y104.621 E3.1712
G1 X88.231 Y104.605 E3.1718
G1 X88.007 Y103.937 E3.1946
G1 X88.004 Y103.926 E3.1950
G1 X87.907 Y103.475 E3.2100
G1 X87.905 Y103.463 E3.2103
G1 X87.889 Y103.302 E3.2156
G1 X86.784 Y103.090 E3.2521
G1 X86.755 Y103.079 E3.2531
G1 X85.641 Y102.477 E3.2942
G1 X85.617 Y102.458 E3.2951
G1 X84.000 Y100.784 E3.3706
G1 X83.971 Y100.713 E3.3731
G1 X83.949 Y98.415 E3.4476
G1 X83.810 Y98.423 E3.4521
G1 X83.713 Y98.372 E3.4557
G1 X81.161 Y94.237 E3.6133
G1 X81.159 Y94.128 E3.6168
G1 X82.569 Y91.657 E3.7091
G1 X82.572 Y91.652 E3.7092
G1 X82.703 Y91.451 E3.7170
G1 X82.706 Y91.446 E3.7172
G1 X82.888 Y91.199 E3.7272
G1 X80.963 Y88.657 E3.8306
G1 X80.955 Y88.536 E3.8345
G1 X83.670 Y83.880 E4.0093
G1 X84.452 Y80.242 E4.1300
G1 X84.471 Y80.153 F750
G1 X84.544 Y80.073 F750
G92 E0
G1 E-1.5000 F2400
; inner perimeter
G1 X89.360 Y83.812 F6000
G1 E0.0000 F2400
G92 E0
G1 X90.229 Y84.227 E0.0312 F619
G1 X90.279 Y84.232 E0.0329
G1 X90.649 Y84.400 E0.0460
G1 X90.888 Y84.691 E0.0583
G1 X91.167 Y84.939 E0.0704
G1 X91.041 Y85.164 E0.0787
G1 X90.761 Y85.078 E0.0882
G1 X90.294 Y84.882 E0.1046
G1 X90.015 Y84.733 E0.1149
G1 X89.696 Y84.535 E0.1271
G1 X89.622 Y84.482 E0.1300
G1 X89.433 Y83.998 E0.1469
G1 X89.360 Y83.812 F619
; outer perimeter
G1 X88.475 Y83.459 F6000
G92 E0
G1 X88.766 Y83.426 E0.0095 F488
G1 X89.002 Y83.437 E0.0172
G1 X89.173 Y83.473 E0.0228
G1 X89.280 Y83.461 E0.0263
G1 X89.662 Y83.498 E0.0388
G1 X89.906 Y83.582 E0.0471
G1 X89.918 Y83.635 E0.0489
G1 X90.339 Y83.837 E0.0640
G1 X90.435 Y83.847 E0.0672
G1 X90.511 Y83.898 E0.0701
G1 X90.830 Y84.043 E0.0815
G1 X90.889 Y84.046 E0.0834
G1 X90.910 Y84.061 E0.0843
G1 X90.954 Y84.141 E0.0872
G1 X91.177 Y84.413 E0.0986
G1 X91.420 Y84.629 E0.1092
G1 X91.562 Y84.702 E0.1143
G1 X91.690 Y84.878 E0.1214
G1 X92.001 Y85.461 E0.1428
G1 X92.084 Y85.688 E0.1507
G1 X92.121 Y85.817 E0.1550
G1 X91.858 Y85.776 E0.1637
G1 X91.198 Y85.631 E0.1856
G1 X90.625 Y85.454 E0.2050
G1 X90.122 Y85.243 E0.2227
G1 X89.816 Y85.080 E0.2340
G1 X89.473 Y84.868 E0.2470
G1 X89.292 Y84.737 E0.2543
G1 X89.125 Y84.311 E0.2691
G1 X88.885 Y83.920 E0.2840
G1 X88.621 Y83.596 E0.2976
G1 X88.599 Y83.569 F488
G1 X88.475 Y83.459 F488
; gap fill
G1 X91.356 Y85.133 F6000
G92 E0
G1 X91.550 Y85.328 E0.0089 F525
G1 X91.692 Y85.469 F525
; solid layer
G1 X90.186 Y84.529 F6000
G92 E0
G1 E-1.5000 F2400
; inner perimeter
; outer perimeter
G1 X93.020 Y82.298 F6000
G1 E0.0000 F2400
G92 E0
G1 X92.808 Y82.042 E0.0108 F488
G1 X92.573 Y81.664 E0.0252
G1 X92.402 Y81.253 E0.0396
G1 X92.287 Y80.724 E0.0572
G1 X92.304 Y80.628 E0.0604
G1 X92.236 Y80.193 E0.0746
G1 X92.237 Y79.875 E0.0850
G1 X92.230 Y79.861 E0.0855
G1 X92.252 Y79.705 E0.0906
G1 X92.261 Y79.711 E0.0909
G1 X92.332 Y79.785 E0.0943
G1 X92.625 Y80.402 E0.1164
G1 X92.801 Y80.889 E0.1332
G1 X92.905 Y81.295 E0.1468
G1 X92.986 Y81.805 E0.1635
G1 X93.003 Y82.008 E0.1701
G1 X93.008 Y82.098 E0.1731
G1 X93.020 Y82.298 F488
G92 E0
G1 E-1.5000 F2400
; inner perimeter
G1 X97.828 Y80.389 F6000
G1 E0.0000 F2400
G92 E0
G1 X97.621 Y79.895 E0.0174 F619
G1 X97.459 Y79.311 E0.0370
G1 X97.423 Y79.115 E0.0435
G1 X97.505 Y78.938 E0.0498
G1 X97.880 Y78.621 E0.0657
G1 X97.965 Y79.136 E0.0827
G1 X97.960 Y79.451 E0.0929
G1 X98.157 Y79.720 E0.1037
G1 X98.172 Y79.803 E0.1064
G1 X98.253 Y79.964 E0.1123
G1 X98.272 Y80.195 E0.1198
G1 X98.249 Y81.180 E0.1517
G1 X97.922 Y80.565 E0.1743
G1 X97.828 Y80.389 F619
; outer perimeter
G1 X97.467 Y80.560 F6000
G92 E0
G1 X97.243 Y80.026 E0.0188 F488
G1 X97.068 Y79.400 E0.0398
G1 X97.007 Y79.062 E0.0510
G1 X97.157 Y78.736 E0.0626
G1 X97.171 Y78.696 E0.0640
G1 X97.384 Y78.517 E0.0730
G1 X97.301 Y78.151 E0.0852
G1 X97.322 Y77.959 E0.0915
G1 X97.514 Y77.823 E0.0991
G1 X97.334 Y77.643 E0.1073
G1 X97.331 Y77.609 E0.1084
G1 X97.593 Y77.798 E0.1189
G1 X97.778 Y78.036 E0.1287
G1 X97.861 Y78.099 E0.1321
G1 X98.117 Y78.382 E0.1445
G1 X98.257 Y78.585 E0.1524
G1 X98.317 Y78.735 E0.1577
G1 X98.307 Y78.748 E0.1582
G1 X98.366 Y79.107 E0.1700
G1 X98.362 Y79.323 E0.1770
G1 X98.533 Y79.557 E0.1864
G1 X98.555 Y79.674 E0.1903
G1 X98.645 Y79.854 E0.1968
G1 X98.673 Y80.183 E0.2075
G1 X98.662 Y80.644 E0.2225
G1 X98.617 Y80.866 E0.2298
G1 X98.383 Y81.575 E0.2540
G1 X98.244 Y81.825 E0.2633
G1 X98.021 Y81.514 E0.2757
G1 X97.732 Y81.059 E0.2931
G1 X97.561 Y80.737 E0.3050
G1 X97.467 Y80.560 F488
; gap fill
G1 X97.682 Y78.448 F6000
; solid layer
G1 X97.851 Y79.749 F6000
G92 E0
G1 E-1.5000 F2400
; inner perimeter
; outer perimeter
G1 X101.331 Y80.015 F6000
G1 E0.0000 F2400
G92 E0
G1 X101.379 Y79.660 E0.0116 F488
G1 X101.489 Y79.224 E0.0262
G1 X101.512 Y79.140 E0.0290
G1 X101.571 Y79.006 E0.0338
G1 X101.624 Y78.953 E0.0362
G1 X101.770 Y78.726 E0.0450
G1 X101.803 Y78.599 E0.0492
G1 X101.939 Y78.314 E0.0594
G1 X102.204 Y78.036 E0.0719
G1 X102.460 Y77.728 E0.0849
G1 X102.669 Y77.575 E0.0933
G1 X102.659 Y77.709 E0.0976
G1 X102.556 Y78.029 E0.1085
G1 X102.260 Y78.726 E0.1331
G1 X101.993 Y79.185 E0.1503
G1 X101.692 Y79.600 E0.1669
G1 X101.463 Y79.864 E0.1783
G1 X101.331 Y80.015 F488
G92 E0
G1 E-1.5000 F2400
; inner perimeter
G1 X106.159 Y81.914 F6000
G1 E0.0000 F2400
G92 E0
G1 X106.321 Y81.524 E0.0137 F619
G1 X106.471 Y81.239 E0.0241
G1 X106.669 Y80.917 E0.0364
G1 X106.755 Y80.798 E0.0412
G1 X106.988 Y80.893 E0.0493
G1 X106.909 Y81.411 E0.0663
G1 X106.865 Y81.517 E0.0700
G1 X106.860 Y81.837 E0.0804
