; G-Code generated by Simplify3D(R) Version 3.1.0
; Sep 4, 2016 at 5:34:31 PM
; Settings Summary
;   processName,Process1
;   applyToModels,tentacle_segment_supported_x8
;   profileName,Wanhao Duplicator 6
;   profileVersion,2016-08-10 08:00:00
;   baseProfile,
;   printMaterial,ABS
;   printQuality,Medium
;   printExtruders,
;   extruderName,Primary Extruder
;   extruderToolheadNumber,0
;   extruderDiameter,0.4
;   extruderAutoWidth,0
;   extruderWidth,0.4
;   extrusionMultiplier,1
;   extruderUseRetract,1
;   extruderRetractionDistance,1.5
;   extruderExtraRestartDistance,0
;   extruderRetractionZLift,0
;   extruderRetractionSpeed,2400
;   extruderUseCoasting,1
;   extruderCoastingDistance,0.2
;   extruderUseWipe,0
;   extruderWipeDistance,2
;   primaryExtruder,0
;   layerHeight,0.15
;   topSolidLayers,4
;   bottomSolidLayers,3
;   perimeterOutlines,2
;   printPerimetersInsideOut,1
;   startPointOption,2
;   startPointOriginX,0
;   startPointOriginY,0
;   startPointOriginZ,300
;   sequentialIslands,0
;   spiralVaseMode,0
;   firstLayerHeightPercentage,130
;   firstLayerWidthPercentage,100
;   firstLayerUnderspeed,0.3
;   useRaft,0
;   raftExtruder,0
;   raftLayers,3
;   raftOffset,3
;   raftSeparationDistance,0.14
;   raftInfill,85
;   disableRaftBaseLayers,0
;   useSkirt,1
;   skirtExtruder,0
;   skirtLayers,1
;   skirtOutlines,2
;   skirtOffset,4
;   usePrimePillar,0
;   primePillarExtruder,999
;   primePillarWidth,12
;   primePillarLocation,7
;   primePillarSpeedMultiplier,1
;   useOozeShield,0
;   oozeShieldExtruder,999
;   oozeShieldOffset,2
;   oozeShieldOutlines,1
;   oozeShieldSidewallShape,1
;   oozeShieldSidewallAngle,30
;   oozeShieldSpeedMultiplier,1
;   infillExtruder,0
;   internalInfillPattern,Rectilinear
;   externalInfillPattern,Rectilinear
;   infillPercentage,20
;   outlineOverlapPercentage,35
;   infillExtrusionWidthPercentage,125
;   minInfillLength,3
;   infillLayerInterval,1
;   infillAngles,45,-45
;   overlapInfillAngles,0
;   generateSupport,0
;   supportExtruder,0
;   supportInfillPercentage,30
;   supportExtraInflation,0
;   denseSupportLayers,0
;   denseSupportInfillPercentage,70
;   supportLayerInterval,1
;   supportHorizontalPartOffset,0.3
;   supportUpperSeparationLayers,1
;   supportLowerSeparationLayers,1
;   supportType,0
;   supportGridSpacing,4
;   maxOverhangAngle,45
;   supportAngles,0
;   temperatureName,Primary Extruder,Heated Build Platform
;   temperatureNumber,0,1
;   temperatureSetpointCount,1,1
;   temperatureSetpointLayers,1,1
;   temperatureSetpointTemperatures,230,100
;   temperatureStabilizeAtStartup,1,1
;   temperatureHeatedBed,0,1
;   temperatureRelayBetweenLayers,0,0
;   temperatureRelayBetweenLoops,0,0
;   fanLayers,1
;   fanSpeeds,0
;   blipFanToFullPower,1
;   adjustSpeedForCooling,1
;   minSpeedLayerTime,15
;   minCoolingSpeedSlowdown,20
;   increaseFanForCooling,1
;   minFanLayerTime,10
;   maxCoolingFanSpeed,30
;   increaseFanForBridging,1
;   bridgingFanSpeed,45
;   use5D,1
;   relativeEdistances,0
;   allowEaxisZeroing,1
;   independentExtruderAxes,0
;   includeM10123,0
;   stickySupport,1
;   applyToolheadOffsets,0
;   gcodeXoffset,0
;   gcodeYoffset,0
;   gcodeZoffset,0
;   overrideMachineDefinition,1
;   machineTypeOverride,0
;   strokeXoverride,200
;   strokeYoverride,200
;   strokeZoverride,175
;   originOffsetXoverride,0
;   originOffsetYoverride,0
;   originOffsetZoverride,0
;   homeXdirOverride,-1
;   homeYdirOverride,-1
;   homeZdirOverride,-1
;   flipXoverride,1
;   flipYoverride,-1
;   flipZoverride,1
;   toolheadOffsets,0,0|0,0|0,0|0,0|0,0|0,0
;   overrideFirmwareConfiguration,1
;   firmwareTypeOverride,RepRap (Marlin/Repetier/Sprinter)
;   GPXconfigOverride,r2
;   baudRateOverride,250000
;   overridePrinterModels,1
;   printerModelsOverride
;   startingGcode,G28 ; home all axes,G92 E0 ; zero the extruded length,G1 Z10 ; lower,G1 E20 F200 ; purge nozzle quickly,G1 E10 F60 ; purge nozzle slowly,G92 E0 ; zero the extruded length again,G1 E-1.5 F400 ; retract,G1 X170 Z0 F9000 ; pull away filament,G1 X180 F9000 ; wipe,G1 Y20 F9000 ; wipe,G1 E0 ; feed filament back
;   layerChangeGcode,
;   retractionGcode,
;   toolChangeGcode,
;   endingGcode,G28 X0 ; home the X-axis,M104 S0 ; turn off heaters,M140 S0 ; turn off bed,M84 ; disable motors
;   exportFileFormat,gcode
;   celebration,0
;   celebrationSong,Random Song
;   postProcessing,
;   defaultSpeed,2500
;   outlineUnderspeed,0.65
;   solidInfillUnderspeed,0.7
;   supportUnderspeed,0.7
;   rapidXYspeed,6000
;   rapidZspeed,1000
;   minBridgingArea,5
;   bridgingExtraInflation,0
;   bridgingExtrusionMultiplier,1
;   bridgingSpeedMultiplier,0.5
;   filamentDiameter,1.75
;   filamentPricePerKg,46
;   filamentDensity,1.25
;   useMinPrintHeight,0
;   minPrintHeight,0
;   useMaxPrintHeight,0
;   maxPrintHeight,0
;   useDiaphragm,0
;   diaphragmLayerInterval,20
;   robustSlicing,1
;   mergeAllIntoSolid,0
;   onlyRetractWhenCrossingOutline,1
;   retractBetweenLayers,0
;   useRetractionMinTravel,1
;   retractionMinTravel,0.02
;   retractWhileWiping,0
;   onlyWipeOutlines,1
;   avoidCrossingOutline,0
;   maxMovementDetourFactor,3
;   toolChangeRetractionDistance,12
;   toolChangeExtraRestartDistance,-0.5
;   toolChangeRetractionSpeed,600
;   allowThinWallGapFill,1
;   thinWallAllowedOverlapPercentage,10
;   horizontalSizeCompensation,0
G90
M82
M106 S0
M140 S100
M190 S100
M104 S230 T0
M109 S230 T0
G28 ; home all axes
G92 E0 ; zero the extruded length
G1 Z10 ; lower
G1 E20 F200 ; purge nozzle quickly
G1 E10 F60 ; purge nozzle slowly
G92 E0 ; zero the extruded length again
G1 E-1.5 F400 ; retract
G1 X170 Z0 F9000 ; pull away filament
G1 X180 F9000 ; wipe
G1 Y20 F9000 ; wipe
G1 E0 ; feed filament back
G92 E0
G1 E-1.5000 F2400
G1 Z0.195 F1000
; layer 1, Z = 0.195
T0
; tool H0.195 W0.400
; skirt
G1 X84.556 Y78.048 F6000
G1 E0.0000 F720
G92 E0
G1 X87.575 Y78.505 E0.0990 F750
G1 X87.583 Y78.506 E0.0993
G1 X87.696 Y78.527 E0.1030
G1 X87.704 Y78.528 E0.1033
G1 X88.552 Y78.703 E0.1314
G1 X88.584 Y78.712 E0.1324
G1 X89.037 Y78.859 E0.1479
G1 X89.068 Y78.871 E0.1490
G1 X90.186 Y79.377 E0.1887
G1 X90.219 Y79.394 E0.1900
G1 X90.680 Y79.678 E0.2075
G1 X90.711 Y79.699 E0.2087
G1 X91.664 Y80.464 E0.2484
G1 X91.676 Y80.475 E0.2489
G1 X91.852 Y80.632 E0.2565
G1 X91.863 Y80.643 E0.2571
G1 X92.072 Y80.852 E0.2666
G1 X92.072 Y80.496 E0.2781
G1 X92.072 Y80.480 E0.2787
G1 X92.085 Y80.245 E0.2863
G1 X92.087 Y80.229 E0.2868
G1 X92.214 Y79.074 E0.3245
G1 X92.221 Y79.037 E0.3257
G1 X92.346 Y78.512 E0.3432
G1 X92.357 Y78.476 E0.3444
G1 X92.796 Y77.311 E0.3848
G1 X92.811 Y77.278 E0.3860
G1 X93.050 Y76.820 E0.4027
G1 X93.068 Y76.789 E0.4039
G1 X95.258 Y73.590 E0.5296
G1 X95.582 Y73.453 E0.5410
G1 X100.083 Y74.234 E0.6892
G1 X104.279 Y73.430 E0.8277
G1 X104.602 Y73.557 E0.8389
G1 X106.413 Y76.015 E0.9380
G1 X106.418 Y76.021 E0.9382
G1 X106.484 Y76.116 E0.9420
G1 X106.488 Y76.123 E0.9422
G1 X106.964 Y76.846 E0.9703
G1 X106.981 Y76.875 E0.9714
G1 X107.197 Y77.299 E0.9868
G1 X107.211 Y77.330 E0.9879
G1 X107.643 Y78.477 E1.0277
G1 X107.654 Y78.513 E1.0289
G1 X107.780 Y79.040 E1.0464
G1 X107.786 Y79.077 E1.0477
G1 X107.919 Y80.291 E1.0873
G1 X107.921 Y80.308 E1.0878
G1 X107.933 Y80.543 E1.0955
G1 X107.934 Y80.559 E1.0960
G1 X107.934 Y80.846 E1.1053
G1 X108.137 Y80.643 E1.1146
G1 X108.148 Y80.632 E1.1151
G1 X108.324 Y80.475 E1.1228
G1 X108.336 Y80.464 E1.1233
G1 X109.289 Y79.699 E1.1629
G1 X109.320 Y79.677 E1.1642
G1 X109.781 Y79.394 E1.1817
G1 X109.814 Y79.377 E1.1829
G1 X110.950 Y78.863 E1.2233
G1 X110.984 Y78.850 E1.2245
G1 X111.476 Y78.695 E1.2412
G1 X111.511 Y78.686 E1.2424
G1 X115.203 Y77.995 E1.3642
G1 X115.519 Y78.116 E1.3752
G1 X118.435 Y81.915 E1.5305
G1 X121.895 Y84.353 E1.6678
G1 X122.028 Y84.679 E1.6792
G1 X121.314 Y88.489 E1.8049
G1 X121.305 Y88.524 E1.8061
G1 X121.150 Y89.016 E1.8228
G1 X121.137 Y89.050 E1.8240
G1 X120.623 Y90.186 E1.8644
G1 X120.606 Y90.219 E1.8656
G1 X120.322 Y90.680 E1.8832
G1 X120.301 Y90.711 E1.8844
G1 X119.536 Y91.664 E1.9240
G1 X119.525 Y91.676 E1.9245
G1 X119.368 Y91.852 E1.9322
G1 X119.357 Y91.863 E1.9327
G1 X119.154 Y92.066 E1.9420
G1 X119.441 Y92.066 E1.9513
G1 X119.457 Y92.067 E1.9519
G1 X119.692 Y92.079 E1.9595
G1 X119.709 Y92.081 E1.9600
G1 X120.923 Y92.214 E1.9997
G1 X120.960 Y92.220 E2.0009
G1 X121.487 Y92.346 E2.0184
G1 X121.523 Y92.357 E2.0196
G1 X122.689 Y92.796 E2.0601
G1 X122.722 Y92.811 E2.0612
G1 X123.180 Y93.050 E2.0780
G1 X123.211 Y93.068 E2.0791
G1 X126.410 Y95.258 E2.2048
G1 X126.547 Y95.582 E2.2163
G1 X125.781 Y100.000 E2.3617
G1 X126.547 Y104.418 E2.5071
G1 X126.410 Y104.742 E2.5185
G1 X123.211 Y106.932 E2.6442
G1 X123.180 Y106.950 E2.6454
G1 X122.722 Y107.189 E2.6621
G1 X122.689 Y107.204 E2.6633
G1 X121.523 Y107.643 E2.7037
G1 X121.487 Y107.654 E2.7049
G1 X120.960 Y107.780 E2.7225
G1 X120.923 Y107.786 E2.7237
G1 X119.709 Y107.919 E2.7633
G1 X119.692 Y107.921 E2.7638
G1 X119.457 Y107.933 E2.7715
G1 X119.441 Y107.934 E2.7720
G1 X119.154 Y107.934 E2.7813
G1 X119.357 Y108.137 E2.7906
G1 X119.368 Y108.148 E2.7912
G1 X119.525 Y108.324 E2.7988
G1 X119.536 Y108.336 E2.7993
G1 X120.301 Y109.289 E2.8389
G1 X120.322 Y109.320 E2.8402
G1 X120.606 Y109.781 E2.8577
G1 X120.623 Y109.814 E2.8589
G1 X121.137 Y110.950 E2.8994
G1 X121.150 Y110.984 E2.9005
G1 X121.305 Y111.476 E2.9173
G1 X121.314 Y111.511 E2.9184
G1 X122.028 Y115.321 E3.0441
G1 X121.895 Y115.647 E3.0556
G1 X118.230 Y118.230 E3.2010
G1 X115.647 Y121.895 E3.3464
G1 X115.321 Y122.028 E3.3578
G1 X111.511 Y121.314 E3.4835
G1 X111.476 Y121.305 E3.4847
G1 X110.984 Y121.150 E3.5014
G1 X110.950 Y121.137 E3.5026
G1 X109.814 Y120.623 E3.5430
G1 X109.781 Y120.606 E3.5442
G1 X109.320 Y120.322 E3.5618
G1 X109.289 Y120.301 E3.5630
G1 X108.336 Y119.536 E3.6026
G1 X108.324 Y119.525 E3.6031
G1 X108.148 Y119.368 E3.6108
G1 X108.137 Y119.357 E3.6113
G1 X107.934 Y119.154 E3.6206
G1 X107.934 Y119.441 E3.6299
G1 X107.933 Y119.457 E3.6304
G1 X107.921 Y119.692 E3.6381
G1 X107.919 Y119.709 E3.6386
G1 X107.786 Y120.923 E3.6782
G1 X107.780 Y120.960 E3.6795
G1 X107.654 Y121.487 E3.6970
G1 X107.643 Y121.523 E3.6982
G1 X107.204 Y122.689 E3.7386
G1 X107.189 Y122.722 E3.7398
G1 X106.950 Y123.180 E3.7566
G1 X106.932 Y123.211 E3.7577
G1 X104.742 Y126.410 E3.8834
G1 X104.418 Y126.547 E3.8949
G1 X100.000 Y125.781 E4.0403
G1 X95.582 Y126.547 E4.1857
G1 X95.258 Y126.410 E4.1971
G1 X93.068 Y123.211 E4.3228
G1 X93.050 Y123.180 E4.3240
G1 X92.811 Y122.722 E4.3407
G1 X92.796 Y122.689 E4.3419
G1 X92.357 Y121.523 E4.3823
G1 X92.346 Y121.487 E4.3835
G1 X92.220 Y120.960 E4.4010
G1 X92.214 Y120.923 E4.4023
G1 X92.081 Y119.709 E4.4419
G1 X92.079 Y119.692 E4.4424
G1 X92.067 Y119.457 E4.4501
G1 X92.066 Y119.441 E4.4506
G1 X92.066 Y119.154 E4.4599
G1 X91.863 Y119.357 E4.4692
G1 X91.852 Y119.368 E4.4697
G1 X91.676 Y119.525 E4.4774
G1 X91.664 Y119.536 E4.4779
G1 X90.711 Y120.301 E4.5175
G1 X90.680 Y120.322 E4.5188
G1 X90.219 Y120.606 E4.5363
G1 X90.186 Y120.623 E4.5375
G1 X89.050 Y121.137 E4.5779
G1 X89.016 Y121.150 E4.5791
G1 X88.524 Y121.305 E4.5959
G1 X88.489 Y121.314 E4.5970
G1 X84.679 Y122.028 E4.7227
G1 X84.353 Y121.895 E4.7342
G1 X81.770 Y118.230 E4.8795
G1 X78.105 Y115.647 E5.0249
G1 X77.972 Y115.321 E5.0364
G1 X78.686 Y111.511 E5.1621
G1 X78.695 Y111.476 E5.1632
G1 X78.850 Y110.984 E5.1800
G1 X78.863 Y110.950 E5.1812
G1 X79.377 Y109.814 E5.2216
G1 X79.394 Y109.781 E5.2228
G1 X79.677 Y109.320 E5.2403
G1 X79.699 Y109.289 E5.2416
G1 X80.464 Y108.336 E5.2812
G1 X80.475 Y108.324 E5.2817
G1 X80.632 Y108.148 E5.2894
G1 X80.643 Y108.137 E5.2899
G1 X80.846 Y107.934 E5.2992
G1 X80.559 Y107.934 E5.3085
G1 X80.543 Y107.933 E5.3090
G1 X80.308 Y107.921 E5.3167
G1 X80.291 Y107.919 E5.3172
G1 X79.077 Y107.786 E5.3568
G1 X79.040 Y107.780 E5.3581
G1 X78.513 Y107.654 E5.3756
G1 X78.477 Y107.643 E5.3768
G1 X77.311 Y107.204 E5.4172
G1 X77.278 Y107.189 E5.4184
G1 X76.820 Y106.950 E5.4351
G1 X76.789 Y106.932 E5.4363
G1 X73.590 Y104.742 E5.5620
G1 X73.453 Y104.418 E5.5734
G1 X74.219 Y100.000 E5.7188
G1 X73.453 Y95.582 E5.8642
G1 X73.590 Y95.258 E5.8757
G1 X76.789 Y93.068 E6.0014
G1 X76.820 Y93.050 E6.0025
G1 X77.278 Y92.811 E6.0193
G1 X77.311 Y92.796 E6.0205
G1 X78.476 Y92.357 E6.0608
G1 X78.512 Y92.346 E6.0621
G1 X79.037 Y92.221 E6.0795
G1 X79.074 Y92.214 E6.0808
G1 X80.229 Y92.087 E6.1184
G1 X80.245 Y92.085 E6.1190
G1 X80.480 Y92.072 E6.1266
G1 X80.496 Y92.072 E6.1271
G1 X80.859 Y92.072 E6.1389
G1 X80.603 Y91.815 E6.1507
G1 X80.591 Y91.803 E6.1512
G1 X80.435 Y91.628 E6.1588
G1 X80.424 Y91.615 E6.1594
G1 X79.697 Y90.708 E6.1971
G1 X79.676 Y90.677 E6.1983
G1 X79.394 Y90.218 E6.2158
G1 X79.376 Y90.185 E6.2170
G1 X78.863 Y89.050 E6.2574
G1 X78.850 Y89.016 E6.2585
G1 X78.695 Y88.524 E6.2753
G1 X78.686 Y88.489 E6.2764
G1 X77.972 Y84.679 E6.4022
G1 X78.105 Y84.353 E6.4136
G1 X81.839 Y81.722 E6.5617
G1 X84.238 Y78.187 E6.7002
G1 X84.372 Y78.128 E6.7050
G1 X84.556 Y78.048 F750
G1 X84.610 Y78.461 F6000
G92 E0
G1 X87.512 Y78.900 E0.0952 F750
G1 X87.515 Y78.900 E0.0953
G1 X87.623 Y78.920 E0.0988
G1 X87.626 Y78.920 E0.0989
G1 X88.461 Y79.093 E0.1266
G1 X88.471 Y79.096 E0.1269
G1 X88.903 Y79.236 E0.1417
G1 X88.913 Y79.240 E0.1420
G1 X90.009 Y79.736 E0.1810
G1 X90.020 Y79.742 E0.1814
G1 X90.460 Y80.012 E0.1982
G1 X90.470 Y80.019 E0.1986
G1 X91.409 Y80.773 E0.2376
G1 X91.413 Y80.776 E0.2378
G1 X91.580 Y80.926 E0.2451
G1 X91.584 Y80.930 E0.2452
G1 X92.471 Y81.817 E0.2859
G1 X92.472 Y80.502 E0.3286
G1 X92.472 Y80.496 E0.3288
G1 X92.485 Y80.273 E0.3360
G1 X92.485 Y80.267 E0.3362
G1 X92.610 Y79.130 E0.3733
G1 X92.613 Y79.118 E0.3737
G1 X92.732 Y78.618 E0.3904
G1 X92.736 Y78.606 E0.3908
G1 X93.167 Y77.463 E0.4304
G1 X93.171 Y77.452 E0.4308
G1 X93.399 Y77.016 E0.4467
G1 X93.405 Y77.005 E0.4471
G1 X95.521 Y73.913 E0.5686
G1 X95.630 Y73.868 E0.5724
G1 X100.086 Y74.640 E0.7191
G1 X104.241 Y73.845 E0.8563
G1 X104.348 Y73.887 E0.8600
G1 X106.090 Y76.250 E0.9552
G1 X106.091 Y76.252 E0.9553
G1 X106.154 Y76.342 E0.9589
G1 X106.156 Y76.345 E0.9590
G1 X106.624 Y77.057 E0.9866
G1 X106.630 Y77.066 E0.9870
G1 X106.836 Y77.471 E1.0017
G1 X106.840 Y77.481 E1.0020
G1 X107.264 Y78.607 E1.0411
G1 X107.268 Y78.619 E1.0415
G1 X107.388 Y79.120 E1.0582
G1 X107.390 Y79.133 E1.0586
G1 X107.521 Y80.330 E1.0976
G1 X107.522 Y80.335 E1.0978
G1 X107.534 Y80.559 E1.1051
G1 X107.534 Y80.565 E1.1053
G1 X107.533 Y81.813 E1.1458
G1 X108.416 Y80.930 E1.1862
G1 X108.420 Y80.926 E1.1864
G1 X108.587 Y80.776 E1.1937
G1 X108.591 Y80.773 E1.1939
G1 X109.530 Y80.019 E1.2329
G1 X109.540 Y80.012 E1.2333
G1 X109.980 Y79.742 E1.2500
G1 X109.991 Y79.736 E1.2505
G1 X111.104 Y79.232 E1.2901
G1 X111.115 Y79.228 E1.2905
G1 X111.585 Y79.080 E1.3064
G1 X111.596 Y79.077 E1.3068
G1 X115.165 Y78.408 E1.4246
G1 X115.271 Y78.449 E1.4282
G1 X118.154 Y82.206 E1.5818
G1 X121.569 Y84.612 E1.7173
G1 X121.613 Y84.721 E1.7211
G1 X120.923 Y88.404 E1.8426
G1 X120.920 Y88.415 E1.8430
G1 X120.772 Y88.885 E1.8589
G1 X120.768 Y88.896 E1.8593
G1 X120.264 Y90.009 E1.8990
G1 X120.258 Y90.020 E1.8994
G1 X119.988 Y90.460 E1.9161
G1 X119.981 Y90.470 E1.9165
G1 X119.227 Y91.409 E1.9555
G1 X119.224 Y91.413 E1.9557
G1 X119.074 Y91.580 E1.9630
G1 X119.070 Y91.584 E1.9632
G1 X118.187 Y92.467 E2.0037
G1 X119.435 Y92.466 E2.0441
G1 X119.441 Y92.466 E2.0443
G1 X119.665 Y92.478 E2.0516
G1 X119.670 Y92.479 E2.0518
G1 X120.867 Y92.610 E2.0908
G1 X120.880 Y92.612 E2.0912
G1 X121.381 Y92.732 E2.1080
G1 X121.393 Y92.736 E2.1084
G1 X122.537 Y93.167 E2.1480
G1 X122.548 Y93.171 E2.1484
G1 X122.984 Y93.399 E2.1643
G1 X122.994 Y93.405 E2.1647
G1 X126.087 Y95.521 E2.2862
G1 X126.132 Y95.630 E2.2900
G1 X125.375 Y100.000 E2.4339
G1 X126.132 Y104.370 E2.5777
G1 X126.087 Y104.479 E2.5815
G1 X122.994 Y106.595 E2.7030
G1 X122.984 Y106.601 E2.7034
G1 X122.548 Y106.829 E2.7194
G1 X122.537 Y106.833 E2.7198
G1 X121.393 Y107.264 E2.7594
G1 X121.381 Y107.268 E2.7598
G1 X120.880 Y107.388 E2.7765
G1 X120.867 Y107.390 E2.7769
G1 X119.670 Y107.521 E2.8160
G1 X119.665 Y107.522 E2.8162
G1 X119.441 Y107.534 E2.8234
G1 X119.435 Y107.534 E2.8236
G1 X118.187 Y107.533 E2.8641
G1 X119.070 Y108.416 E2.9046
