; G-Code generated by Simplify3D(R) Version 3.1.0
; Sep 4, 2016 at 5:31:55 PM
; Settings Summary
;   processName,Process1
;   applyToModels,inflator
;   profileName,Wanhao Duplicator 6
;   profileVersion,2016-08-10 08:00:00
;   baseProfile,
;   printMaterial,ABS
;   printQuality,Medium
;   printExtruders,
;   extruderName,Primary Extruder
;   extruderToolheadNumber,0
;   extruderDiameter,0.4
;   extruderAutoWidth,0
;   extruderWidth,0.4
;   extrusionMultiplier,1
;   extruderUseRetract,1
;   extruderRetractionDistance,1.5
;   extruderExtraRestartDistance,0
;   extruderRetractionZLift,0
;   extruderRetractionSpeed,2400
;   extruderUseCoasting,1
;   extruderCoastingDistance,0.2
;   extruderUseWipe,0
;   extruderWipeDistance,2
;   primaryExtruder,0
;   layerHeight,0.15
;   topSolidLayers,4
;   bottomSolidLayers,3
;   perimeterOutlines,2
;   printPerimetersInsideOut,1
;   startPointOption,2
;   startPointOriginX,0
;   startPointOriginY,0
;   startPointOriginZ,300
;   sequentialIslands,0
;   spiralVaseMode,0
;   firstLayerHeightPercentage,130
;   firstLayerWidthPercentage,100
;   firstLayerUnderspeed,0.3
;   useRaft,0
;   raftExtruder,0
;   raftLayers,3
;   raftOffset,3
;   raftSeparationDistance,0.14
;   raftInfill,85
;   disableRaftBaseLayers,0
;   useSkirt,1
;   skirtExtruder,0
;   skirtLayers,1
;   skirtOutlines,2
;   skirtOffset,4
;   usePrimePillar,0
;   primePillarExtruder,999
;   primePillarWidth,12
;   primePillarLocation,7
;   primePillarSpeedMultiplier,1
;   useOozeShield,0
;   oozeShieldExtruder,999
;   oozeShieldOffset,2
;   oozeShieldOutlines,1
;   oozeShieldSidewallShape,1
;   oozeShieldSidewallAngle,30
;   oozeShieldSpeedMultiplier,1
;   infillExtruder,0
;   internalInfillPattern,Rectilinear
;   externalInfillPattern,Rectilinear
;   infillPercentage,20
;   outlineOverlapPercentage,35
;   infillExtrusionWidthPercentage,125
;   minInfillLength,3
;   infillLayerInterval,1
;   infillAngles,45,-45
;   overlapInfillAngles,0
;   generateSupport,0
;   supportExtruder,0
;   supportInfillPercentage,30
;   supportExtraInflation,0
;   denseSupportLayers,0
;   denseSupportInfillPercentage,70
;   supportLayerInterval,1
;   supportHorizontalPartOffset,0.3
;   supportUpperSeparationLayers,1
;   supportLowerSeparationLayers,1
;   supportType,0
;   supportGridSpacing,4
;   maxOverhangAngle,45
;   supportAngles,0
;   temperatureName,Primary Extruder,Heated Build Platform
;   temperatureNumber,0,1
;   temperatureSetpointCount,1,1
;   temperatureSetpointLayers,1,1
;   temperatureSetpointTemperatures,230,100
;   temperatureStabilizeAtStartup,1,1
;   temperatureHeatedBed,0,1
;   temperatureRelayBetweenLayers,0,0
;   temperatureRelayBetweenLoops,0,0
;   fanLayers,1
;   fanSpeeds,0
;   blipFanToFullPower,1
;   adjustSpeedForCooling,1
;   minSpeedLayerTime,15
;   minCoolingSpeedSlowdown,20
;   increaseFanForCooling,1
;   minFanLayerTime,10
;   maxCoolingFanSpeed,30
;   increaseFanForBridging,1
;   bridgingFanSpeed,45
;   use5D,1
;   relativeEdistances,0
;   allowEaxisZeroing,1
;   independentExtruderAxes,0
;   includeM10123,0
;   stickySupport,1
;   applyToolheadOffsets,0
;   gcodeXoffset,0
;   gcodeYoffset,0
;   gcodeZoffset,0
;   overrideMachineDefinition,1
;   machineTypeOverride,0
;   strokeXoverride,200
;   strokeYoverride,200
;   strokeZoverride,175
;   originOffsetXoverride,0
;   originOffsetYoverride,0
;   originOffsetZoverride,0
;   homeXdirOverride,-1
;   homeYdirOverride,-1
;   homeZdirOverride,-1
;   flipXoverride,1
;   flipYoverride,-1
;   flipZoverride,1
;   toolheadOffsets,0,0|0,0|0,0|0,0|0,0|0,0
;   overrideFirmwareConfiguration,1
;   firmwareTypeOverride,RepRap (Marlin/Repetier/Sprinter)
;   GPXconfigOverride,r2
;   baudRateOverride,250000
;   overridePrinterModels,1
;   printerModelsOverride
;   startingGcode,G28 ; home all axes,G92 E0 ; zero the extruded length,G1 Z10 ; lower,G1 E20 F200 ; purge nozzle quickly,G1 E10 F60 ; purge nozzle slowly,G92 E0 ; zero the extruded length again,G1 E-1.5 F400 ; retract,G1 X170 Z0 F9000 ; pull away filament,G1 X180 F9000 ; wipe,G1 Y20 F9000 ; wipe,G1 E0 ; feed filament back
;   layerChangeGcode,
;   retractionGcode,
;   toolChangeGcode,
;   endingGcode,G28 X0 ; home the X-axis,M104 S0 ; turn off heaters,M140 S0 ; turn off bed,M84 ; disable motors
;   exportFileFormat,gcode
;   celebration,0
;   celebrationSong,Random Song
;   postProcessing,
;   defaultSpeed,2500
;   outlineUnderspeed,0.65
;   solidInfillUnderspeed,0.7
;   supportUnderspeed,0.7
;   rapidXYspeed,6000
;   rapidZspeed,1000
;   minBridgingArea,5
;   bridgingExtraInflation,0
;   bridgingExtrusionMultiplier,1
;   bridgingSpeedMultiplier,0.5
;   filamentDiameter,1.75
;   filamentPricePerKg,46
;   filamentDensity,1.25
;   useMinPrintHeight,0
;   minPrintHeight,0
;   useMaxPrintHeight,0
;   maxPrintHeight,0
;   useDiaphragm,0
;   diaphragmLayerInterval,20
;   robustSlicing,1
;   mergeAllIntoSolid,0
;   onlyRetractWhenCrossingOutline,1
;   retractBetweenLayers,0
;   useRetractionMinTravel,1
;   retractionMinTravel,0.02
;   retractWhileWiping,0
;   onlyWipeOutlines,1
;   avoidCrossingOutline,0
;   maxMovementDetourFactor,3
;   toolChangeRetractionDistance,12
;   toolChangeExtraRestartDistance,-0.5
;   toolChangeRetractionSpeed,600
;   allowThinWallGapFill,1
;   thinWallAllowedOverlapPercentage,10
;   horizontalSizeCompensation,0
G90
M82
M106 S0
M140 S100
M190 S100
M104 S230 T0
M109 S230 T0
G28 ; home all axes
G92 E0 ; zero the extruded length
G1 Z10 ; lower
G1 E20 F200 ; purge nozzle quickly
G1 E10 F60 ; purge nozzle slowly
G92 E0 ; zero the extruded length again
G1 E-1.5 F400 ; retract
G1 X170 Z0 F9000 ; pull away filament
G1 X180 F9000 ; wipe
G1 Y20 F9000 ; wipe
G1 E0 ; feed filament back
G92 E0
G1 E-1.5000 F2400
G1 Z0.195 F1000
; layer 1, Z = 0.195
T0
; tool H0.195 W0.400
; skirt
G1 X93.948 Y94.247 F6000
G1 E0.0000 F720
G92 E0
G1 X94.247 Y93.948 E0.0137 F500
G1 X94.269 Y93.928 E0.0147
G1 X95.163 Y93.194 E0.0522
G1 X95.187 Y93.177 E0.0531
G1 X95.538 Y92.942 E0.0668
G1 X95.563 Y92.927 E0.0678
G1 X96.584 Y92.381 E0.1053
G1 X96.610 Y92.369 E0.1063
G1 X97.001 Y92.207 E0.1200
G1 X97.029 Y92.197 E0.1209
G1 X98.136 Y91.861 E0.1585
G1 X98.164 Y91.854 E0.1594
G1 X98.578 Y91.772 E0.1731
G1 X98.607 Y91.767 E0.1741
G1 X99.759 Y91.654 E0.2116
G1 X99.789 Y91.652 E0.2125
G1 X100.211 Y91.652 E0.2262
G1 X100.241 Y91.654 E0.2272
G1 X101.392 Y91.767 E0.2647
G1 X101.422 Y91.772 E0.2657
G1 X101.836 Y91.854 E0.2794
G1 X101.864 Y91.861 E0.2803
G1 X102.971 Y92.197 E0.3178
G1 X102.999 Y92.207 E0.3188
G1 X103.390 Y92.369 E0.3325
G1 X103.416 Y92.381 E0.3335
G1 X104.437 Y92.927 E0.3710
G1 X104.462 Y92.942 E0.3719
G1 X104.813 Y93.177 E0.3856
G1 X104.837 Y93.194 E0.3866
G1 X105.731 Y93.928 E0.4241
G1 X105.753 Y93.948 E0.4251
G1 X106.052 Y94.247 E0.4388
G1 X106.072 Y94.269 E0.4397
G1 X106.806 Y95.163 E0.4773
G1 X106.823 Y95.187 E0.4782
G1 X107.058 Y95.538 E0.4919
G1 X107.073 Y95.563 E0.4929
G1 X107.619 Y96.584 E0.5304
G1 X107.631 Y96.610 E0.5313
G1 X107.793 Y97.001 E0.5451
G1 X107.803 Y97.029 E0.5460
G1 X108.139 Y98.136 E0.5835
G1 X108.146 Y98.164 E0.5845
G1 X108.228 Y98.579 E0.5982
G1 X108.233 Y98.608 E0.5991
G1 X108.346 Y99.760 E0.6367
G1 X108.347 Y99.789 E0.6376
G1 X108.347 Y100.211 E0.6513
G1 X108.346 Y100.240 E0.6523
G1 X108.233 Y101.392 E0.6898
G1 X108.228 Y101.421 E0.6907
G1 X108.146 Y101.836 E0.7044
G1 X108.139 Y101.864 E0.7054
G1 X107.803 Y102.971 E0.7429
G1 X107.793 Y102.999 E0.7439
G1 X107.631 Y103.390 E0.7576
G1 X107.619 Y103.416 E0.7585
G1 X107.073 Y104.437 E0.7961
G1 X107.058 Y104.462 E0.7970
G1 X106.823 Y104.813 E0.8107
G1 X106.806 Y104.837 E0.8117
G1 X106.072 Y105.731 E0.8492
G1 X106.052 Y105.753 E0.8502
G1 X105.753 Y106.052 E0.8639
G1 X105.731 Y106.072 E0.8648
G1 X104.837 Y106.806 E0.9023
G1 X104.813 Y106.823 E0.9033
G1 X104.462 Y107.058 E0.9170
G1 X104.437 Y107.073 E0.9179
G1 X103.416 Y107.619 E0.9555
G1 X103.390 Y107.631 E0.9564
G1 X102.999 Y107.793 E0.9701
G1 X102.971 Y107.803 E0.9711
G1 X101.864 Y108.139 E1.0086
G1 X101.836 Y108.146 E1.0096
G1 X101.421 Y108.228 E1.0233
G1 X101.392 Y108.233 E1.0242
G1 X100.240 Y108.346 E1.0617
G1 X100.211 Y108.347 E1.0627
G1 X99.789 Y108.347 E1.0764
G1 X99.760 Y108.346 E1.0773
G1 X98.608 Y108.233 E1.1149
G1 X98.579 Y108.228 E1.1158
G1 X98.165 Y108.146 E1.1295
G1 X98.136 Y108.139 E1.1305
G1 X97.029 Y107.803 E1.1680
G1 X97.001 Y107.793 E1.1690
G1 X96.610 Y107.631 E1.1827
G1 X96.584 Y107.619 E1.1836
G1 X95.563 Y107.073 E1.2211
G1 X95.538 Y107.058 E1.2221
G1 X95.187 Y106.823 E1.2358
G1 X95.163 Y106.806 E1.2367
G1 X94.269 Y106.072 E1.2743
G1 X94.247 Y106.052 E1.2752
G1 X93.948 Y105.753 E1.2889
G1 X93.928 Y105.731 E1.2899
G1 X93.194 Y104.837 E1.3274
G1 X93.177 Y104.813 E1.3284
G1 X92.942 Y104.462 E1.3421
G1 X92.927 Y104.437 E1.3430
G1 X92.381 Y103.416 E1.3805
G1 X92.369 Y103.390 E1.3815
G1 X92.207 Y102.999 E1.3952
G1 X92.197 Y102.971 E1.3962
G1 X91.861 Y101.864 E1.4337
G1 X91.854 Y101.836 E1.4346
G1 X91.772 Y101.422 E1.4483
G1 X91.767 Y101.392 E1.4493
G1 X91.654 Y100.241 E1.4868
G1 X91.652 Y100.211 E1.4878
G1 X91.652 Y99.789 E1.5015
G1 X91.654 Y99.759 E1.5024
G1 X91.767 Y98.608 E1.5400
G1 X91.772 Y98.578 E1.5409
G1 X91.854 Y98.164 E1.5546
G1 X91.861 Y98.136 E1.5556
G1 X92.197 Y97.029 E1.5931
G1 X92.207 Y97.001 E1.5940
G1 X92.369 Y96.610 E1.6077
G1 X92.381 Y96.584 E1.6087
G1 X92.927 Y95.563 E1.6462
G1 X92.942 Y95.538 E1.6472
G1 X93.177 Y95.187 E1.6609
G1 X93.194 Y95.163 E1.6618
G1 X93.820 Y94.400 E1.6938
G1 X93.928 Y94.269 F500
G1 X93.948 Y94.247 F500
G1 X94.238 Y94.523 F6000
G92 E0
G1 X94.523 Y94.238 E0.0131 F500
G1 X94.530 Y94.231 E0.0134
G1 X95.409 Y93.510 E0.0503
G1 X95.417 Y93.504 E0.0506
G1 X95.752 Y93.280 E0.0637
G1 X95.761 Y93.275 E0.0640
G1 X96.764 Y92.739 E0.1009
G1 X96.773 Y92.734 E0.1012
G1 X97.145 Y92.580 E0.1142
G1 X97.154 Y92.577 E0.1146
G1 X98.242 Y92.247 E0.1514
G1 X98.252 Y92.245 E0.1518
G1 X98.647 Y92.166 E0.1648
G1 X98.656 Y92.165 E0.1651
G1 X99.789 Y92.053 E0.2020
G1 X99.798 Y92.052 E0.2023
G1 X100.202 Y92.052 E0.2154
G1 X100.211 Y92.053 E0.2157
G1 X101.343 Y92.165 E0.2526
G1 X101.353 Y92.166 E0.2529
G1 X101.748 Y92.245 E0.2660
G1 X101.758 Y92.247 E0.2663
G1 X102.846 Y92.577 E0.3032
G1 X102.855 Y92.580 E0.3035
G1 X103.227 Y92.734 E0.3166
G1 X103.236 Y92.739 E0.3169
G1 X104.239 Y93.275 E0.3538
G1 X104.248 Y93.280 E0.3541
G1 X104.583 Y93.504 E0.3672
G1 X104.591 Y93.510 E0.3675
G1 X105.470 Y94.231 E0.4044
G1 X105.477 Y94.238 E0.4047
G1 X105.762 Y94.523 E0.4178
G1 X105.769 Y94.530 E0.4181
G1 X106.490 Y95.409 E0.4550
G1 X106.496 Y95.417 E0.4553
G1 X106.720 Y95.752 E0.4684
G1 X106.725 Y95.761 E0.4687
G1 X107.261 Y96.764 E0.5056
G1 X107.266 Y96.773 E0.5059
G1 X107.420 Y97.145 E0.5189
G1 X107.423 Y97.154 E0.5193
G1 X107.753 Y98.243 E0.5561
G1 X107.756 Y98.252 E0.5565
G1 X107.834 Y98.647 E0.5695
G1 X107.836 Y98.657 E0.5698
G1 X107.947 Y99.789 E0.6067
G1 X107.947 Y99.799 E0.6071
G1 X107.947 Y100.201 E0.6201
G1 X107.947 Y100.211 E0.6204
G1 X107.836 Y101.343 E0.6573
G1 X107.834 Y101.353 E0.6576
G1 X107.756 Y101.748 E0.6707
G1 X107.753 Y101.757 E0.6710
G1 X107.423 Y102.846 E0.7079
G1 X107.420 Y102.855 E0.7082
G1 X107.265 Y103.227 E0.7213
G1 X107.261 Y103.236 E0.7216
G1 X106.725 Y104.239 E0.7585
G1 X106.720 Y104.248 E0.7588
G1 X106.496 Y104.583 E0.7719
G1 X106.490 Y104.591 E0.7722
G1 X105.769 Y105.470 E0.8091
G1 X105.762 Y105.477 E0.8094
G1 X105.477 Y105.762 E0.8225
G1 X105.470 Y105.769 E0.8228
G1 X104.591 Y106.490 E0.8597
G1 X104.583 Y106.496 E0.8600
G1 X104.248 Y106.720 E0.8730
G1 X104.239 Y106.725 E0.8734
G1 X103.236 Y107.261 E0.9103
G1 X103.227 Y107.265 E0.9106
G1 X102.855 Y107.420 E0.9236
G1 X102.846 Y107.423 E0.9240
G1 X101.757 Y107.753 E0.9608
G1 X101.748 Y107.756 E0.9612
G1 X101.353 Y107.834 E0.9742
G1 X101.343 Y107.836 E0.9745
G1 X100.211 Y107.947 E1.0114
G1 X100.201 Y107.947 E1.0117
G1 X99.799 Y107.947 E1.0248
G1 X99.789 Y107.947 E1.0251
G1 X98.657 Y107.836 E1.0620
G1 X98.647 Y107.834 E1.0623
G1 X98.252 Y107.756 E1.0754
G1 X98.243 Y107.753 E1.0757
G1 X97.154 Y107.423 E1.1126
G1 X97.145 Y107.420 E1.1129
G1 X96.773 Y107.266 E1.1260
G1 X96.764 Y107.261 E1.1263
G1 X95.761 Y106.725 E1.1632
G1 X95.752 Y106.720 E1.1635
G1 X95.417 Y106.496 E1.1766
G1 X95.409 Y106.490 E1.1769
G1 X94.530 Y105.769 E1.2138
G1 X94.523 Y105.762 E1.2141
G1 X94.238 Y105.477 E1.2272
G1 X94.231 Y105.470 E1.2275
G1 X93.510 Y104.591 E1.2644
G1 X93.504 Y104.583 E1.2647
G1 X93.280 Y104.248 E1.2777
G1 X93.275 Y104.239 E1.2781
G1 X92.739 Y103.236 E1.3149
G1 X92.735 Y103.227 E1.3153
G1 X92.580 Y102.855 E1.3283
G1 X92.577 Y102.846 E1.3286
G1 X92.247 Y101.758 E1.3655
G1 X92.245 Y101.748 E1.3659
G1 X92.166 Y101.353 E1.3789
G1 X92.165 Y101.343 E1.3792
G1 X92.053 Y100.211 E1.4161
G1 X92.052 Y100.202 E1.4164
G1 X92.052 Y99.798 E1.4295
G1 X92.053 Y99.789 E1.4298
G1 X92.165 Y98.657 E1.4667
G1 X92.166 Y98.647 E1.4670
G1 X92.245 Y98.252 E1.4801
G1 X92.247 Y98.242 E1.4804
G1 X92.577 Y97.154 E1.5173
G1 X92.580 Y97.145 E1.5176
G1 X92.734 Y96.773 E1.5307
G1 X92.739 Y96.764 E1.5310
G1 X93.275 Y95.761 E1.5679
G1 X93.280 Y95.752 E1.5682
G1 X93.504 Y95.417 E1.5813
G1 X93.510 Y95.409 E1.5816
G1 X94.111 Y94.677 E1.6123
G1 X94.231 Y94.530 F500
G1 X94.238 Y94.523 F500
G92 E0
G1 E-1.5000 F2400
; inner perimeter
; outer perimeter
G1 X97.492 Y97.492 F6000
G1 E0.0000 F2400
G92 E0
G1 X98.030 Y97.051 E0.0225 F325
G1 X98.643 Y96.723 E0.0451
G1 X99.308 Y96.522 E0.0676
G1 X100.000 Y96.453 E0.0902
G1 X100.692 Y96.522 E0.1127
G1 X101.357 Y96.723 E0.1353
G1 X101.970 Y97.051 E0.1578
G1 X102.508 Y97.492 E0.1804
G1 X102.949 Y98.030 E0.2029
G1 X103.277 Y98.643 E0.2255
G1 X103.478 Y99.308 E0.2480
G1 X103.546 Y100.000 E0.2706
G1 X103.478 Y100.692 E0.2931
G1 X103.277 Y101.357 E0.3156
G1 X102.949 Y101.970 E0.3382
G1 X102.508 Y102.508 E0.3607
G1 X101.970 Y102.949 E0.3833
G1 X101.357 Y103.277 E0.4058
G1 X100.692 Y103.478 E0.4284
G1 X100.000 Y103.546 E0.4509
G1 X99.308 Y103.478 E0.4735
G1 X98.643 Y103.277 E0.4960
G1 X98.030 Y102.949 E0.5186
G1 X97.492 Y102.508 E0.5411
G1 X97.051 Y101.970 E0.5636
G1 X96.723 Y101.357 E0.5862
G1 X96.522 Y100.692 E0.6087
G1 X96.453 Y100.000 E0.6313
G1 X96.522 Y99.308 E0.6538
G1 X96.723 Y98.643 E0.6764
G1 X97.051 Y98.030 E0.6989
G1 X97.365 Y97.647 E0.7150
G1 X97.492 Y97.492 F325
; inner perimeter
; outer perimeter
G1 X98.004 Y98.055 F6000
G92 E0
G1 X97.652 Y98.471 E0.0177 F325
G1 X97.390 Y98.946 E0.0353
G1 X97.228 Y99.463 E0.0528
G1 X97.174 Y100.000 E0.0703
G1 X97.228 Y100.537 E0.0878
G1 X97.390 Y101.054 E0.1054
G1 X97.652 Y101.529 E0.1230
G1 X98.004 Y101.945 E0.1407
G1 X98.432 Y102.286 E0.1584
G1 X98.920 Y102.539 E0.1763
G1 X99.450 Y102.695 E0.1942
G1 X100.000 Y102.748 E0.2121
G1 X100.550 Y102.695 E0.2300
G1 X101.080 Y102.539 E0.2479
G1 X101.568 Y102.286 E0.2657
G1 X101.996 Y101.945 E0.2835
G1 X102.348 Y101.529 E0.3012
G1 X102.610 Y101.054 E0.3188
G1 X102.772 Y100.537 E0.3363
G1 X102.826 Y100.000 E0.3538
G1 X102.772 Y99.463 E0.3713
G1 X102.610 Y98.946 E0.3889
G1 X102.348 Y98.471 E0.4065
G1 X101.996 Y98.055 E0.4242
G1 X101.568 Y97.714 E0.4419
G1 X101.080 Y97.461 E0.4597
G1 X100.550 Y97.305 E0.4776
G1 X100.000 Y97.252 E0.4956
G1 X99.450 Y97.305 E0.5135
G1 X98.920 Y97.461 E0.5314
G1 X98.432 Y97.714 E0.5492
G1 X98.160 Y97.930 E0.5605
G1 X98.004 Y98.055 F325
G92 E0
G1 E-1.5000 F2400
; gap fill
G1 X101.768 Y97.242 F6000
G1 E0.0000 F2400
G92 E0
G1 X102.758 Y98.232 E0.0454 F350
G1 X103.031 Y98.744 E0.0642
G1 X103.174 Y99.214 E0.0802
G1 X102.878 Y98.918 E0.0937
G1 X102.854 Y98.842 E0.0963
G1 X102.567 Y98.321 E0.1156
G1 X102.181 Y97.864 E0.1350
G1 X101.712 Y97.491 E0.1544
G1 X101.178 Y97.214 E0.1739
G1 X101.172 Y97.213 E0.1741
G1 X100.786 Y96.826 E0.1919
G1 X100.640 Y96.782 E0.1968
G1 X100.125 Y96.731 E0.2136
G1 X100.421 Y97.027 E0.2272
G1 X100.000 Y96.987 E0.2409
G1 X99.831 Y97.003 E0.2464
G1 X99.588 Y96.759 E0.2576
G1 X99.360 Y96.782 E0.2650
G1 X99.118 Y96.855 E0.2732
G1 X99.328 Y97.065 E0.2828
G1 X98.891 Y97.194 E0.2976
G1 X98.693 Y96.996 E0.3067
G1 X98.324 Y97.193 E0.3202
G1 X98.508 Y97.377 E0.3287
G1 X98.288 Y97.491 E0.3367
G1 X98.159 Y97.594 E0.3421
G1 X97.990 Y97.425 E0.3498
G1 X97.680 Y97.680 E0.3628
