; G-Code generated by Simplify3D(R) Version 3.1.0
; Sep 4, 2016 at 5:26:11 PM
; Settings Summary
;   processName,Process1
;   applyToModels,cube
;   profileName,Wanhao Duplicator 6
;   profileVersion,2016-08-10 08:00:00
;   baseProfile,
;   printMaterial,ABS
;   printQuality,Medium
;   printExtruders,
;   extruderName,Primary Extruder
;   extruderToolheadNumber,0
;   extruderDiameter,0.4
;   extruderAutoWidth,0
;   extruderWidth,0.4
;   extrusionMultiplier,1
;   extruderUseRetract,1
;   extruderRetractionDistance,1.5
;   extruderExtraRestartDistance,0
;   extruderRetractionZLift,0
;   extruderRetractionSpeed,2400
;   extruderUseCoasting,1
;   extruderCoastingDistance,0.2
;   extruderUseWipe,0
;   extruderWipeDistance,2
;   primaryExtruder,0
;   layerHeight,0.15
;   topSolidLayers,4
;   bottomSolidLayers,3
;   perimeterOutlines,2
;   printPerimetersInsideOut,1
;   startPointOption,2
;   startPointOriginX,0
;   startPointOriginY,0
;   startPointOriginZ,300
;   sequentialIslands,0
;   spiralVaseMode,0
;   firstLayerHeightPercentage,130
;   firstLayerWidthPercentage,100
;   firstLayerUnderspeed,0.3
;   useRaft,0
;   raftExtruder,0
;   raftLayers,3
;   raftOffset,3
;   raftSeparationDistance,0.14
;   raftInfill,85
;   disableRaftBaseLayers,0
;   useSkirt,1
;   skirtExtruder,0
;   skirtLayers,1
;   skirtOutlines,2
;   skirtOffset,4
;   usePrimePillar,0
;   primePillarExtruder,999
;   primePillarWidth,12
;   primePillarLocation,7
;   primePillarSpeedMultiplier,1
;   useOozeShield,0
;   oozeShieldExtruder,999
;   oozeShieldOffset,2
;   oozeShieldOutlines,1
;   oozeShieldSidewallShape,1
;   oozeShieldSidewallAngle,30
;   oozeShieldSpeedMultiplier,1
;   infillExtruder,0
;   internalInfillPattern,Rectilinear
;   externalInfillPattern,Rectilinear
;   infillPercentage,20
;   outlineOverlapPercentage,35
;   infillExtrusionWidthPercentage,125
;   minInfillLength,3
;   infillLayerInterval,1
;   infillAngles,45,-45
;   overlapInfillAngles,0
;   generateSupport,0
;   supportExtruder,0
;   supportInfillPercentage,30
;   supportExtraInflation,0
;   denseSupportLayers,0
;   denseSupportInfillPercentage,70
;   supportLayerInterval,1
;   supportHorizontalPartOffset,0.3
;   supportUpperSeparationLayers,1
;   supportLowerSeparationLayers,1
;   supportType,0
;   supportGridSpacing,4
;   maxOverhangAngle,45
;   supportAngles,0
;   temperatureName,Primary Extruder,Heated Build Platform
;   temperatureNumber,0,1
;   temperatureSetpointCount,1,1
;   temperatureSetpointLayers,1,1
;   temperatureSetpointTemperatures,230,100
;   temperatureStabilizeAtStartup,1,1
;   temperatureHeatedBed,0,1
;   temperatureRelayBetweenLayers,0,0
;   temperatureRelayBetweenLoops,0,0
;   fanLayers,1
;   fanSpeeds,0
;   blipFanToFullPower,1
;   adjustSpeedForCooling,1
;   minSpeedLayerTime,15
;   minCoolingSpeedSlowdown,20
;   increaseFanForCooling,1
;   minFanLayerTime,10
;   maxCoolingFanSpeed,30
;   increaseFanForBridging,1
;   bridgingFanSpeed,45
;   use5D,1
;   relativeEdistances,0
;   allowEaxisZeroing,1
;   independentExtruderAxes,0
;   includeM10123,0
;   stickySupport,1
;   applyToolheadOffsets,0
;   gcodeXoffset,0
;   gcodeYoffset,0
;   gcodeZoffset,0
;   overrideMachineDefinition,1
;   machineTypeOverride,0
;   strokeXoverride,200
;   strokeYoverride,200
;   strokeZoverride,175
;   originOffsetXoverride,0
;   originOffsetYoverride,0
;   originOffsetZoverride,0
;   homeXdirOverride,-1
;   homeYdirOverride,-1
;   homeZdirOverride,-1
;   flipXoverride,1
;   flipYoverride,-1
;   flipZoverride,1
;   toolheadOffsets,0,0|0,0|0,0|0,0|0,0|0,0
;   overrideFirmwareConfiguration,1
;   firmwareTypeOverride,RepRap (Marlin/Repetier/Sprinter)
;   GPXconfigOverride,r2
;   baudRateOverride,250000
;   overridePrinterModels,1
;   printerModelsOverride
;   startingGcode,G28 ; home all axes,G92 E0 ; zero the extruded length,G1 Z10 ; lower,G1 E20 F200 ; purge nozzle quickly,G1 E10 F60 ; purge nozzle slowly,G92 E0 ; zero the extruded length again,G1 E-1.5 F400 ; retract,G1 X170 Z0 F9000 ; pull away filament,G1 X180 F9000 ; wipe,G1 Y20 F9000 ; wipe,G1 E0 ; feed filament back
;   layerChangeGcode,
;   retractionGcode,
;   toolChangeGcode,
;   endingGcode,G28 X0 ; home the X-axis,M104 S0 ; turn off heaters,M140 S0 ; turn off bed,M84 ; disable motors
;   exportFileFormat,gcode
;   celebration,0
;   celebrationSong,Random Song
;   postProcessing,
;   defaultSpeed,2500
;   outlineUnderspeed,0.65
;   solidInfillUnderspeed,0.7
;   supportUnderspeed,0.7
;   rapidXYspeed,6000
;   rapidZspeed,1000
;   minBridgingArea,5
;   bridgingExtraInflation,0
;   bridgingExtrusionMultiplier,1
;   bridgingSpeedMultiplier,0.5
;   filamentDiameter,1.75
;   filamentPricePerKg,46
;   filamentDensity,1.25
;   useMinPrintHeight,0
;   minPrintHeight,0
;   useMaxPrintHeight,0
;   maxPrintHeight,0
;   useDiaphragm,0
;   diaphragmLayerInterval,20
;   robustSlicing,1
;   mergeAllIntoSolid,0
;   onlyRetractWhenCrossingOutline,1
;   retractBetweenLayers,0
;   useRetractionMinTravel,1
;   retractionMinTravel,0.02
;   retractWhileWiping,0
;   onlyWipeOutlines,1
;   avoidCrossingOutline,0
;   maxMovementDetourFactor,3
;   toolChangeRetractionDistance,12
;   toolChangeExtraRestartDistance,-0.5
;   toolChangeRetractionSpeed,600
;   allowThinWallGapFill,1
;   thinWallAllowedOverlapPercentage,10
;   horizontalSizeCompensation,0
G90
M82
M106 S0
M140 S100
M190 S100
M104 S230 T0
M109 S230 T0
G28 ; home all axes
G92 E0 ; zero the extruded length
G1 Z10 ; lower
G1 E20 F200 ; purge nozzle quickly
G1 E10 F60 ; purge nozzle slowly
G92 E0 ; zero the extruded length again
G1 E-1.5 F400 ; retract
G1 X170 Z0 F9000 ; pull away filament
G1 X180 F9000 ; wipe
G1 Y20 F9000 ; wipe
G1 E0 ; feed filament back
G92 E0
G1 E-1.5000 F2400
G1 Z0.195 F1000
; layer 1, Z = 0.195
T0
; tool H0.195 W0.400
; skirt
G1 X88.200 Y85.688 F6000
G1 E0.0000 F720
G92 E0
G1 X88.421 Y85.597 E0.0077 F750
G1 X111.579 Y85.597 E0.7587
G1 X111.800 Y85.688 E0.7665
G1 X114.312 Y88.200 E0.8817
G1 X114.403 Y88.421 E0.8894
G1 X114.403 Y111.579 E1.6404
G1 X114.312 Y111.800 E1.6482
G1 X111.800 Y114.312 E1.7634
G1 X111.579 Y114.403 E1.7711
G1 X88.421 Y114.403 E2.5221
G1 X88.200 Y114.312 E2.5299
G1 X85.688 Y111.800 E2.6451
G1 X85.597 Y111.579 E2.6528
G1 X85.597 Y88.421 E3.4038
G1 X85.688 Y88.200 E3.4116
G1 X88.059 Y85.830 E3.5203
G1 X88.200 Y85.688 F750
G1 X88.427 Y86.027 F6000
G92 E0
G1 X88.500 Y85.997 E0.0026 F750
G1 X111.500 Y85.997 E0.7484
G1 X111.573 Y86.027 E0.7510
G1 X113.973 Y88.427 E0.8610
G1 X114.003 Y88.500 E0.8636
G1 X114.003 Y111.500 E1.6095
G1 X113.973 Y111.573 E1.6121
G1 X111.573 Y113.973 E1.7221
G1 X111.500 Y114.003 E1.7247
G1 X88.500 Y114.003 E2.4705
G1 X88.427 Y113.973 E2.4731
G1 X86.027 Y111.573 E2.5831
G1 X85.997 Y111.500 E2.5857
G1 X85.997 Y88.500 E3.3316
G1 X86.027 Y88.427 E3.3341
G1 X88.285 Y86.169 E3.4377
G1 X88.427 Y86.027 F750
G92 E0
G1 E-1.5000 F2400
; inner perimeter
G1 X90.797 Y90.797 F6000
G1 E0.0000 F2400
G92 E0
G1 X109.203 Y90.797 E0.5969 F619
G1 X109.203 Y109.203 E1.1938
G1 X90.797 Y109.203 E1.7907
G1 X90.797 Y90.997 E2.3811
G1 X90.797 Y90.797 F619
; outer perimeter
G1 X90.397 Y90.397 F6000
G92 E0
G1 X109.603 Y90.397 E0.6228 F488
G1 X109.603 Y109.603 E1.2457
G1 X90.397 Y109.603 E1.8685
G1 X90.397 Y90.597 E2.4849
G1 X90.397 Y90.397 F488
; solid layer
G1 X108.593 Y91.057 F6000
G92 E0
G1 X108.943 Y91.407 E0.0161 F525
G1 X108.943 Y91.973 E0.0344
G1 X108.027 Y91.057 E0.0764
G1 X107.462 Y91.057 E0.0947
G1 X108.943 Y92.538 E0.1627
G1 X108.943 Y93.104 E0.1810
G1 X106.896 Y91.057 E0.2749
G1 X106.330 Y91.057 E0.2933
G1 X108.943 Y93.670 E0.4131
G1 X108.943 Y94.235 E0.4314
G1 X105.765 Y91.057 E0.5772
G1 X105.199 Y91.057 E0.5955
G1 X108.943 Y94.801 E0.7673
G1 X108.943 Y95.367 E0.7856
G1 X104.633 Y91.057 E0.9833
G1 X104.068 Y91.057 E1.0016
G1 X108.943 Y95.932 E1.2252
G1 X108.943 Y96.498 E1.2436
G1 X103.502 Y91.057 E1.4931
G1 X102.936 Y91.057 E1.5114
G1 X108.943 Y97.064 E1.7869
G1 X108.943 Y97.629 E1.8053
G1 X102.371 Y91.057 E2.1067
G1 X101.805 Y91.057 E2.1250
G1 X108.943 Y98.195 E2.4524
G1 X108.943 Y98.761 E2.4708
G1 X101.239 Y91.057 E2.8241
G1 X100.673 Y91.057 E2.8424
G1 X108.943 Y99.327 E3.2217
G1 X108.943 Y99.892 E3.2400
G1 X100.108 Y91.057 E3.6452
G1 X99.542 Y91.057 E3.6636
G1 X108.943 Y100.458 E4.0947
G1 X108.943 Y101.024 E4.1130
G1 X98.976 Y91.057 E4.5701
G1 X98.411 Y91.057 E4.5885
G1 X108.943 Y101.589 E5.0715
G1 X108.943 Y102.155 E5.0898
G1 X97.845 Y91.057 E5.5988
G1 X97.279 Y91.057 E5.6172
G1 X108.943 Y102.721 E6.1521
G1 X108.943 Y103.286 E6.1704
G1 X96.714 Y91.057 E6.7313
G1 X96.148 Y91.057 E6.7496
G1 X108.943 Y103.852 E7.3364
G1 X108.943 Y104.418 E7.3548
G1 X95.582 Y91.057 E7.9675
G1 X95.017 Y91.057 E7.9859
G1 X108.943 Y104.983 E8.6245
G1 X108.943 Y105.549 E8.6429
G1 X94.451 Y91.057 E9.3075
G1 X93.885 Y91.057 E9.3259
G1 X108.943 Y106.115 E10.0164
G1 X108.943 Y106.680 E10.0348
G1 X93.320 Y91.057 E10.7513
G1 X92.754 Y91.057 E10.7696
G1 X108.943 Y107.246 E11.5121
G1 X108.943 Y107.812 E11.5304
G1 X92.188 Y91.057 E12.2988
G1 X91.623 Y91.057 E12.3172
G1 X108.943 Y108.377 E13.1115
G1 X108.943 Y108.943 E13.1299
G1 X91.057 Y91.057 E13.9502
G1 X91.057 Y91.622 E13.9685
G1 X108.378 Y108.943 E14.7628
G1 X107.812 Y108.943 E14.7812
G1 X91.057 Y92.188 E15.5496
G1 X91.057 Y92.754 E15.5679
G1 X107.246 Y108.943 E16.3104
G1 X106.680 Y108.943 E16.3287
G1 X91.057 Y93.320 E17.0453
G1 X91.057 Y93.885 E17.0636
G1 X106.115 Y108.943 E17.7542
G1 X105.549 Y108.943 E17.7725
G1 X91.057 Y94.451 E18.4371
G1 X91.057 Y95.017 E18.4555
G1 X104.983 Y108.943 E19.0942
G1 X104.418 Y108.943 E19.1125
G1 X91.057 Y95.582 E19.7253
G1 X91.057 Y96.148 E19.7436
G1 X103.852 Y108.943 E20.3304
G1 X103.286 Y108.943 E20.3488
G1 X91.057 Y96.714 E20.9096
G1 X91.057 Y97.279 E20.9280
G1 X102.721 Y108.943 E21.4629
G1 X102.155 Y108.943 E21.4812
G1 X91.057 Y97.845 E21.9902
G1 X91.057 Y98.411 E22.0085
G1 X101.589 Y108.943 E22.4916
G1 X101.024 Y108.943 E22.5099
G1 X91.057 Y98.976 E22.9670
G1 X91.057 Y99.542 E22.9853
G1 X100.458 Y108.943 E23.4165
G1 X99.892 Y108.943 E23.4348
G1 X91.057 Y100.108 E23.8400
G1 X91.057 Y100.673 E23.8584
G1 X99.327 Y108.943 E24.2376
G1 X98.761 Y108.943 E24.2560
G1 X91.057 Y101.239 E24.6093
G1 X91.057 Y101.805 E24.6276
G1 X98.195 Y108.943 E24.9550
G1 X97.629 Y108.943 E24.9734
G1 X91.057 Y102.371 E25.2748
G1 X91.057 Y102.936 E25.2931
G1 X97.064 Y108.943 E25.5686
G1 X96.498 Y108.943 E25.5870
G1 X91.057 Y103.502 E25.8365
G1 X91.057 Y104.068 E25.8548
G1 X95.932 Y108.943 E26.0784
G1 X95.367 Y108.943 E26.0968
G1 X91.057 Y104.633 E26.2944
G1 X91.057 Y105.199 E26.3128
G1 X94.801 Y108.943 E26.4845
G1 X94.235 Y108.943 E26.5029
G1 X91.057 Y105.765 E26.6486
G1 X91.057 Y106.330 E26.6670
G1 X93.670 Y108.943 E26.7868
G1 X93.104 Y108.943 E26.8051
G1 X91.057 Y106.896 E26.8990
G1 X91.057 Y107.462 E26.9174
G1 X92.538 Y108.943 E26.9853
G1 X91.973 Y108.943 E27.0037
G1 X91.057 Y108.027 E27.0457
G1 X91.057 Y108.593 E27.0640
G1 X91.265 Y108.802 E27.0736
G1 X91.407 Y108.943 F525
; layer 2, Z = 0.345
; tool H0.150 W0.400
; inner perimeter
G1 X90.797 Y109.203 F6000
G1 Z0.345 F1000
G92 E0
G1 X90.797 Y90.797 E0.4591 F2062
G1 X109.203 Y90.797 E0.9183
G1 X109.203 Y109.203 E1.3774
G1 X90.997 Y109.203 E1.8316
G1 X90.797 Y109.203 F2062
; outer perimeter
G1 X90.397 Y109.603 F6000
G92 E0
G1 X90.397 Y90.397 E0.4791 F1625
G1 X109.603 Y90.397 E0.9582
G1 X109.603 Y109.603 E1.4373
G1 X90.597 Y109.603 E1.9114
G1 X90.397 Y109.603 F1625
; solid layer
G1 X91.057 Y91.407 F6000
G92 E0
G1 X91.407 Y91.057 E0.0124 F1750
G1 X91.973 Y91.057 E0.0265
G1 X91.057 Y91.973 E0.0588
G1 X91.057 Y92.538 E0.0729
G1 X92.538 Y91.057 E0.1251
G1 X93.104 Y91.057 E0.1393
G1 X91.057 Y93.104 E0.2115
G1 X91.057 Y93.670 E0.2256
G1 X93.670 Y91.057 E0.3178
G1 X94.235 Y91.057 E0.3319
G1 X91.057 Y94.235 E0.4440
G1 X91.057 Y94.801 E0.4581
G1 X94.801 Y91.057 E0.5902
G1 X95.367 Y91.057 E0.6043
G1 X91.057 Y95.367 E0.7564
G1 X91.057 Y95.932 E0.7705
G1 X95.932 Y91.057 E0.9425
G1 X96.498 Y91.057 E0.9566
G1 X91.057 Y96.498 E1.1486
G1 X91.057 Y97.064 E1.1627
G1 X97.064 Y91.057 E1.3746
G1 X97.630 Y91.057 E1.3887
G1 X91.057 Y97.630 E1.6206
G1 X91.057 Y98.195 E1.6347
G1 X98.195 Y91.057 E1.8865
G1 X98.761 Y91.057 E1.9006
G1 X91.057 Y98.761 E2.1724
G1 X91.057 Y99.327 E2.1865
G1 X99.327 Y91.057 E2.4782
G1 X99.892 Y91.057 E2.4923
G1 X91.057 Y99.892 E2.8040
G1 X91.057 Y100.458 E2.8181
G1 X100.458 Y91.057 E3.1498
G1 X101.024 Y91.057 E3.1639
G1 X91.057 Y101.024 E3.5155
G1 X91.057 Y101.589 E3.5296
G1 X101.589 Y91.057 E3.9012
G1 X102.155 Y91.057 E3.9153
G1 X91.057 Y102.155 E4.3068
G1 X91.057 Y102.721 E4.3209
G1 X102.721 Y91.057 E4.7324
G1 X103.286 Y91.057 E4.7465
G1 X91.057 Y103.286 E5.1779
G1 X91.057 Y103.852 E5.1921
G1 X103.852 Y91.057 E5.6434
G1 X104.418 Y91.057 E5.6576
G1 X91.057 Y104.418 E6.1289
G1 X91.057 Y104.983 E6.1430
G1 X104.983 Y91.057 E6.6343
G1 X105.549 Y91.057 E6.6484
G1 X91.057 Y105.549 E7.1597
G1 X91.057 Y106.115 E7.1738
G1 X106.115 Y91.057 E7.7050
G1 X106.680 Y91.057 E7.7191
G1 X91.057 Y106.680 E8.2703
G1 X91.057 Y107.246 E8.2844
G1 X107.246 Y91.057 E8.8555
G1 X107.812 Y91.057 E8.8696
G1 X91.057 Y107.812 E9.4607
G1 X91.057 Y108.378 E9.4748
G1 X108.378 Y91.057 E10.0858
G1 X108.943 Y91.057 E10.1000
G1 X91.057 Y108.943 E10.7309
G1 X91.623 Y108.943 E10.7451
G1 X108.943 Y91.623 E11.3561
G1 X108.943 Y92.188 E11.3702
G1 X92.188 Y108.943 E11.9613
G1 X92.754 Y108.943 E11.9754
G1 X108.943 Y92.754 E12.5465
G1 X108.943 Y93.320 E12.5606
G1 X93.320 Y108.943 E13.1118
G1 X93.885 Y108.943 E13.1259
G1 X108.943 Y93.885 E13.6571
G1 X108.943 Y94.451 E13.6712
G1 X94.451 Y108.943 E14.1825
G1 X95.017 Y108.943 E14.1966
G1 X108.943 Y95.017 E14.6879
G1 X108.943 Y95.582 E14.7020
G1 X95.582 Y108.943 E15.1733
G1 X96.148 Y108.943 E15.1874
G1 X108.943 Y96.148 E15.6388
G1 X108.943 Y96.714 E15.6529
G1 X96.714 Y108.943 E16.0844
G1 X97.279 Y108.943 E16.0985
G1 X108.943 Y97.279 E16.5099
G1 X108.943 Y97.845 E16.5240
G1 X97.845 Y108.943 E16.9156
G1 X98.411 Y108.943 E16.9297
G1 X108.943 Y98.411 E17.3012
G1 X108.943 Y98.976 E17.3153
G1 X98.976 Y108.943 E17.6670
G1 X99.542 Y108.943 E17.6811
G1 X108.943 Y99.542 E18.0127
G1 X108.943 Y100.108 E18.0268
G1 X100.108 Y108.943 E18.3385
G1 X100.674 Y108.943 E18.3526
G1 X108.943 Y100.674 E18.6444
G1 X108.943 Y101.239 E18.6585
G1 X101.239 Y108.943 E18.9302
G1 X101.805 Y108.943 E18.9444
G1 X108.943 Y101.805 E19.1962
G1 X108.943 Y102.371 E19.2103
G1 X102.371 Y108.943 E19.4422
G1 X102.936 Y108.943 E19.4563
G1 X108.943 Y102.936 E19.6682
G1 X108.943 Y103.502 E19.6823
G1 X103.502 Y108.943 E19.8742
G1 X104.068 Y108.943 E19.8884
G1 X108.943 Y104.068 E20.0604
G1 X108.943 Y104.633 E20.0745
G1 X104.633 Y108.943 E20.2265
G1 X105.199 Y108.943 E20.2406
G1 X108.943 Y105.199 E20.3727
G1 X108.943 Y105.765 E20.3868
G1 X105.765 Y108.943 E20.4990
G1 X106.330 Y108.943 E20.5131
G1 X108.943 Y106.330 E20.6052
G1 X108.943 Y106.896 E20.6193
G1 X106.896 Y108.943 E20.6916
G1 X107.462 Y108.943 E20.7057
G1 X108.943 Y107.462 E20.7579
G1 X108.943 Y108.027 E20.7721
G1 X108.027 Y108.943 E20.8044
G1 X108.593 Y108.943 E20.8185
G1 X108.802 Y108.735 E20.8258
G1 X108.943 Y108.593 F1750
; layer 3, Z = 0.495
; inner perimeter
G1 X109.203 Y109.203 F6000
G1 Z0.495 F1000
G92 E0
G1 X90.797 Y109.203 E0.4591 F2062
G1 X90.797 Y90.797 E0.9183
G1 X109.203 Y90.797 E1.3774
G1 X109.203 Y109.003 E1.8316
G1 X109.203 Y109.203 F2062
; outer perimeter
G1 X109.603 Y109.603 F6000
G92 E0
G1 X90.397 Y109.603 E0.4791 F1625
G1 X90.397 Y90.397 E0.9582
G1 X109.603 Y90.397 E1.4373
G1 X109.603 Y109.403 E1.9114
G1 X109.603 Y109.603 F1625
; solid layer
G1 X91.407 Y108.943 F6000
G92 E0
G1 X91.057 Y108.593 E0.0124 F1750
G1 X91.057 Y108.027 E0.0265
G1 X91.973 Y108.943 E0.0588
G1 X92.538 Y108.943 E0.0729
G1 X91.057 Y107.462 E0.1251
G1 X91.057 Y106.896 E0.1393
G1 X93.104 Y108.943 E0.2115
G1 X93.670 Y108.943 E0.2256
G1 X91.057 Y106.330 E0.3178
G1 X91.057 Y105.765 E0.3319
G1 X94.235 Y108.943 E0.4440
G1 X94.801 Y108.943 E0.4581
G1 X91.057 Y105.199 E0.5902
G1 X91.057 Y104.633 E0.6043
G1 X95.367 Y108.943 E0.7564
G1 X95.932 Y108.943 E0.7705
G1 X91.057 Y104.068 E0.9425
G1 X91.057 Y103.502 E0.9566
G1 X96.498 Y108.943 E1.1485
