; G-Code generated by Simplify3D(R) Version 3.1.0
; Sep 4, 2016 at 5:33:49 PM
; Settings Summary
;   processName,Process1
;   applyToModels,plate
;   profileName,Wanhao Duplicator 6
;   profileVersion,2016-08-10 08:00:00
;   baseProfile,
;   printMaterial,ABS
;   printQuality,Medium
;   printExtruders,
;   extruderName,Primary Extruder
;   extruderToolheadNumber,0
;   extruderDiameter,0.4
;   extruderAutoWidth,0
;   extruderWidth,0.4
;   extrusionMultiplier,1
;   extruderUseRetract,1
;   extruderRetractionDistance,1.5
;   extruderExtraRestartDistance,0
;   extruderRetractionZLift,0
;   extruderRetractionSpeed,2400
;   extruderUseCoasting,1
;   extruderCoastingDistance,0.2
;   extruderUseWipe,0
;   extruderWipeDistance,2
;   primaryExtruder,0
;   layerHeight,0.15
;   topSolidLayers,4
;   bottomSolidLayers,3
;   perimeterOutlines,2
;   printPerimetersInsideOut,1
;   startPointOption,2
;   startPointOriginX,0
;   startPointOriginY,0
;   startPointOriginZ,300
;   sequentialIslands,0
;   spiralVaseMode,0
;   firstLayerHeightPercentage,130
;   firstLayerWidthPercentage,100
;   firstLayerUnderspeed,0.3
;   useRaft,0
;   raftExtruder,0
;   raftLayers,3
;   raftOffset,3
;   raftSeparationDistance,0.14
;   raftInfill,85
;   disableRaftBaseLayers,0
;   useSkirt,1
;   skirtExtruder,0
;   skirtLayers,1
;   skirtOutlines,2
;   skirtOffset,4
;   usePrimePillar,0
;   primePillarExtruder,999
;   primePillarWidth,12
;   primePillarLocation,7
;   primePillarSpeedMultiplier,1
;   useOozeShield,0
;   oozeShieldExtruder,999
;   oozeShieldOffset,2
;   oozeShieldOutlines,1
;   oozeShieldSidewallShape,1
;   oozeShieldSidewallAngle,30
;   oozeShieldSpeedMultiplier,1
;   infillExtruder,0
;   internalInfillPattern,Rectilinear
;   externalInfillPattern,Rectilinear
;   infillPercentage,20
;   outlineOverlapPercentage,35
;   infillExtrusionWidthPercentage,125
;   minInfillLength,3
;   infillLayerInterval,1
;   infillAngles,45,-45
;   overlapInfillAngles,0
;   generateSupport,0
;   supportExtruder,0
;   supportInfillPercentage,30
;   supportExtraInflation,0
;   denseSupportLayers,0
;   denseSupportInfillPercentage,70
;   supportLayerInterval,1
;   supportHorizontalPartOffset,0.3
;   supportUpperSeparationLayers,1
;   supportLowerSeparationLayers,1
;   supportType,0
;   supportGridSpacing,4
;   maxOverhangAngle,45
;   supportAngles,0
;   temperatureName,Primary Extruder,Heated Build Platform
;   temperatureNumber,0,1
;   temperatureSetpointCount,1,1
;   temperatureSetpointLayers,1,1
;   temperatureSetpointTemperatures,230,100
;   temperatureStabilizeAtStartup,1,1
;   temperatureHeatedBed,0,1
;   temperatureRelayBetweenLayers,0,0
;   temperatureRelayBetweenLoops,0,0
;   fanLayers,1
;   fanSpeeds,0
;   blipFanToFullPower,1
;   adjustSpeedForCooling,1
;   minSpeedLayerTime,15
;   minCoolingSpeedSlowdown,20
;   increaseFanForCooling,1
;   minFanLayerTime,10
;   maxCoolingFanSpeed,30
;   increaseFanForBridging,1
;   bridgingFanSpeed,45
;   use5D,1
;   relativeEdistances,0
;   allowEaxisZeroing,1
;   independentExtruderAxes,0
;   includeM10123,0
;   stickySupport,1
;   applyToolheadOffsets,0
;   gcodeXoffset,0
;   gcodeYoffset,0
;   gcodeZoffset,0
;   overrideMachineDefinition,1
;   machineTypeOverride,0
;   strokeXoverride,200
;   strokeYoverride,200
;   strokeZoverride,175
;   originOffsetXoverride,0
;   originOffsetYoverride,0
;   originOffsetZoverride,0
;   homeXdirOverride,-1
;   homeYdirOverride,-1
;   homeZdirOverride,-1
;   flipXoverride,1
;   flipYoverride,-1
;   flipZoverride,1
;   toolheadOffsets,0,0|0,0|0,0|0,0|0,0|0,0
;   overrideFirmwareConfiguration,1
;   firmwareTypeOverride,RepRap (Marlin/Repetier/Sprinter)
;   GPXconfigOverride,r2
;   baudRateOverride,250000
;   overridePrinterModels,1
;   printerModelsOverride
;   startingGcode,G28 ; home all axes,G92 E0 ; zero the extruded length,G1 Z10 ; lower,G1 E20 F200 ; purge nozzle quickly,G1 E10 F60 ; purge nozzle slowly,G92 E0 ; zero the extruded length again,G1 E-1.5 F400 ; retract,G1 X170 Z0 F9000 ; pull away filament,G1 X180 F9000 ; wipe,G1 Y20 F9000 ; wipe,G1 E0 ; feed filament back
;   layerChangeGcode,
;   retractionGcode,
;   toolChangeGcode,
;   endingGcode,G28 X0 ; home the X-axis,M104 S0 ; turn off heaters,M140 S0 ; turn off bed,M84 ; disable motors
;   exportFileFormat,gcode
;   celebration,0
;   celebrationSong,Random Song
;   postProcessing,
;   defaultSpeed,2500
;   outlineUnderspeed,0.65
;   solidInfillUnderspeed,0.7
;   supportUnderspeed,0.7
;   rapidXYspeed,6000
;   rapidZspeed,1000
;   minBridgingArea,5
;   bridgingExtraInflation,0
;   bridgingExtrusionMultiplier,1
;   bridgingSpeedMultiplier,0.5
;   filamentDiameter,1.75
;   filamentPricePerKg,46
;   filamentDensity,1.25
;   useMinPrintHeight,0
;   minPrintHeight,0
;   useMaxPrintHeight,0
;   maxPrintHeight,0
;   useDiaphragm,0
;   diaphragmLayerInterval,20
;   robustSlicing,1
;   mergeAllIntoSolid,0
;   onlyRetractWhenCrossingOutline,1
;   retractBetweenLayers,0
;   useRetractionMinTravel,1
;   retractionMinTravel,0.02
;   retractWhileWiping,0
;   onlyWipeOutlines,1
;   avoidCrossingOutline,0
;   maxMovementDetourFactor,3
;   toolChangeRetractionDistance,12
;   toolChangeExtraRestartDistance,-0.5
;   toolChangeRetractionSpeed,600
;   allowThinWallGapFill,1
;   thinWallAllowedOverlapPercentage,10
;   horizontalSizeCompensation,0
G90
M82
M106 S0
M140 S100
M190 S100
M104 S230 T0
M109 S230 T0
G28 ; home all axes
G92 E0 ; zero the extruded length
G1 Z10 ; lower
G1 E20 F200 ; purge nozzle quickly
G1 E10 F60 ; purge nozzle slowly
G92 E0 ; zero the extruded length again
G1 E-1.5 F400 ; retract
G1 X170 Z0 F9000 ; pull away filament
G1 X180 F9000 ; wipe
G1 Y20 F9000 ; wipe
G1 E0 ; feed filament back
G92 E0
G1 E-1.5000 F2400
G1 Z0.195 F1000
; layer 1, Z = 0.195
T0
; tool H0.195 W0.400
; skirt
G1 X57.391 Y34.503 F6000
G1 E0.0000 F720
G92 E0
G1 X59.903 Y31.991 E0.1152 F750
G1 X60.124 Y31.900 E0.1229
G1 X139.876 Y31.900 E2.7092
G1 X140.097 Y31.991 E2.7169
G1 X142.609 Y34.503 E2.8321
G1 X142.700 Y34.724 E2.8399
G1 X142.700 Y165.276 E7.0735
G1 X142.609 Y165.497 E7.0813
G1 X140.097 Y168.009 E7.1965
G1 X139.876 Y168.100 E7.2042
G1 X60.124 Y168.100 E9.7905
G1 X59.903 Y168.009 E9.7982
G1 X57.391 Y165.497 E9.9134
G1 X57.300 Y165.276 E9.9211
G1 X57.300 Y34.724 E14.1548
G1 X57.315 Y34.688 E14.1560
G1 X57.391 Y34.503 F750
G1 X57.730 Y34.730 F6000
G92 E0
G1 X60.130 Y32.330 E0.1100 F750
G1 X60.203 Y32.300 E0.1126
G1 X139.797 Y32.300 E2.6937
G1 X139.870 Y32.330 E2.6963
G1 X142.270 Y34.730 E2.8063
G1 X142.300 Y34.803 E2.8089
G1 X142.300 Y165.197 E7.0374
G1 X142.270 Y165.270 E7.0400
G1 X139.870 Y167.669 E7.1500
G1 X139.797 Y167.700 E7.1526
G1 X60.203 Y167.700 E9.7337
G1 X60.130 Y167.670 E9.7363
G1 X57.730 Y165.270 E9.8463
G1 X57.700 Y165.197 E9.8489
G1 X57.700 Y34.924 E14.0735
G1 X57.700 Y34.803 F750
G1 X57.730 Y34.730 F750
G92 E0
G1 E-1.5000 F2400
; inner perimeter
G1 X62.500 Y37.100 F6000
G1 E0.0000 F2400
G92 E0
G1 X137.500 Y37.100 E2.4321 F619
G1 X137.500 Y162.900 E6.5117
G1 X62.500 Y162.900 E8.9438
G1 X62.500 Y37.300 E13.0168
G1 X62.500 Y37.100 F619
; outer perimeter
G1 X62.100 Y36.700 F6000
G92 E0
G1 X137.900 Y36.700 E2.4581 F488
G1 X137.900 Y163.300 E6.5636
G1 X62.100 Y163.300 E9.0216
G1 X62.100 Y36.900 E13.1206
G1 X62.100 Y36.700 F488
; inner perimeter
G1 X96.137 Y94.219 F6000
G92 E0
G1 X95.084 Y95.084 E0.0442 F619
G1 X94.219 Y96.137 E0.0884
G1 X93.576 Y97.339 E0.1326
G1 X93.181 Y98.644 E0.1768
G1 X93.047 Y100.000 E0.2210
G1 X93.181 Y101.356 E0.2652
G1 X93.576 Y102.661 E0.3094
G1 X94.220 Y103.864 E0.3537
G1 X94.668 Y104.410 E0.3766
G1 X105.332 Y104.410 E0.7224
G1 X105.781 Y103.863 E0.7453
G1 X106.424 Y102.661 E0.7895
G1 X106.819 Y101.356 E0.8337
G1 X106.953 Y100.000 E0.8779
G1 X106.819 Y98.644 E0.9221
G1 X106.424 Y97.339 E0.9663
G1 X105.781 Y96.137 E1.0105
G1 X104.916 Y95.084 E1.0547
G1 X103.863 Y94.219 E1.0989
G1 X102.661 Y93.576 E1.1431
G1 X101.356 Y93.181 E1.1873
G1 X100.000 Y93.047 E1.2315
G1 X98.644 Y93.181 E1.2757
G1 X97.339 Y93.576 E1.3199
G1 X96.314 Y94.125 E1.3577
G1 X96.137 Y94.219 F619
; outer perimeter
G1 X96.360 Y94.553 F6000
G92 E0
G1 X95.368 Y95.368 E0.0416 F488
G1 X94.553 Y96.360 E0.0833
G1 X93.948 Y97.493 E0.1249
G1 X93.575 Y98.722 E0.1666
G1 X93.449 Y100.000 E0.2082
G1 X93.575 Y101.278 E0.2499
G1 X93.948 Y102.507 E0.2915
G1 X94.554 Y103.641 E0.3332
G1 X94.857 Y104.010 E0.3487
G1 X105.143 Y104.010 E0.6823
G1 X105.447 Y103.640 E0.6978
G1 X106.052 Y102.507 E0.7394
G1 X106.425 Y101.278 E0.7811
G1 X106.551 Y100.000 E0.8227
G1 X106.425 Y98.722 E0.8644
G1 X106.052 Y97.493 E0.9060
G1 X105.447 Y96.360 E0.9477
G1 X104.632 Y95.368 E0.9893
G1 X103.640 Y94.553 E1.0310
G1 X102.507 Y93.948 E1.0726
G1 X101.278 Y93.575 E1.1143
G1 X100.000 Y93.449 E1.1559
G1 X98.722 Y93.575 E1.1975
G1 X97.493 Y93.948 E1.2392
G1 X96.537 Y94.459 E1.2743
G1 X96.360 Y94.553 F488
G92 E0
G1 E-1.5000 F2400
; solid layer
G1 X105.193 Y95.010 F6000
G1 E0.0000 F2400
G92 E0
G1 X137.240 Y127.058 E1.4697 F525
G1 X137.240 Y127.623 E1.4881
G1 X106.446 Y96.829 E2.9003
G1 X106.665 Y97.239 E2.9154
G1 X106.828 Y97.777 E2.9336
G1 X137.240 Y128.189 E4.3283
G1 X137.240 Y128.755 E4.3467
G1 X107.075 Y98.589 E5.7301
G1 X107.076 Y98.593 E5.7302
G1 X107.137 Y99.217 E5.7506
G1 X137.240 Y129.320 E7.1311
G1 X137.240 Y129.886 E7.1495
G1 X107.199 Y99.845 E8.5272
G1 X107.214 Y100.000 E8.5322
G1 X107.176 Y100.388 E8.5449
G1 X137.240 Y130.452 E9.9236
G1 X137.240 Y131.017 E9.9420
G1 X107.125 Y100.903 E11.3231
G1 X107.076 Y101.407 E11.3395
G1 X107.073 Y101.416 E11.3398
G1 X137.240 Y131.583 E12.7233
G1 X137.240 Y132.149 E12.7417
G1 X106.941 Y101.850 E14.1312
G1 X106.810 Y102.284 E14.1459
G1 X137.240 Y132.714 E15.5415
G1 X137.240 Y133.280 E15.5598
G1 X106.678 Y102.718 E16.9614
G1 X106.665 Y102.761 E16.9629
G1 X106.487 Y103.093 E16.9751
G1 X137.240 Y133.846 E18.3854
G1 X137.240 Y134.412 E18.4038
G1 X106.290 Y103.462 E19.8232
G1 X106.093 Y103.830 E19.8367
G1 X137.240 Y134.977 E21.2651
G1 X137.240 Y135.543 E21.2835
G1 X105.866 Y104.169 E22.7223
G1 X105.611 Y104.480 E22.7353
G1 X137.240 Y136.109 E24.1859
G1 X137.240 Y136.674 E24.2042
G1 X105.236 Y104.670 E25.6720
G1 X104.670 Y104.670 E25.6903
G1 X137.240 Y137.240 E27.1840
G1 X137.240 Y137.806 E27.2023
G1 X104.104 Y104.670 E28.7220
G1 X103.539 Y104.670 E28.7403
G1 X137.240 Y138.371 E30.2859
G1 X137.240 Y138.937 E30.3042
G1 X102.973 Y104.670 E31.8758
G1 X102.407 Y104.670 E31.8941
G1 X137.240 Y139.503 E33.4916
G1 X137.240 Y140.068 E33.5099
G1 X101.842 Y104.670 E35.1333
G1 X101.276 Y104.670 E35.1517
G1 X137.240 Y140.634 E36.8010
G1 X137.240 Y141.200 E36.8194
G1 X100.710 Y104.670 E38.4947
G1 X100.145 Y104.670 E38.5130
G1 X137.240 Y141.765 E40.2142
G1 X137.240 Y142.331 E40.2326
G1 X99.579 Y104.670 E41.9598
G1 X99.013 Y104.670 E41.9781
G1 X137.240 Y142.897 E43.7312
G1 X137.240 Y143.462 E43.7496
G1 X98.447 Y104.670 E45.5286
G1 X97.882 Y104.670 E45.5470
G1 X137.240 Y144.028 E47.3520
G1 X137.240 Y144.594 E47.3703
G1 X97.316 Y104.670 E49.2013
G1 X96.750 Y104.670 E49.2196
G1 X137.240 Y145.160 E51.0765
G1 X137.240 Y145.725 E51.0948
G1 X96.185 Y104.670 E52.9777
G1 X95.619 Y104.670 E52.9960
G1 X137.240 Y146.291 E54.9048
G1 X137.240 Y146.857 E54.9231
G1 X95.195 Y104.812 E56.8514
G1 X95.053 Y104.670 F525
G1 X63.079 Y162.640 F6000
G92 E0
G1 X62.760 Y162.321 E0.0146 F525
G1 X62.760 Y161.755 E0.0330
G1 X63.645 Y162.640 E0.0736
G1 X64.211 Y162.640 E0.0919
G1 X62.760 Y161.189 E0.1585
G1 X62.760 Y160.624 E0.1768
G1 X64.776 Y162.640 E0.2693
G1 X65.342 Y162.640 E0.2876
G1 X62.760 Y160.058 E0.4060
G1 X62.760 Y159.492 E0.4244
G1 X65.908 Y162.640 E0.5687
G1 X66.473 Y162.640 E0.5871
G1 X62.760 Y158.927 E0.7574
G1 X62.760 Y158.361 E0.7757
G1 X67.039 Y162.640 E0.9720
G1 X67.605 Y162.640 E0.9903
G1 X62.760 Y157.795 E1.2125
G1 X62.760 Y157.229 E1.2309
G1 X68.171 Y162.640 E1.4790
G1 X68.736 Y162.640 E1.4973
G1 X62.760 Y156.664 E1.7714
G1 X62.760 Y156.098 E1.7897
G1 X69.302 Y162.640 E2.0898
G1 X69.868 Y162.640 E2.1081
G1 X62.760 Y155.532 E2.4341
G1 X62.760 Y154.967 E2.4524
G1 X70.433 Y162.640 E2.8043
G1 X70.999 Y162.640 E2.8227
G1 X62.760 Y154.401 E3.2005
G1 X62.760 Y153.835 E3.2189
G1 X71.565 Y162.640 E3.6226
G1 X72.130 Y162.640 E3.6410
G1 X62.760 Y153.270 E4.0707
G1 X62.760 Y152.704 E4.0891
G1 X72.696 Y162.640 E4.5447
G1 X73.262 Y162.640 E4.5631
G1 X62.760 Y152.138 E5.0447
G1 X62.760 Y151.573 E5.0630
G1 X73.827 Y162.640 E5.5706
G1 X74.393 Y162.640 E5.5889
G1 X62.760 Y151.007 E6.1225
G1 X62.760 Y150.441 E6.1408
G1 X74.959 Y162.640 E6.7002
G1 X75.524 Y162.640 E6.7186
G1 X62.760 Y149.876 E7.3040
G1 X62.760 Y149.310 E7.3223
G1 X76.090 Y162.640 E7.9337
G1 X76.656 Y162.640 E7.9520
G1 X62.760 Y148.744 E8.5893
G1 X62.760 Y148.179 E8.6076
G1 X77.222 Y162.640 E9.2708
G1 X77.787 Y162.640 E9.2892
G1 X62.760 Y147.613 E9.9783
G1 X62.760 Y147.047 E9.9967
G1 X78.353 Y162.640 E10.7118
G1 X78.919 Y162.640 E10.7301
G1 X62.760 Y146.481 E11.4712
G1 X62.760 Y145.916 E11.4895
G1 X79.484 Y162.640 E12.2565
G1 X80.050 Y162.640 E12.2749
G1 X62.760 Y145.350 E13.0678
G1 X62.760 Y144.784 E13.0861
G1 X80.616 Y162.640 E13.9050
G1 X81.181 Y162.640 E13.9234
G1 X62.760 Y144.219 E14.7682
G1 X62.760 Y143.653 E14.7865
G1 X81.747 Y162.640 E15.6573
G1 X82.313 Y162.640 E15.6756
G1 X62.760 Y143.087 E16.5723
G1 X62.760 Y142.522 E16.5907
G1 X82.878 Y162.640 E17.5133
G1 X83.444 Y162.640 E17.5317
G1 X62.760 Y141.956 E18.4802
G1 X62.760 Y141.390 E18.4986
G1 X84.010 Y162.640 E19.4731
G1 X84.575 Y162.640 E19.4915
G1 X62.760 Y140.825 E20.4919
G1 X62.760 Y140.259 E20.5103
G1 X85.141 Y162.640 E21.5367
G1 X85.707 Y162.640 E21.5551
G1 X62.760 Y139.693 E22.6074
G1 X62.760 Y139.128 E22.6258
G1 X86.272 Y162.640 E23.7041
G1 X86.838 Y162.640 E23.7224
G1 X62.760 Y138.562 E24.8267
G1 X62.760 Y137.996 E24.8450
G1 X87.404 Y162.640 E25.9752
G1 X87.970 Y162.640 E25.9935
G1 X62.760 Y137.430 E27.1497
G1 X62.760 Y136.865 E27.1680
G1 X88.535 Y162.640 E28.3501
G1 X89.101 Y162.640 E28.3684
G1 X62.760 Y136.299 E29.5765
G1 X62.760 Y135.733 E29.5948
G1 X89.667 Y162.640 E30.8288
G1 X90.232 Y162.640 E30.8471
G1 X62.760 Y135.168 E32.1070
G1 X62.760 Y134.602 E32.1253
G1 X90.798 Y162.640 E33.4112
G1 X91.364 Y162.640 E33.4295
G1 X62.760 Y134.036 E34.7413
G1 X62.760 Y133.471 E34.7597
G1 X91.929 Y162.640 E36.0974
G1 X92.495 Y162.640 E36.1158
G1 X62.760 Y132.905 E37.4794
G1 X62.760 Y132.339 E37.4978
G1 X93.061 Y162.640 E38.8874
G1 X93.626 Y162.640 E38.9057
G1 X62.760 Y131.774 E40.3213
G1 X62.760 Y131.208 E40.3396
G1 X94.192 Y162.640 E41.7811
G1 X94.758 Y162.640 E41.7995
G1 X62.760 Y130.642 E43.2669
G1 X62.760 Y130.077 E43.2853
G1 X95.323 Y162.640 E44.7787
G1 X95.889 Y162.640 E44.7970
G1 X62.760 Y129.511 E46.3164
G1 X62.760 Y128.945 E46.3347
G1 X96.455 Y162.640 E47.8800
G1 X97.020 Y162.640 E47.8983
G1 X62.760 Y128.380 E49.4695
G1 X62.760 Y127.814 E49.4879
G1 X97.586 Y162.640 E51.0850
G1 X98.152 Y162.640 E51.1034
G1 X62.760 Y127.248 E52.7265
G1 X62.760 Y126.682 E52.7448
G1 X98.718 Y162.640 E54.3939
G1 X99.283 Y162.640 E54.4122
G1 X62.760 Y126.117 E56.0872
G1 X62.760 Y125.551 E56.1056
G1 X99.849 Y162.640 E57.8065
G1 X100.415 Y162.640 E57.8248
G1 X62.760 Y124.985 E59.5517
G1 X62.760 Y124.420 E59.5701
G1 X100.980 Y162.640 E61.3229
G1 X101.546 Y162.640 E61.3412
G1 X62.760 Y123.854 E63.1200
G1 X62.760 Y123.288 E63.1383
G1 X102.112 Y162.640 E64.9430
G1 X102.677 Y162.640 E64.9614
G1 X62.760 Y122.723 E66.7920
G1 X62.760 Y122.157 E66.8104
G1 X103.243 Y162.640 E68.6670
G1 X103.809 Y162.640 E68.6853
G1 X62.760 Y121.591 E70.5678
G1 X62.760 Y121.026 E70.5862
G1 X104.374 Y162.640 E72.4947
G1 X104.940 Y162.640 E72.5130
G1 X62.760 Y120.460 E74.4474
G1 X62.760 Y119.894 E74.4658
G1 X105.506 Y162.640 E76.4261
G1 X106.071 Y162.640 E76.4445
G1 X62.760 Y119.329 E78.4308
G1 X62.760 Y118.763 E78.4491
G1 X106.637 Y162.640 E80.4614
G1 X107.203 Y162.640 E80.4797
G1 X62.760 Y118.197 E82.5179
G1 X62.760 Y117.631 E82.5363
G1 X107.768 Y162.640 E84.6004
G1 X108.334 Y162.640 E84.6187
G1 X62.760 Y117.066 E86.7088
G1 X62.760 Y116.500 E86.7272
G1 X108.900 Y162.640 E88.8432
G1 X109.466 Y162.640 E88.8615
G1 X62.760 Y115.934 E91.0035
G1 X62.760 Y115.369 E91.0218
