; G-Code generated by Simplify3D(R) Version 3.1.0
; Sep 4, 2016 at 5:34:01 PM
; Settings Summary
;   processName,Process1
;   applyToModels,plate-with-base
;   profileName,Wanhao Duplicator 6
;   profileVersion,2016-08-10 08:00:00
;   baseProfile,
;   printMaterial,ABS
;   printQuality,Medium
;   printExtruders,
;   extruderName,Primary Extruder
;   extruderToolheadNumber,0
;   extruderDiameter,0.4
;   extruderAutoWidth,0
;   extruderWidth,0.4
;   extrusionMultiplier,1
;   extruderUseRetract,1
;   extruderRetractionDistance,1.5
;   extruderExtraRestartDistance,0
;   extruderRetractionZLift,0
;   extruderRetractionSpeed,2400
;   extruderUseCoasting,1
;   extruderCoastingDistance,0.2
;   extruderUseWipe,0
;   extruderWipeDistance,2
;   primaryExtruder,0
;   layerHeight,0.15
;   topSolidLayers,4
;   bottomSolidLayers,3
;   perimeterOutlines,2
;   printPerimetersInsideOut,1
;   startPointOption,2
;   startPointOriginX,0
;   startPointOriginY,0
;   startPointOriginZ,300
;   sequentialIslands,0
;   spiralVaseMode,0
;   firstLayerHeightPercentage,130
;   firstLayerWidthPercentage,100
;   firstLayerUnderspeed,0.3
;   useRaft,0
;   raftExtruder,0
;   raftLayers,3
;   raftOffset,3
;   raftSeparationDistance,0.14
;   raftInfill,85
;   disableRaftBaseLayers,0
;   useSkirt,1
;   skirtExtruder,0
;   skirtLayers,1
;   skirtOutlines,2
;   skirtOffset,4
;   usePrimePillar,0
;   primePillarExtruder,999
;   primePillarWidth,12
;   primePillarLocation,7
;   primePillarSpeedMultiplier,1
;   useOozeShield,0
;   oozeShieldExtruder,999
;   oozeShieldOffset,2
;   oozeShieldOutlines,1
;   oozeShieldSidewallShape,1
;   oozeShieldSidewallAngle,30
;   oozeShieldSpeedMultiplier,1
;   infillExtruder,0
;   internalInfillPattern,Rectilinear
;   externalInfillPattern,Rectilinear
;   infillPercentage,20
;   outlineOverlapPercentage,35
;   infillExtrusionWidthPercentage,125
;   minInfillLength,3
;   infillLayerInterval,1
;   infillAngles,45,-45
;   overlapInfillAngles,0
;   generateSupport,0
;   supportExtruder,0
;   supportInfillPercentage,30
;   supportExtraInflation,0
;   denseSupportLayers,0
;   denseSupportInfillPercentage,70
;   supportLayerInterval,1
;   supportHorizontalPartOffset,0.3
;   supportUpperSeparationLayers,1
;   supportLowerSeparationLayers,1
;   supportType,0
;   supportGridSpacing,4
;   maxOverhangAngle,45
;   supportAngles,0
;   temperatureName,Primary Extruder,Heated Build Platform
;   temperatureNumber,0,1
;   temperatureSetpointCount,1,1
;   temperatureSetpointLayers,1,1
;   temperatureSetpointTemperatures,230,100
;   temperatureStabilizeAtStartup,1,1
;   temperatureHeatedBed,0,1
;   temperatureRelayBetweenLayers,0,0
;   temperatureRelayBetweenLoops,0,0
;   fanLayers,1
;   fanSpeeds,0
;   blipFanToFullPower,1
;   adjustSpeedForCooling,1
;   minSpeedLayerTime,15
;   minCoolingSpeedSlowdown,20
;   increaseFanForCooling,1
;   minFanLayerTime,10
;   maxCoolingFanSpeed,30
;   increaseFanForBridging,1
;   bridgingFanSpeed,45
;   use5D,1
;   relativeEdistances,0
;   allowEaxisZeroing,1
;   independentExtruderAxes,0
;   includeM10123,0
;   stickySupport,1
;   applyToolheadOffsets,0
;   gcodeXoffset,0
;   gcodeYoffset,0
;   gcodeZoffset,0
;   overrideMachineDefinition,1
;   machineTypeOverride,0
;   strokeXoverride,200
;   strokeYoverride,200
;   strokeZoverride,175
;   originOffsetXoverride,0
;   originOffsetYoverride,0
;   originOffsetZoverride,0
;   homeXdirOverride,-1
;   homeYdirOverride,-1
;   homeZdirOverride,-1
;   flipXoverride,1
;   flipYoverride,-1
;   flipZoverride,1
;   toolheadOffsets,0,0|0,0|0,0|0,0|0,0|0,0
;   overrideFirmwareConfiguration,1
;   firmwareTypeOverride,RepRap (Marlin/Repetier/Sprinter)
;   GPXconfigOverride,r2
;   baudRateOverride,250000
;   overridePrinterModels,1
;   printerModelsOverride
;   startingGcode,G28 ; home all axes,G92 E0 ; zero the extruded length,G1 Z10 ; lower,G1 E20 F200 ; purge nozzle quickly,G1 E10 F60 ; purge nozzle slowly,G92 E0 ; zero the extruded length again,G1 E-1.5 F400 ; retract,G1 X170 Z0 F9000 ; pull away filament,G1 X180 F9000 ; wipe,G1 Y20 F9000 ; wipe,G1 E0 ; feed filament back
;   layerChangeGcode,
;   retractionGcode,
;   toolChangeGcode,
;   endingGcode,G28 X0 ; home the X-axis,M104 S0 ; turn off heaters,M140 S0 ; turn off bed,M84 ; disable motors
;   exportFileFormat,gcode
;   celebration,0
;   celebrationSong,Random Song
;   postProcessing,
;   defaultSpeed,2500
;   outlineUnderspeed,0.65
;   solidInfillUnderspeed,0.7
;   supportUnderspeed,0.7
;   rapidXYspeed,6000
;   rapidZspeed,1000
;   minBridgingArea,5
;   bridgingExtraInflation,0
;   bridgingExtrusionMultiplier,1
;   bridgingSpeedMultiplier,0.5
;   filamentDiameter,1.75
;   filamentPricePerKg,46
;   filamentDensity,1.25
;   useMinPrintHeight,0
;   minPrintHeight,0
;   useMaxPrintHeight,0
;   maxPrintHeight,0
;   useDiaphragm,0
;   diaphragmLayerInterval,20
;   robustSlicing,1
;   mergeAllIntoSolid,0
;   onlyRetractWhenCrossingOutline,1
;   retractBetweenLayers,0
;   useRetractionMinTravel,1
;   retractionMinTravel,0.02
;   retractWhileWiping,0
;   onlyWipeOutlines,1
;   avoidCrossingOutline,0
;   maxMovementDetourFactor,3
;   toolChangeRetractionDistance,12
;   toolChangeExtraRestartDistance,-0.5
;   toolChangeRetractionSpeed,600
;   allowThinWallGapFill,1
;   thinWallAllowedOverlapPercentage,10
;   horizontalSizeCompensation,0
G90
M82
M106 S0
M140 S100
M190 S100
M104 S230 T0
M109 S230 T0
G28 ; home all axes
G92 E0 ; zero the extruded length
G1 Z10 ; lower
G1 E20 F200 ; purge nozzle quickly
G1 E10 F60 ; purge nozzle slowly
G92 E0 ; zero the extruded length again
G1 E-1.5 F400 ; retract
G1 X170 Z0 F9000 ; pull away filament
G1 X180 F9000 ; wipe
G1 Y20 F9000 ; wipe
G1 E0 ; feed filament back
G92 E0
G1 E-1.5000 F2400
G1 Z0.195 F1000
; layer 1, Z = 0.195
T0
; tool H0.195 W0.400
; skirt
G1 X77.991 Y70.503 F6000
G1 E0.0000 F720
G92 E0
G1 X80.503 Y67.991 E0.1152 F750
G1 X80.724 Y67.900 E0.1229
G1 X119.276 Y67.900 E1.3731
G1 X119.497 Y67.991 E1.3809
G1 X122.009 Y70.503 E1.4961
G1 X122.100 Y70.724 E1.5038
G1 X122.100 Y129.276 E3.4026
G1 X122.009 Y129.497 E3.4103
G1 X119.497 Y132.009 E3.5255
G1 X119.276 Y132.100 E3.5333
G1 X80.724 Y132.100 E4.7835
G1 X80.503 Y132.009 E4.7912
G1 X77.991 Y129.497 E4.9064
G1 X77.900 Y129.276 E4.9142
G1 X77.900 Y70.724 E6.8129
G1 X77.915 Y70.688 E6.8142
G1 X77.991 Y70.503 F750
G1 X78.330 Y70.730 F6000
G92 E0
G1 X80.730 Y68.330 E0.1100 F750
G1 X80.803 Y68.300 E0.1126
G1 X119.197 Y68.300 E1.3577
G1 X119.270 Y68.330 E1.3602
G1 X121.670 Y70.730 E1.4703
G1 X121.700 Y70.803 E1.4729
G1 X121.700 Y129.197 E3.3665
G1 X121.670 Y129.270 E3.3691
G1 X119.270 Y131.670 E3.4791
G1 X119.197 Y131.700 E3.4817
G1 X80.803 Y131.700 E4.7267
G1 X80.730 Y131.670 E4.7293
G1 X78.330 Y129.270 E4.8393
G1 X78.300 Y129.197 E4.8419
G1 X78.300 Y70.924 E6.7316
G1 X78.300 Y70.803 F750
G1 X78.330 Y70.730 F750
G92 E0
G1 E-1.5000 F2400
; inner perimeter
G1 X83.100 Y73.100 F6000
G1 E0.0000 F2400
G92 E0
G1 X116.900 Y73.100 E1.0961 F619
G1 X116.900 Y126.900 E2.8407
G1 X83.100 Y126.900 E3.9368
G1 X83.100 Y73.300 E5.6750
G1 X83.100 Y73.100 F619
; outer perimeter
G1 X82.700 Y72.700 F6000
G92 E0
G1 X117.300 Y72.700 E1.1220 F488
G1 X117.300 Y127.300 E2.8926
G1 X82.700 Y127.300 E4.0147
G1 X82.700 Y72.900 E5.7788
G1 X82.700 Y72.700 F488
; solid layer
G1 X116.352 Y73.360 F6000
G92 E0
G1 X116.640 Y73.648 E0.0132 F525
G1 X116.640 Y74.214 E0.0315
G1 X115.786 Y73.360 E0.0707
G1 X115.221 Y73.360 E0.0890
G1 X116.640 Y74.779 E0.1541
G1 X116.640 Y75.345 E0.1725
G1 X114.655 Y73.360 E0.2635
G1 X114.089 Y73.360 E0.2818
G1 X116.640 Y75.911 E0.3988
G1 X116.640 Y76.476 E0.4172
G1 X113.524 Y73.360 E0.5601
G1 X112.958 Y73.360 E0.5784
G1 X116.640 Y77.042 E0.7473
G1 X116.640 Y77.608 E0.7656
G1 X112.392 Y73.360 E0.9604
G1 X111.827 Y73.360 E0.9788
G1 X116.640 Y78.173 E1.1995
G1 X116.640 Y78.739 E1.2179
G1 X111.261 Y73.360 E1.4646
G1 X110.695 Y73.360 E1.4829
G1 X116.640 Y79.305 E1.7555
G1 X116.640 Y79.870 E1.7739
G1 X110.130 Y73.360 E2.0725
G1 X109.564 Y73.360 E2.0908
G1 X116.640 Y80.436 E2.4153
G1 X116.640 Y81.002 E2.4337
G1 X108.998 Y73.360 E2.7841
G1 X108.433 Y73.360 E2.8025
G1 X116.640 Y81.567 E3.1789
G1 X116.640 Y82.133 E3.1972
G1 X107.867 Y73.360 E3.5996
G1 X107.301 Y73.360 E3.6179
G1 X116.640 Y82.699 E4.0462
G1 X116.640 Y83.265 E4.0645
G1 X106.735 Y73.360 E4.5188
G1 X106.170 Y73.360 E4.5371
G1 X116.640 Y83.830 E5.0173
G1 X116.640 Y84.396 E5.0356
G1 X105.604 Y73.360 E5.5418
G1 X105.038 Y73.360 E5.5601
G1 X116.640 Y84.962 E6.0922
G1 X116.640 Y85.527 E6.1105
G1 X104.473 Y73.360 E6.6685
G1 X103.907 Y73.360 E6.6869
G1 X116.640 Y86.093 E7.2708
G1 X116.640 Y86.659 E7.2891
G1 X103.341 Y73.360 E7.8990
G1 X102.776 Y73.360 E7.9174
G1 X116.640 Y87.224 E8.5532
G1 X116.640 Y87.790 E8.5716
G1 X102.210 Y73.360 E9.2333
G1 X101.644 Y73.360 E9.2517
G1 X116.640 Y88.356 E9.9394
G1 X116.640 Y88.921 E9.9577
G1 X101.079 Y73.360 E10.6714
G1 X100.513 Y73.360 E10.6898
G1 X116.640 Y89.487 E11.4294
G1 X116.640 Y90.053 E11.4477
G1 X99.947 Y73.360 E12.2132
G1 X99.382 Y73.360 E12.2316
G1 X116.640 Y90.618 E13.0231
G1 X116.640 Y91.184 E13.0414
G1 X98.816 Y73.360 E13.8589
G1 X98.250 Y73.360 E13.8772
G1 X116.640 Y91.750 E14.7206
G1 X116.640 Y92.316 E14.7389
G1 X97.684 Y73.360 E15.6082
G1 X97.119 Y73.360 E15.6266
G1 X116.640 Y92.881 E16.5218
G1 X116.640 Y93.447 E16.5402
G1 X96.553 Y73.360 E17.4614
G1 X95.987 Y73.360 E17.4797
G1 X116.640 Y94.013 E18.4269
G1 X116.640 Y94.578 E18.4452
G1 X95.422 Y73.360 E19.4183
G1 X94.856 Y73.360 E19.4367
G1 X116.640 Y95.144 E20.4357
G1 X116.640 Y95.710 E20.4540
G1 X94.290 Y73.360 E21.4790
G1 X93.725 Y73.360 E21.4974
G1 X116.640 Y96.275 E22.5483
G1 X116.640 Y96.841 E22.5666
G1 X93.159 Y73.360 E23.6435
G1 X92.593 Y73.360 E23.6618
G1 X116.640 Y97.407 E24.7646
G1 X116.640 Y97.972 E24.7830
G1 X92.028 Y73.360 E25.9117
G1 X91.462 Y73.360 E25.9301
G1 X116.640 Y98.538 E27.0848
G1 X116.640 Y99.104 E27.1031
G1 X90.896 Y73.360 E28.2838
G1 X90.331 Y73.360 E28.3021
G1 X116.640 Y99.669 E29.5087
G1 X116.640 Y100.235 E29.5270
G1 X89.765 Y73.360 E30.7595
G1 X89.199 Y73.360 E30.7779
G1 X116.640 Y100.801 E32.0363
G1 X116.640 Y101.366 E32.0547
G1 X88.634 Y73.360 E33.3391
G1 X88.068 Y73.360 E33.3574
G1 X116.640 Y101.932 E34.6678
G1 X116.640 Y102.498 E34.6861
G1 X87.502 Y73.360 E36.0224
G1 X86.936 Y73.360 E36.0408
G1 X116.640 Y103.064 E37.4030
G1 X116.640 Y103.629 E37.4213
G1 X86.371 Y73.360 E38.8095
G1 X85.805 Y73.360 E38.8279
G1 X116.640 Y104.195 E40.2420
G1 X116.640 Y104.761 E40.2603
G1 X85.239 Y73.360 E41.7004
G1 X84.674 Y73.360 E41.7187
G1 X116.640 Y105.326 E43.1847
G1 X116.640 Y105.892 E43.2031
G1 X84.108 Y73.360 E44.6950
G1 X83.542 Y73.360 E44.7134
G1 X116.640 Y106.458 E46.2313
G1 X116.640 Y107.023 E46.2496
G1 X83.360 Y73.743 E47.7759
G1 X83.360 Y74.309 E47.7942
G1 X116.640 Y107.589 E49.3205
G1 X116.640 Y108.155 E49.3388
G1 X83.360 Y74.875 E50.8651
G1 X83.360 Y75.440 E50.8834
G1 X116.640 Y108.720 E52.4097
G1 X116.640 Y109.286 E52.4280
G1 X83.360 Y76.006 E53.9543
G1 X83.360 Y76.572 E53.9726
G1 X116.640 Y109.852 E55.4989
G1 X116.640 Y110.417 E55.5172
G1 X83.360 Y77.137 E57.0435
G1 X83.360 Y77.703 E57.0618
G1 X116.640 Y110.983 E58.5881
G1 X116.640 Y111.549 E58.6064
G1 X83.360 Y78.269 E60.1327
G1 X83.360 Y78.835 E60.1510
G1 X116.640 Y112.115 E61.6773
G1 X116.640 Y112.680 E61.6956
G1 X83.360 Y79.400 E63.2219
G1 X83.360 Y79.966 E63.2402
G1 X116.640 Y113.246 E64.7665
G1 X116.640 Y113.812 E64.7848
G1 X83.360 Y80.532 E66.3111
G1 X83.360 Y81.097 E66.3294
G1 X116.640 Y114.377 E67.8557
G1 X116.640 Y114.943 E67.8740
G1 X83.360 Y81.663 E69.4003
G1 X83.360 Y82.229 E69.4186
G1 X116.640 Y115.509 E70.9449
G1 X116.640 Y116.074 E70.9632
G1 X83.360 Y82.794 E72.4895
G1 X83.360 Y83.360 E72.5078
G1 X116.640 Y116.640 E74.0341
G1 X116.640 Y117.206 E74.0524
G1 X83.360 Y83.926 E75.5787
G1 X83.360 Y84.491 E75.5970
G1 X116.640 Y117.771 E77.1233
G1 X116.640 Y118.337 E77.1416
G1 X83.360 Y85.057 E78.6679
G1 X83.360 Y85.623 E78.6862
G1 X116.640 Y118.903 E80.2124
G1 X116.640 Y119.468 E80.2308
G1 X83.360 Y86.188 E81.7570
G1 X83.360 Y86.754 E81.7754
G1 X116.640 Y120.034 E83.3016
G1 X116.640 Y120.600 E83.3200
G1 X83.360 Y87.320 E84.8462
G1 X83.360 Y87.885 E84.8646
G1 X116.640 Y121.165 E86.3908
G1 X116.640 Y121.731 E86.4092
G1 X83.360 Y88.451 E87.9354
G1 X83.360 Y89.017 E87.9538
G1 X116.640 Y122.297 E89.4800
G1 X116.640 Y122.863 E89.4984
G1 X83.360 Y89.583 E91.0246
G1 X83.360 Y90.148 E91.0430
G1 X116.640 Y123.428 E92.5692
G1 X116.640 Y123.994 E92.5876
G1 X83.360 Y90.714 E94.1138
G1 X83.360 Y91.280 E94.1322
G1 X116.640 Y124.560 E95.6584
G1 X116.640 Y125.125 E95.6768
G1 X83.360 Y91.845 E97.2030
G1 X83.360 Y92.411 E97.2214
G1 X116.640 Y125.691 E98.7476
G1 X116.640 Y126.257 E98.7660
G1 X83.360 Y92.977 E100.2922
G1 X83.360 Y93.542 E100.3106
G1 X116.458 Y126.640 E101.8285
G1 X115.892 Y126.640 E101.8468
G1 X83.360 Y94.108 E103.3388
G1 X83.360 Y94.674 E103.3571
G1 X115.326 Y126.640 E104.8231
G1 X114.761 Y126.640 E104.8415
G1 X83.360 Y95.239 E106.2815
G1 X83.360 Y95.805 E106.2999
G1 X114.195 Y126.640 E107.7140
G1 X113.629 Y126.640 E107.7323
G1 X83.360 Y96.371 E109.1205
G1 X83.360 Y96.936 E109.1389
G1 X113.064 Y126.640 E110.5011
G1 X112.498 Y126.640 E110.5194
G1 X83.360 Y97.502 E111.8557
G1 X83.360 Y98.068 E111.8741
G1 X111.932 Y126.640 E113.1844
G1 X111.367 Y126.640 E113.2028
G1 X83.360 Y98.633 E114.4872
G1 X83.360 Y99.199 E114.5055
G1 X110.801 Y126.640 E115.7640
G1 X110.235 Y126.640 E115.7823
G1 X83.360 Y99.765 E117.0149
G1 X83.360 Y100.331 E117.0332
G1 X109.669 Y126.640 E118.2398
G1 X109.104 Y126.640 E118.2581
G1 X83.360 Y100.896 E119.4388
G1 X83.360 Y101.462 E119.4571
G1 X108.538 Y126.640 E120.6118
G1 X107.972 Y126.640 E120.6301
G1 X83.360 Y102.028 E121.7589
G1 X83.360 Y102.593 E121.7772
G1 X107.407 Y126.640 E122.8800
G1 X106.841 Y126.640 E122.8984
G1 X83.360 Y103.159 E123.9752
G1 X83.360 Y103.725 E123.9936
G1 X106.275 Y126.640 E125.0445
G1 X105.710 Y126.640 E125.0628
G1 X83.360 Y104.290 E126.0878
G1 X83.360 Y104.856 E126.1062
G1 X105.144 Y126.640 E127.1052
G1 X104.578 Y126.640 E127.1236
G1 X83.360 Y105.422 E128.0966
G1 X83.360 Y105.987 E128.1150
G1 X104.013 Y126.640 E129.0621
G1 X103.447 Y126.640 E129.0805
G1 X83.360 Y106.553 E130.0017
G1 X83.360 Y107.119 E130.0200
G1 X102.881 Y126.640 E130.9153
G1 X102.316 Y126.640 E130.9336
G1 X83.360 Y107.684 E131.8030
G1 X83.360 Y108.250 E131.8213
G1 X101.750 Y126.640 E132.6647
G1 X101.184 Y126.640 E132.6830
G1 X83.360 Y108.816 E133.5005
G1 X83.360 Y109.382 E133.5188
G1 X100.618 Y126.640 E134.3103
G1 X100.053 Y126.640 E134.3286
G1 X83.360 Y109.947 E135.0942
G1 X83.360 Y110.513 E135.1125
G1 X99.487 Y126.640 E135.8521
G1 X98.921 Y126.640 E135.8705
G1 X83.360 Y111.079 E136.5841
G1 X83.360 Y111.644 E136.6025
G1 X98.356 Y126.640 E137.2902
G1 X97.790 Y126.640 E137.3086
G1 X83.360 Y112.210 E137.9703
G1 X83.360 Y112.776 E137.9887
G1 X97.224 Y126.640 E138.6245
G1 X96.659 Y126.640 E138.6429
G1 X83.360 Y113.341 E139.2527
G1 X83.360 Y113.907 E139.2711
G1 X96.093 Y126.640 E139.8550
G1 X95.527 Y126.640 E139.8734
G1 X83.360 Y114.473 E140.4314
G1 X83.360 Y115.038 E140.4497
G1 X94.962 Y126.640 E140.9818
G1 X94.396 Y126.640 E141.0001
G1 X83.360 Y115.604 E141.5063
G1 X83.360 Y116.170 E141.5246
G1 X93.830 Y126.640 E142.0048
G1 X93.265 Y126.640 E142.0231
G1 X83.360 Y116.735 E142.4774
G1 X83.360 Y117.301 E142.4957
G1 X92.699 Y126.640 E142.9240
G1 X92.133 Y126.640 E142.9423
G1 X83.360 Y117.867 E143.3447
G1 X83.360 Y118.432 E143.3630
G1 X91.568 Y126.640 E143.7394
G1 X91.002 Y126.640 E143.7578
G1 X83.360 Y118.998 E144.1082
G1 X83.360 Y119.564 E144.1266
G1 X90.436 Y126.640 E144.4511
G1 X89.870 Y126.640 E144.4694
G1 X83.360 Y120.130 E144.7680
G1 X83.360 Y120.695 E144.7864
G1 X89.305 Y126.640 E145.0590
G1 X88.739 Y126.640 E145.0773
G1 X83.360 Y121.261 E145.3240
G1 X83.360 Y121.827 E145.3424
G1 X88.173 Y126.640 E145.5631
G1 X87.608 Y126.640 E145.5815
G1 X83.360 Y122.392 E145.7763
G1 X83.360 Y122.958 E145.7946
G1 X87.042 Y126.640 E145.9635
G1 X86.476 Y126.640 E145.9818
G1 X83.360 Y123.524 E146.1247
G1 X83.360 Y124.089 E146.1431
G1 X85.911 Y126.640 E146.2601
G1 X85.345 Y126.640 E146.2784
