; G-Code generated by Simplify3D(R) Version 3.1.0
; Sep 4, 2016 at 5:34:54 PM
; Settings Summary
;   processName,Process1
;   applyToModels,rocket
;   profileName,Wanhao Duplicator 6
;   profileVersion,2016-08-10 08:00:00
;   baseProfile,
;   printMaterial,ABS
;   printQuality,Medium
;   printExtruders,
;   extruderName,Primary Extruder
;   extruderToolheadNumber,0
;   extruderDiameter,0.4
;   extruderAutoWidth,0
;   extruderWidth,0.4
;   extrusionMultiplier,1
;   extruderUseRetract,1
;   extruderRetractionDistance,1.5
;   extruderExtraRestartDistance,0
;   extruderRetractionZLift,0
;   extruderRetractionSpeed,2400
;   extruderUseCoasting,1
;   extruderCoastingDistance,0.2
;   extruderUseWipe,0
;   extruderWipeDistance,2
;   primaryExtruder,0
;   layerHeight,0.15
;   topSolidLayers,4
;   bottomSolidLayers,3
;   perimeterOutlines,2
;   printPerimetersInsideOut,1
;   startPointOption,2
;   startPointOriginX,0
;   startPointOriginY,0
;   startPointOriginZ,300
;   sequentialIslands,0
;   spiralVaseMode,0
;   firstLayerHeightPercentage,130
;   firstLayerWidthPercentage,100
;   firstLayerUnderspeed,0.3
;   useRaft,0
;   raftExtruder,0
;   raftLayers,3
;   raftOffset,3
;   raftSeparationDistance,0.14
;   raftInfill,85
;   disableRaftBaseLayers,0
;   useSkirt,1
;   skirtExtruder,0
;   skirtLayers,1
;   skirtOutlines,2
;   skirtOffset,4
;   usePrimePillar,0
;   primePillarExtruder,999
;   primePillarWidth,12
;   primePillarLocation,7
;   primePillarSpeedMultiplier,1
;   useOozeShield,0
;   oozeShieldExtruder,999
;   oozeShieldOffset,2
;   oozeShieldOutlines,1
;   oozeShieldSidewallShape,1
;   oozeShieldSidewallAngle,30
;   oozeShieldSpeedMultiplier,1
;   infillExtruder,0
;   internalInfillPattern,Rectilinear
;   externalInfillPattern,Rectilinear
;   infillPercentage,20
;   outlineOverlapPercentage,35
;   infillExtrusionWidthPercentage,125
;   minInfillLength,3
;   infillLayerInterval,1
;   infillAngles,45,-45
;   overlapInfillAngles,0
;   generateSupport,0
;   supportExtruder,0
;   supportInfillPercentage,30
;   supportExtraInflation,0
;   denseSupportLayers,0
;   denseSupportInfillPercentage,70
;   supportLayerInterval,1
;   supportHorizontalPartOffset,0.3
;   supportUpperSeparationLayers,1
;   supportLowerSeparationLayers,1
;   supportType,0
;   supportGridSpacing,4
;   maxOverhangAngle,45
;   supportAngles,0
;   temperatureName,Primary Extruder,Heated Build Platform
;   temperatureNumber,0,1
;   temperatureSetpointCount,1,1
;   temperatureSetpointLayers,1,1
;   temperatureSetpointTemperatures,230,100
;   temperatureStabilizeAtStartup,1,1
;   temperatureHeatedBed,0,1
;   temperatureRelayBetweenLayers,0,0
;   temperatureRelayBetweenLoops,0,0
;   fanLayers,1
;   fanSpeeds,0
;   blipFanToFullPower,1
;   adjustSpeedForCooling,1
;   minSpeedLayerTime,15
;   minCoolingSpeedSlowdown,20
;   increaseFanForCooling,1
;   minFanLayerTime,10
;   maxCoolingFanSpeed,30
;   increaseFanForBridging,1
;   bridgingFanSpeed,45
;   use5D,1
;   relativeEdistances,0
;   allowEaxisZeroing,1
;   independentExtruderAxes,0
;   includeM10123,0
;   stickySupport,1
;   applyToolheadOffsets,0
;   gcodeXoffset,0
;   gcodeYoffset,0
;   gcodeZoffset,0
;   overrideMachineDefinition,1
;   machineTypeOverride,0
;   strokeXoverride,200
;   strokeYoverride,200
;   strokeZoverride,175
;   originOffsetXoverride,0
;   originOffsetYoverride,0
;   originOffsetZoverride,0
;   homeXdirOverride,-1
;   homeYdirOverride,-1
;   homeZdirOverride,-1
;   flipXoverride,1
;   flipYoverride,-1
;   flipZoverride,1
;   toolheadOffsets,0,0|0,0|0,0|0,0|0,0|0,0
;   overrideFirmwareConfiguration,1
;   firmwareTypeOverride,RepRap (Marlin/Repetier/Sprinter)
;   GPXconfigOverride,r2
;   baudRateOverride,250000
;   overridePrinterModels,1
;   printerModelsOverride
;   startingGcode,G28 ; home all axes,G92 E0 ; zero the extruded length,G1 Z10 ; lower,G1 E20 F200 ; purge nozzle quickly,G1 E10 F60 ; purge nozzle slowly,G92 E0 ; zero the extruded length again,G1 E-1.5 F400 ; retract,G1 X170 Z0 F9000 ; pull away filament,G1 X180 F9000 ; wipe,G1 Y20 F9000 ; wipe,G1 E0 ; feed filament back
;   layerChangeGcode,
;   retractionGcode,
;   toolChangeGcode,
;   endingGcode,G28 X0 ; home the X-axis,M104 S0 ; turn off heaters,M140 S0 ; turn off bed,M84 ; disable motors
;   exportFileFormat,gcode
;   celebration,0
;   celebrationSong,Random Song
;   postProcessing,
;   defaultSpeed,2500
;   outlineUnderspeed,0.65
;   solidInfillUnderspeed,0.7
;   supportUnderspeed,0.7
;   rapidXYspeed,6000
;   rapidZspeed,1000
;   minBridgingArea,5
;   bridgingExtraInflation,0
;   bridgingExtrusionMultiplier,1
;   bridgingSpeedMultiplier,0.5
;   filamentDiameter,1.75
;   filamentPricePerKg,46
;   filamentDensity,1.25
;   useMinPrintHeight,0
;   minPrintHeight,0
;   useMaxPrintHeight,0
;   maxPrintHeight,0
;   useDiaphragm,0
;   diaphragmLayerInterval,20
;   robustSlicing,1
;   mergeAllIntoSolid,0
;   onlyRetractWhenCrossingOutline,1
;   retractBetweenLayers,0
;   useRetractionMinTravel,1
;   retractionMinTravel,0.02
;   retractWhileWiping,0
;   onlyWipeOutlines,1
;   avoidCrossingOutline,0
;   maxMovementDetourFactor,3
;   toolChangeRetractionDistance,12
;   toolChangeExtraRestartDistance,-0.5
;   toolChangeRetractionSpeed,600
;   allowThinWallGapFill,1
;   thinWallAllowedOverlapPercentage,10
;   horizontalSizeCompensation,0
G90
M82
M106 S0
M140 S100
M190 S100
M104 S230 T0
M109 S230 T0
G28 ; home all axes
G92 E0 ; zero the extruded length
G1 Z10 ; lower
G1 E20 F200 ; purge nozzle quickly
G1 E10 F60 ; purge nozzle slowly
G92 E0 ; zero the extruded length again
G1 E-1.5 F400 ; retract
G1 X170 Z0 F9000 ; pull away filament
G1 X180 F9000 ; wipe
G1 Y20 F9000 ; wipe
G1 E0 ; feed filament back
G92 E0
G1 E-1.5000 F2400
G1 Z0.195 F1000
; layer 1, Z = 0.195
M106 S255
G4 P500
M106 S76
T0
; tool H0.195 W0.400
; skirt
G1 X164.485 Y95.436 F6000
G1 E0.0000 F720
G92 E0
G1 X164.770 Y95.227 E0.0115 F500
G1 X168.451 Y95.003 E0.1311
G1 X168.488 Y95.003 E0.1322
G1 X169.014 Y95.036 E0.1493
G1 X169.050 Y95.040 E0.1505
G1 X173.007 Y95.778 E0.2810
G1 X173.284 Y96.111 E0.2951
G1 X173.284 Y103.192 E0.5247
G1 X173.007 Y103.525 E0.5388
G1 X169.134 Y104.247 E0.6665
G1 X169.109 Y104.250 E0.6673
G1 X168.753 Y104.286 E0.6789
G1 X168.728 Y104.288 E0.6798
G1 X167.058 Y104.317 E0.7339
G1 X166.938 Y104.295 E0.7379
G1 X165.311 Y103.635 E0.7948
G1 X165.210 Y103.568 E0.7987
G1 X162.596 Y100.938 E0.9190
G1 X162.522 Y100.592 E0.9305
G1 X164.414 Y95.623 E1.1029
G1 X164.485 Y95.436 F500
G1 X164.817 Y95.689 F6000
G92 E0
G1 X164.912 Y95.619 E0.0038 F500
G1 X168.463 Y95.403 E0.1192
G1 X168.475 Y95.403 E0.1196
G1 X168.977 Y95.434 E0.1359
G1 X168.989 Y95.436 E0.1363
G1 X172.791 Y96.144 E0.2617
G1 X172.884 Y96.255 E0.2664
G1 X172.884 Y103.047 E0.4866
G1 X172.791 Y103.158 E0.4913
G1 X169.069 Y103.852 E0.6141
G1 X169.060 Y103.853 E0.6144
G1 X168.721 Y103.887 E0.6255
G1 X168.712 Y103.888 E0.6257
G1 X167.091 Y103.917 E0.6783
G1 X167.051 Y103.909 E0.6796
G1 X165.499 Y103.280 E0.7339
G1 X165.465 Y103.258 E0.7353
G1 X162.962 Y100.740 E0.8504
G1 X162.938 Y100.624 E0.8542
G1 X164.746 Y95.876 E1.0190
G1 X164.817 Y95.689 F500
G92 E0
G1 E-1.5000 F2400
; layer 2, Z = 0.345
; tool H0.150 W0.400
; inner perimeter
G1 X67.111 Y99.651 F6000
G1 Z0.345 F1000
G1 E0.0000 F2400
G92 E0
G1 X65.631 Y100.404 E0.0414 F412
G1 X65.505 Y99.651 E0.0605
G1 X65.631 Y98.898 E0.0795
G1 X66.932 Y99.560 E0.1159
G1 X67.111 Y99.651 F412
; outer perimeter
G1 X67.992 Y99.651 F6000
G92 E0
G1 X65.327 Y101.008 E0.0746 F325
G1 X65.099 Y99.651 E0.1089
G1 X65.327 Y98.294 E0.1433
G1 X67.814 Y99.560 E0.2129
G1 X67.992 Y99.651 F325
; solid layer
G1 X66.273 Y99.786 F6000
G92 E0
G1 X66.451 Y99.607 E0.0063 F350
G1 X66.077 Y99.417 E0.0168
G1 X65.920 Y99.573 E0.0223
G1 X65.779 Y99.714 F350
; layer 3, Z = 0.495
M106 S33
; inner perimeter
G1 X65.241 Y99.651 F6000
G1 Z0.495 F1000
G92 E0
G1 X65.524 Y97.967 E0.0426 F412
G1 X67.399 Y98.277 E0.0900
G1 X70.099 Y99.651 E0.1656
G1 X67.399 Y101.025 E0.2411
G1 X65.524 Y101.335 E0.2885
G1 X65.275 Y99.848 E0.3262
G1 X65.241 Y99.651 F412
; outer perimeter
G1 X64.836 Y99.651 F6000
G92 E0
G1 X65.148 Y97.789 E0.0471 F325
G1 X65.281 Y97.522 E0.0545
G1 X67.525 Y97.893 E0.1113
G1 X70.980 Y99.651 E0.2080
G1 X67.526 Y101.410 E0.3047
G1 X65.281 Y101.781 E0.3615
G1 X65.148 Y101.514 E0.3689
G1 X64.869 Y99.848 E0.4110
G1 X64.836 Y99.651 F325
; solid layer
G1 X65.932 Y101.004 F6000
G92 E0
G1 X65.692 Y100.764 E0.0085 F350
G1 X65.578 Y100.085 E0.0257
G1 X66.417 Y100.924 E0.0553
G1 X66.903 Y100.844 E0.0675
G1 X65.535 Y99.476 E0.1158
G1 X65.616 Y98.991 E0.1281
G1 X67.372 Y100.747 E0.1900
G1 X67.747 Y100.557 E0.2005
G1 X65.697 Y98.507 E0.2728
G1 X65.737 Y98.266 E0.2789
G1 X66.078 Y98.322 E0.2875
G1 X68.122 Y100.366 E0.3596
G1 X68.497 Y100.175 E0.3701
G1 X66.756 Y98.434 E0.4315
G1 X67.317 Y98.527 E0.4457
G1 X67.515 Y98.628 E0.4513
G1 X68.871 Y99.984 E0.4991
G1 X69.246 Y99.793 E0.5096
G1 X68.809 Y99.356 E0.5250
G1 X68.667 Y99.214 F350
; layer 4, Z = 0.645
M106 S0
; inner perimeter
G1 X70.387 Y98.277 F6000
G1 Z0.645 F1000
G92 E0
G1 X73.087 Y99.651 E0.0756 F467
G1 X70.388 Y101.025 E0.1511
G1 X65.500 Y101.833 E0.2747
G1 X65.264 Y101.357 E0.2879
G1 X64.978 Y99.651 E0.3311
G1 X65.264 Y97.946 E0.3742
G1 X65.500 Y97.469 E0.3875
G1 X70.190 Y98.245 E0.5061
G1 X70.387 Y98.277 F467
; outer perimeter
G1 X70.514 Y97.893 F6000
G92 E0
G1 X73.968 Y99.651 E0.0967 F368
G1 X70.514 Y101.410 E0.1934
G1 X65.273 Y102.276 E0.3259
G1 X64.880 Y101.481 E0.3480
G1 X64.573 Y99.651 E0.3943
G1 X64.880 Y97.821 E0.4406
G1 X65.273 Y97.026 E0.4627
G1 X70.316 Y97.860 E0.5902
G1 X70.514 Y97.893 F368
; solid layer
G1 X72.216 Y99.500 F6000
G92 E0
G1 X71.599 Y100.117 E0.0218 F396
G1 X70.447 Y100.703 E0.0540
G1 X71.841 Y99.309 E0.1032
G1 X71.466 Y99.118 E0.1137
G1 X69.711 Y100.874 E0.1756
G1 X69.033 Y100.986 E0.1928
G1 X71.091 Y98.927 E0.2654
G1 X70.717 Y98.736 E0.2759
G1 X68.355 Y101.098 E0.3592
G1 X67.678 Y101.210 E0.3763
G1 X70.342 Y98.546 E0.4703
G1 X70.305 Y98.527 E0.4713
G1 X69.867 Y98.455 E0.4824
G1 X67.000 Y101.322 E0.5835
G1 X66.322 Y101.434 E0.6007
G1 X69.382 Y98.374 E0.7086
G1 X68.896 Y98.294 E0.7209
G1 X65.647 Y101.543 E0.8355
G1 X65.514 Y101.276 E0.8429
G1 X65.491 Y101.134 E0.8465
G1 X68.411 Y98.214 E0.9495
G1 X67.925 Y98.134 E0.9618
G1 X65.409 Y100.650 E1.0506
G1 X65.328 Y100.165 E1.0628
G1 X67.440 Y98.053 E1.1373
G1 X66.954 Y97.973 E1.1496
G1 X65.247 Y99.681 E1.2098
G1 X65.242 Y99.651 E1.2106
G1 X65.349 Y99.013 E1.2267
G1 X66.469 Y97.893 E1.2662
G1 X65.983 Y97.813 E1.2785
G1 X65.604 Y98.192 E1.2919
G1 X65.463 Y98.333 F396
G92 E0
G1 E-1.5000 F2400
; inner perimeter
; outer perimeter
G1 X165.218 Y99.717 F6000
G1 E0.0000 F2400
G92 E0
G1 X166.875 Y99.616 E0.0414 F368
G1 X167.063 Y99.651 E0.0462
G1 X166.868 Y99.688 E0.0512
G1 X165.418 Y99.713 E0.0873
G1 X165.218 Y99.717 F368
; layer 5, Z = 0.795
; inner perimeter
; outer perimeter
G1 X166.366 Y99.750 F6000
G1 Z0.795 F1000
G92 E0
G1 X161.938 Y99.829 E0.1105 F563
G1 X161.934 Y99.824 E0.1106
G1 X166.374 Y99.554 E0.2216
G1 X166.895 Y99.651 E0.2348
G1 X166.563 Y99.713 E0.2433
G1 X166.366 Y99.750 F563
G92 E0
G1 E-1.5000 F2400
; inner perimeter
G1 X76.075 Y99.651 F6000
G1 E0.0000 F2400
G92 E0
G1 X73.376 Y101.025 E0.0756 F715
G1 X65.493 Y102.328 E0.2749
G1 X64.996 Y101.324 E0.3028
G1 X64.715 Y99.651 E0.3451
G1 X64.996 Y97.978 E0.3874
G1 X65.493 Y96.974 E0.4154
G1 X73.375 Y98.277 E0.6147
G1 X75.897 Y99.560 E0.6853
G1 X76.075 Y99.651 F715
; outer perimeter
G1 X76.957 Y99.651 F6000
G92 E0
G1 X73.502 Y101.410 E0.0967 F563
G1 X65.265 Y102.771 E0.3049
G1 X64.611 Y101.449 E0.3418
G1 X64.309 Y99.651 E0.3872
G1 X64.611 Y97.854 E0.4327
G1 X65.265 Y96.531 E0.4695
G1 X73.502 Y97.893 E0.6777
G1 X76.778 Y99.560 E0.7694
G1 X76.957 Y99.651 F563
; solid layer
G1 X75.145 Y99.470 F6000
G92 E0
G1 X75.386 Y99.710 E0.0085 F606
G1 X75.011 Y99.901 E0.0190
G1 X73.993 Y98.883 E0.0549
G1 X73.293 Y98.527 E0.0745
G1 X73.027 Y98.483 E0.0812
G1 X74.636 Y100.092 E0.1379
G1 X74.261 Y100.283 E0.1484
G1 X72.350 Y98.371 E0.2159
G1 X71.672 Y98.259 E0.2330
G1 X73.886 Y100.474 E0.3111
G1 X73.511 Y100.664 E0.3216
G1 X70.994 Y98.147 E0.4104
G1 X70.317 Y98.035 E0.4276
G1 X73.090 Y100.809 E0.5254
G1 X72.605 Y100.889 E0.5377
G1 X69.639 Y97.923 E0.6423
G1 X68.961 Y97.811 E0.6595
G1 X72.119 Y100.969 E0.7709
G1 X71.634 Y101.050 E0.7831
G1 X68.283 Y97.699 E0.9013
G1 X67.606 Y97.587 E0.9185
G1 X71.149 Y101.130 E1.0435
G1 X70.663 Y101.210 E1.0557
G1 X66.928 Y97.475 E1.1875
G1 X66.250 Y97.363 E1.2046
G1 X70.178 Y101.290 E1.3432
G1 X69.692 Y101.371 E1.3554
G1 X67.979 Y99.658 E1.4159
G1 X67.992 Y99.651 E1.4162
G1 X67.953 Y99.631 E1.4173
G1 X65.621 Y97.300 E1.4996
G1 X65.434 Y97.678 E1.5101
G1 X66.801 Y99.045 E1.5583
G1 X65.648 Y98.458 E1.5906
G1 X65.247 Y98.057 E1.6047
G1 X65.246 Y98.059 E1.6048
G1 X65.165 Y98.540 E1.6170
G1 X65.268 Y98.644 E1.6206
G1 X65.187 Y99.128 E1.6329
G1 X65.084 Y99.025 E1.6365
G1 X65.002 Y99.509 E1.6488
G1 X65.106 Y99.612 E1.6524
G1 X65.099 Y99.651 E1.6534
G1 X65.204 Y100.276 E1.6692
G1 X65.059 Y100.132 E1.6743
G1 X65.173 Y100.811 E1.6915
G1 X65.318 Y100.956 E1.6966
G1 X65.327 Y101.008 E1.6979
G1 X65.355 Y100.994 E1.6987
G1 X66.294 Y101.932 E1.7318
G1 X65.809 Y102.012 E1.7441
G1 X65.589 Y101.793 E1.7518
G1 X65.448 Y101.651 F606
G1 X65.730 Y100.803 F6000
G92 E0
G1 X66.779 Y101.852 E0.0370 F606
G1 X67.265 Y101.772 E0.0493
G1 X66.105 Y100.612 E0.0902
G1 X66.480 Y100.421 E0.1007
G1 X67.750 Y101.691 E0.1455
G1 X68.236 Y101.611 E0.1578
G1 X66.855 Y100.230 E0.2065
G1 X67.230 Y100.039 E0.2170
G1 X68.721 Y101.531 E0.2696
G1 X69.207 Y101.451 E0.2819
G1 X67.746 Y99.990 E0.3334
G1 X67.605 Y99.849 F606
; layer 6, Z = 0.945
; inner perimeter
G1 X64.452 Y99.651 F6000
G1 Z0.945 F1000
G92 E0
G1 X64.727 Y98.011 E0.0415 F912
G1 X65.485 Y96.479 E0.0841
G1 X76.363 Y98.277 E0.3592
G1 X79.063 Y99.651 E0.4347
G1 X76.364 Y101.025 E0.5103
G1 X65.485 Y102.819 E0.7853
G1 X64.727 Y101.291 E0.8279
G1 X64.485 Y99.848 E0.8644
G1 X64.452 Y99.651 F912
; outer perimeter
G1 X64.046 Y99.651 F6000
G92 E0
G1 X64.342 Y97.886 E0.0446 F719
G1 X65.258 Y96.036 E0.0961
G1 X76.490 Y97.893 E0.3801
G1 X79.945 Y99.651 E0.4768
G1 X76.490 Y101.410 E0.5735
G1 X65.258 Y103.262 E0.8575
G1 X64.342 Y101.416 E0.9089
G1 X64.079 Y99.848 E0.9485
G1 X64.046 Y99.651 F719
; solid layer
G1 X65.373 Y97.292 F6000
G92 E0
G1 X65.860 Y96.805 E0.0172 F774
G1 X66.346 Y96.885 E0.0295
G1 X65.648 Y97.582 E0.0541
G1 X65.281 Y97.522 E0.0634
G1 X65.148 Y97.789 E0.0708
G1 X65.089 Y98.141 E0.0797
G1 X64.944 Y98.286 E0.0848
G1 X64.830 Y98.966 E0.1020
G1 X64.975 Y98.821 E0.1071
G1 X64.861 Y99.501 E0.1243
G1 X64.716 Y99.645 E0.1294
G1 X64.715 Y99.651 E0.1296
G1 X64.796 Y100.132 E0.1417
G1 X64.899 Y100.028 E0.1454
G1 X64.980 Y100.513 E0.1576
G1 X64.877 Y100.616 E0.1613
G1 X64.958 Y101.100 E0.1735
G1 X65.062 Y100.997 E0.1771
G1 X65.143 Y101.482 E0.1894
G1 X65.122 Y101.503 E0.1901
G1 X65.309 Y101.881 E0.2007
G1 X65.435 Y101.755 E0.2051
G1 X66.113 Y101.643 E0.2222
G1 X65.497 Y102.259 E0.2439
G1 X65.632 Y102.531 E0.2515
G1 X65.821 Y102.500 E0.2563
G1 X66.790 Y101.531 E0.2905
G1 X67.468 Y101.419 E0.3076
G1 X66.499 Y102.389 E0.3418
G1 X67.176 Y102.277 E0.3590
G1 X68.580 Y100.873 E0.4085
G1 X69.732 Y100.287 E0.4407
G1 X67.854 Y102.165 E0.5070
G1 X68.531 Y102.053 E0.5241
G1 X70.884 Y99.700 E0.6071
G1 X70.980 Y99.651 E0.6098
G1 X70.949 Y99.635 E0.6107
G1 X72.656 Y97.928 E0.6709
G1 X73.142 Y98.008 E0.6832
G1 X69.208 Y101.942 E0.8220
G1 X69.886 Y101.830 E0.8391
G1 X73.627 Y98.088 E0.9711
G1 X74.113 Y98.169 E0.9834
G1 X70.563 Y101.718 E1.1086
G1 X71.241 Y101.607 E1.1257
G1 X74.598 Y98.249 E1.2442
G1 X75.084 Y98.329 E1.2564
G1 X71.918 Y101.495 E1.3681
G1 X72.595 Y101.383 E1.3852
G1 X75.569 Y98.409 E1.4902
G1 X76.055 Y98.490 E1.5024
G1 X73.273 Y101.271 E1.6006
G1 X73.950 Y101.160 E1.6177
G1 X76.481 Y98.629 E1.7070
G1 X76.856 Y98.820 E1.7175
G1 X74.628 Y101.048 E1.7961
G1 X75.305 Y100.936 E1.8132
G1 X77.231 Y99.010 E1.8812
G1 X77.606 Y99.201 E1.8917
G1 X75.982 Y100.825 E1.9489
G1 X76.282 Y100.775 E1.9565
G1 X76.925 Y100.448 E1.9745
G1 X77.981 Y99.392 E2.0117
G1 X78.355 Y99.583 E2.0222
