; G-Code generated by Simplify3D(R) Version 3.1.0
; Sep 4, 2016 at 5:30:37 PM
; Settings Summary
;   processName,Process1
;   applyToModels,zcube-1
;   profileName,Wanhao Duplicator 6
;   profileVersion,2016-08-10 08:00:00
;   baseProfile,
;   printMaterial,ABS
;   printQuality,Medium
;   printExtruders,
;   extruderName,Primary Extruder
;   extruderToolheadNumber,0
;   extruderDiameter,0.4
;   extruderAutoWidth,0
;   extruderWidth,0.4
;   extrusionMultiplier,1
;   extruderUseRetract,1
;   extruderRetractionDistance,1.5
;   extruderExtraRestartDistance,0
;   extruderRetractionZLift,0
;   extruderRetractionSpeed,2400
;   extruderUseCoasting,1
;   extruderCoastingDistance,0.2
;   extruderUseWipe,0
;   extruderWipeDistance,2
;   primaryExtruder,0
;   layerHeight,0.15
;   topSolidLayers,4
;   bottomSolidLayers,3
;   perimeterOutlines,2
;   printPerimetersInsideOut,1
;   startPointOption,2
;   startPointOriginX,0
;   startPointOriginY,0
;   startPointOriginZ,300
;   sequentialIslands,0
;   spiralVaseMode,0
;   firstLayerHeightPercentage,130
;   firstLayerWidthPercentage,100
;   firstLayerUnderspeed,0.3
;   useRaft,0
;   raftExtruder,0
;   raftLayers,3
;   raftOffset,3
;   raftSeparationDistance,0.14
;   raftInfill,85
;   disableRaftBaseLayers,0
;   useSkirt,1
;   skirtExtruder,0
;   skirtLayers,1
;   skirtOutlines,2
;   skirtOffset,4
;   usePrimePillar,0
;   primePillarExtruder,999
;   primePillarWidth,12
;   primePillarLocation,7
;   primePillarSpeedMultiplier,1
;   useOozeShield,0
;   oozeShieldExtruder,999
;   oozeShieldOffset,2
;   oozeShieldOutlines,1
;   oozeShieldSidewallShape,1
;   oozeShieldSidewallAngle,30
;   oozeShieldSpeedMultiplier,1
;   infillExtruder,0
;   internalInfillPattern,Rectilinear
;   externalInfillPattern,Rectilinear
;   infillPercentage,20
;   outlineOverlapPercentage,35
;   infillExtrusionWidthPercentage,125
;   minInfillLength,3
;   infillLayerInterval,1
;   infillAngles,45,-45
;   overlapInfillAngles,0
;   generateSupport,0
;   supportExtruder,0
;   supportInfillPercentage,30
;   supportExtraInflation,0
;   denseSupportLayers,0
;   denseSupportInfillPercentage,70
;   supportLayerInterval,1
;   supportHorizontalPartOffset,0.3
;   supportUpperSeparationLayers,1
;   supportLowerSeparationLayers,1
;   supportType,0
;   supportGridSpacing,4
;   maxOverhangAngle,45
;   supportAngles,0
;   temperatureName,Primary Extruder,Heated Build Platform
;   temperatureNumber,0,1
;   temperatureSetpointCount,1,1
;   temperatureSetpointLayers,1,1
;   temperatureSetpointTemperatures,230,100
;   temperatureStabilizeAtStartup,1,1
;   temperatureHeatedBed,0,1
;   temperatureRelayBetweenLayers,0,0
;   temperatureRelayBetweenLoops,0,0
;   fanLayers,1
;   fanSpeeds,0
;   blipFanToFullPower,1
;   adjustSpeedForCooling,1
;   minSpeedLayerTime,15
;   minCoolingSpeedSlowdown,20
;   increaseFanForCooling,1
;   minFanLayerTime,10
;   maxCoolingFanSpeed,30
;   increaseFanForBridging,1
;   bridgingFanSpeed,45
;   use5D,1
;   relativeEdistances,0
;   allowEaxisZeroing,1
;   independentExtruderAxes,0
;   includeM10123,0
;   stickySupport,1
;   applyToolheadOffsets,0
;   gcodeXoffset,0
;   gcodeYoffset,0
;   gcodeZoffset,0
;   overrideMachineDefinition,1
;   machineTypeOverride,0
;   strokeXoverride,200
;   strokeYoverride,200
;   strokeZoverride,175
;   originOffsetXoverride,0
;   originOffsetYoverride,0
;   originOffsetZoverride,0
;   homeXdirOverride,-1
;   homeYdirOverride,-1
;   homeZdirOverride,-1
;   flipXoverride,1
;   flipYoverride,-1
;   flipZoverride,1
;   toolheadOffsets,0,0|0,0|0,0|0,0|0,0|0,0
;   overrideFirmwareConfiguration,1
;   firmwareTypeOverride,RepRap (Marlin/Repetier/Sprinter)
;   GPXconfigOverride,r2
;   baudRateOverride,250000
;   overridePrinterModels,1
;   printerModelsOverride
;   startingGcode,G28 ; home all axes,G92 E0 ; zero the extruded length,G1 Z10 ; lower,G1 E20 F200 ; purge nozzle quickly,G1 E10 F60 ; purge nozzle slowly,G92 E0 ; zero the extruded length again,G1 E-1.5 F400 ; retract,G1 X170 Z0 F9000 ; pull away filament,G1 X180 F9000 ; wipe,G1 Y20 F9000 ; wipe,G1 E0 ; feed filament back
;   layerChangeGcode,
;   retractionGcode,
;   toolChangeGcode,
;   endingGcode,G28 X0 ; home the X-axis,M104 S0 ; turn off heaters,M140 S0 ; turn off bed,M84 ; disable motors
;   exportFileFormat,gcode
;   celebration,0
;   celebrationSong,Random Song
;   postProcessing,
;   defaultSpeed,2500
;   outlineUnderspeed,0.65
;   solidInfillUnderspeed,0.7
;   supportUnderspeed,0.7
;   rapidXYspeed,6000
;   rapidZspeed,1000
;   minBridgingArea,5
;   bridgingExtraInflation,0
;   bridgingExtrusionMultiplier,1
;   bridgingSpeedMultiplier,0.5
;   filamentDiameter,1.75
;   filamentPricePerKg,46
;   filamentDensity,1.25
;   useMinPrintHeight,0
;   minPrintHeight,0
;   useMaxPrintHeight,0
;   maxPrintHeight,0
;   useDiaphragm,0
;   diaphragmLayerInterval,20
;   robustSlicing,1
;   mergeAllIntoSolid,0
;   onlyRetractWhenCrossingOutline,1
;   retractBetweenLayers,0
;   useRetractionMinTravel,1
;   retractionMinTravel,0.02
;   retractWhileWiping,0
;   onlyWipeOutlines,1
;   avoidCrossingOutline,0
;   maxMovementDetourFactor,3
;   toolChangeRetractionDistance,12
;   toolChangeExtraRestartDistance,-0.5
;   toolChangeRetractionSpeed,600
;   allowThinWallGapFill,1
;   thinWallAllowedOverlapPercentage,10
;   horizontalSizeCompensation,0
G90
M82
M106 S0
M140 S100
M190 S100
M104 S230 T0
M109 S230 T0
G28 ; home all axes
G92 E0 ; zero the extruded length
G1 Z10 ; lower
G1 E20 F200 ; purge nozzle quickly
G1 E10 F60 ; purge nozzle slowly
G92 E0 ; zero the extruded length again
G1 E-1.5 F400 ; retract
G1 X170 Z0 F9000 ; pull away filament
G1 X180 F9000 ; wipe
G1 Y20 F9000 ; wipe
G1 E0 ; feed filament back
G92 E0
G1 E-1.5000 F2400
G1 Z0.195 F1000
; layer 1, Z = 0.195
T0
; tool H0.195 W0.400
; skirt
G1 X85.567 Y88.079 F6000
G1 E0.0000 F720
G92 E0
G1 X88.079 Y85.567 E0.1152 F750
G1 X88.299 Y85.476 E0.1229
G1 X111.701 Y85.476 E0.8818
G1 X111.921 Y85.567 E0.8895
G1 X114.433 Y88.079 E1.0047
G1 X114.524 Y88.299 E1.0125
G1 X114.524 Y111.701 E1.7714
G1 X114.433 Y111.921 E1.7791
G1 X111.921 Y114.433 E1.8943
G1 X111.701 Y114.524 E1.9020
G1 X88.299 Y114.524 E2.6609
G1 X88.079 Y114.433 E2.6686
G1 X85.567 Y111.921 E2.7838
G1 X85.476 Y111.701 E2.7916
G1 X85.476 Y88.299 E3.5504
G1 X85.490 Y88.264 E3.5517
G1 X85.567 Y88.079 F750
G1 X85.906 Y88.306 F6000
G92 E0
G1 X88.306 Y85.906 E0.1100 F750
G1 X88.379 Y85.876 E0.1126
G1 X111.621 Y85.876 E0.8663
G1 X111.694 Y85.906 E0.8689
G1 X114.094 Y88.306 E0.9789
G1 X114.124 Y88.379 E0.9815
G1 X114.124 Y111.621 E1.7352
G1 X114.094 Y111.694 E1.7378
G1 X111.694 Y114.094 E1.8478
G1 X111.621 Y114.124 E1.8504
G1 X88.379 Y114.124 E2.6041
G1 X88.306 Y114.094 E2.6067
G1 X85.906 Y111.694 E2.7168
G1 X85.876 Y111.621 E2.7193
G1 X85.876 Y88.499 E3.4691
G1 X85.876 Y88.379 F750
G1 X85.906 Y88.306 F750
G92 E0
G1 E-1.5000 F2400
; inner perimeter
G1 X90.676 Y90.676 F6000
G1 E0.0000 F2400
G92 E0
G1 X109.324 Y90.676 E0.6048 F619
G1 X109.324 Y109.324 E1.2095
G1 X90.676 Y109.324 E1.8143
G1 X90.676 Y90.876 E2.4125
G1 X90.676 Y90.676 F619
; outer perimeter
G1 X90.276 Y90.276 F6000
G92 E0
G1 X109.724 Y90.276 E0.6307 F488
G1 X109.724 Y109.724 E1.2614
G1 X90.276 Y109.724 E1.8921
G1 X90.276 Y90.476 E2.5163
G1 X90.276 Y90.276 F488
; solid layer
G1 X109.038 Y90.936 F6000
G92 E0
G1 X109.064 Y90.962 E0.0012 F525
G1 X109.064 Y91.528 E0.0196
G1 X108.472 Y90.936 E0.0467
G1 X107.906 Y90.936 E0.0651
G1 X109.064 Y92.094 E0.1182
G1 X109.064 Y92.659 E0.1365
G1 X107.341 Y90.936 E0.2156
G1 X106.775 Y90.936 E0.2339
G1 X109.064 Y93.225 E0.3389
G1 X109.064 Y93.791 E0.3573
G1 X106.209 Y90.936 E0.4882
G1 X105.643 Y90.936 E0.5066
G1 X109.064 Y94.356 E0.6634
G1 X109.064 Y94.922 E0.6818
G1 X105.078 Y90.936 E0.8646
G1 X104.512 Y90.936 E0.8830
G1 X109.064 Y95.488 E1.0917
G1 X109.064 Y96.054 E1.1101
G1 X103.946 Y90.936 E1.3448
G1 X103.381 Y90.936 E1.3631
G1 X109.064 Y96.619 E1.6238
G1 X109.064 Y97.185 E1.6421
G1 X102.815 Y90.936 E1.9287
G1 X102.249 Y90.936 E1.9471
G1 X109.064 Y97.751 E2.2596
G1 X109.064 Y98.316 E2.2780
G1 X101.684 Y90.936 E2.6164
G1 X101.118 Y90.936 E2.6348
G1 X109.064 Y98.882 E2.9992
G1 X109.064 Y99.448 E3.0176
G1 X100.552 Y90.936 E3.4079
G1 X99.987 Y90.936 E3.4263
G1 X109.064 Y100.013 E3.8426
G1 X109.064 Y100.579 E3.8609
G1 X99.421 Y90.936 E4.3032
G1 X98.855 Y90.936 E4.3215
G1 X109.064 Y101.145 E4.7897
G1 X109.064 Y101.710 E4.8081
G1 X98.290 Y90.936 E5.3022
G1 X97.724 Y90.936 E5.3206
G1 X109.064 Y102.276 E5.8406
G1 X109.064 Y102.842 E5.8590
G1 X97.158 Y90.936 E6.4050
G1 X96.593 Y90.936 E6.4233
G1 X109.064 Y103.407 E6.9953
G1 X109.064 Y103.973 E7.0137
G1 X96.027 Y90.936 E7.6116
G1 X95.461 Y90.936 E7.6299
G1 X109.064 Y104.539 E8.2538
G1 X109.064 Y105.105 E8.2721
G1 X94.895 Y90.936 E8.9219
G1 X94.330 Y90.936 E8.9403
G1 X109.064 Y105.670 E9.6160
G1 X109.064 Y106.236 E9.6343
G1 X93.764 Y90.936 E10.3360
G1 X93.198 Y90.936 E10.3544
G1 X109.064 Y106.802 E11.0820
G1 X109.064 Y107.367 E11.1003
G1 X92.633 Y90.936 E11.8539
G1 X92.067 Y90.936 E11.8723
G1 X109.064 Y107.933 E12.6518
G1 X109.064 Y108.499 E12.6701
G1 X91.501 Y90.936 E13.4756
G1 X90.936 Y90.936 E13.4939
G1 X109.064 Y109.064 E14.3253
G1 X108.499 Y109.064 E14.3437
G1 X90.936 Y91.501 E15.1491
G1 X90.936 Y92.067 E15.1675
G1 X107.933 Y109.064 E15.9470
G1 X107.367 Y109.064 E15.9653
G1 X90.936 Y92.633 E16.7189
G1 X90.936 Y93.198 E16.7372
G1 X106.802 Y109.064 E17.4649
G1 X106.236 Y109.064 E17.4832
G1 X90.936 Y93.764 E18.1849
G1 X90.936 Y94.330 E18.2032
G1 X105.670 Y109.064 E18.8790
G1 X105.105 Y109.064 E18.8973
G1 X90.936 Y94.895 E19.5471
G1 X90.936 Y95.461 E19.5655
G1 X104.539 Y109.064 E20.1893
G1 X103.973 Y109.064 E20.2077
G1 X90.936 Y96.027 E20.8056
G1 X90.936 Y96.592 E20.8239
G1 X103.407 Y109.064 E21.3959
G1 X102.842 Y109.064 E21.4142
G1 X90.936 Y97.158 E21.9603
G1 X90.936 Y97.724 E21.9786
G1 X102.276 Y109.064 E22.4987
G1 X101.710 Y109.064 E22.5170
G1 X90.936 Y98.290 E23.0112
G1 X90.936 Y98.855 E23.0295
G1 X101.145 Y109.064 E23.4977
G1 X100.579 Y109.064 E23.5161
G1 X90.936 Y99.421 E23.9583
G1 X90.936 Y99.987 E23.9767
G1 X100.013 Y109.064 E24.3930
G1 X99.448 Y109.064 E24.4113
G1 X90.936 Y100.552 E24.8017
G1 X90.936 Y101.118 E24.8200
G1 X98.882 Y109.064 E25.1845
G1 X98.316 Y109.064 E25.2028
G1 X90.936 Y101.684 E25.5413
G1 X90.936 Y102.249 E25.5596
G1 X97.751 Y109.064 E25.8722
G1 X97.185 Y109.064 E25.8905
G1 X90.936 Y102.815 E26.1771
G1 X90.936 Y103.381 E26.1955
G1 X96.619 Y109.064 E26.4561
G1 X96.054 Y109.064 E26.4745
G1 X90.936 Y103.946 E26.7092
G1 X90.936 Y104.512 E26.7275
G1 X95.488 Y109.064 E26.9363
G1 X94.922 Y109.064 E26.9546
G1 X90.936 Y105.078 E27.1375
G1 X90.936 Y105.643 E27.1558
G1 X94.357 Y109.064 E27.3127
G1 X93.791 Y109.064 E27.3310
G1 X90.936 Y106.209 E27.4620
G1 X90.936 Y106.775 E27.4803
G1 X93.225 Y109.064 E27.5853
G1 X92.659 Y109.064 E27.6037
G1 X90.936 Y107.341 E27.6827
G1 X90.936 Y107.906 E27.7011
G1 X92.094 Y109.064 E27.7542
G1 X91.528 Y109.064 E27.7725
G1 X90.936 Y108.472 E27.7997
G1 X90.936 Y108.875 E27.8128
G1 X90.936 Y109.038 F525
G1 X90.962 Y109.064 F525
; layer 2, Z = 0.345
; tool H0.150 W0.400
; inner perimeter
G1 X90.676 Y109.324 F6000
G1 Z0.345 F1000
G92 E0
G1 X90.676 Y90.676 E0.4652 F2062
G1 X109.324 Y90.676 E0.9304
G1 X109.324 Y109.324 E1.3956
G1 X90.876 Y109.324 E1.8558
G1 X90.676 Y109.324 F2062
; outer perimeter
G1 X90.276 Y109.724 F6000
G92 E0
G1 X90.276 Y90.276 E0.4851 F1625
G1 X109.724 Y90.276 E0.9703
G1 X109.724 Y109.724 E1.4554
G1 X90.476 Y109.724 E1.9356
G1 X90.276 Y109.724 F1625
; solid layer
G1 X90.936 Y90.962 F6000
G92 E0
G1 X90.962 Y90.936 E0.0009 F1750
G1 X91.528 Y90.936 E0.0151
G1 X90.936 Y91.528 E0.0360
G1 X90.936 Y92.094 E0.0501
G1 X92.094 Y90.936 E0.0909
G1 X92.659 Y90.936 E0.1050
G1 X90.936 Y92.659 E0.1658
G1 X90.936 Y93.225 E0.1800
G1 X93.225 Y90.936 E0.2607
G1 X93.791 Y90.936 E0.2748
G1 X90.936 Y93.791 E0.3756
G1 X90.936 Y94.357 E0.3897
G1 X94.357 Y90.936 E0.5104
G1 X94.922 Y90.936 E0.5245
G1 X90.936 Y94.922 E0.6651
G1 X90.936 Y95.488 E0.6792
G1 X95.488 Y90.936 E0.8398
G1 X96.054 Y90.936 E0.8539
G1 X90.936 Y96.054 E1.0345
G1 X90.936 Y96.619 E1.0486
G1 X96.619 Y90.936 E1.2491
G1 X97.185 Y90.936 E1.2632
G1 X90.936 Y97.185 E1.4837
G1 X90.936 Y97.751 E1.4978
G1 X97.751 Y90.936 E1.7382
G1 X98.316 Y90.936 E1.7523
G1 X90.936 Y98.316 E2.0127
G1 X90.936 Y98.882 E2.0268
G1 X98.882 Y90.936 E2.3071
G1 X99.448 Y90.936 E2.3212
G1 X90.936 Y99.448 E2.6215
G1 X90.936 Y100.013 E2.6356
G1 X100.013 Y90.936 E2.9559
G1 X100.579 Y90.936 E2.9700
G1 X90.936 Y100.579 E3.3102
G1 X90.936 Y101.145 E3.3243
G1 X101.145 Y90.936 E3.6844
G1 X101.710 Y90.936 E3.6985
G1 X90.936 Y101.710 E4.0787
G1 X90.936 Y102.276 E4.0928
G1 X102.276 Y90.936 E4.4928
G1 X102.842 Y90.936 E4.5069
G1 X90.936 Y102.842 E4.9270
G1 X90.936 Y103.408 E4.9411
G1 X103.408 Y90.936 E5.3811
G1 X103.973 Y90.936 E5.3952
G1 X90.936 Y103.973 E5.8551
G1 X90.936 Y104.539 E5.8692
G1 X104.539 Y90.936 E6.3491
G1 X105.105 Y90.936 E6.3632
G1 X90.936 Y105.105 E6.8631
G1 X90.936 Y105.670 E6.8772
G1 X105.670 Y90.936 E7.3970
G1 X106.236 Y90.936 E7.4111
G1 X90.936 Y106.236 E7.9508
G1 X90.936 Y106.802 E7.9650
G1 X106.802 Y90.936 E8.5247
G1 X107.367 Y90.936 E8.5388
G1 X90.936 Y107.367 E9.1185
G1 X90.936 Y107.933 E9.1326
G1 X107.933 Y90.936 E9.7322
G1 X108.499 Y90.936 E9.7463
G1 X90.936 Y108.499 E10.3659
G1 X90.936 Y109.064 E10.3800
G1 X109.064 Y90.936 E11.0195
G1 X109.064 Y91.501 E11.0336
G1 X91.501 Y109.064 E11.6532
G1 X92.067 Y109.064 E11.6673
G1 X109.064 Y92.067 E12.2670
G1 X109.064 Y92.633 E12.2811
G1 X92.633 Y109.064 E12.8607
G1 X93.198 Y109.064 E12.8749
G1 X109.064 Y93.198 E13.4346
G1 X109.064 Y93.764 E13.4487
G1 X93.764 Y109.064 E13.9884
G1 X94.330 Y109.064 E14.0025
G1 X109.064 Y94.330 E14.5223
G1 X109.064 Y94.895 E14.5365
G1 X94.895 Y109.064 E15.0363
G1 X95.461 Y109.064 E15.0504
G1 X109.064 Y95.461 E15.5303
G1 X109.064 Y96.027 E15.5444
G1 X96.027 Y109.064 E16.0043
G1 X96.593 Y109.064 E16.0184
G1 X109.064 Y96.593 E16.4584
G1 X109.064 Y97.158 E16.4725
G1 X97.158 Y109.064 E16.8926
G1 X97.724 Y109.064 E16.9067
G1 X109.064 Y97.724 E17.3067
G1 X109.064 Y98.290 E17.3208
G1 X98.290 Y109.064 E17.7009
G1 X98.855 Y109.064 E17.7151
G1 X109.064 Y98.855 E18.0752
G1 X109.064 Y99.421 E18.0893
G1 X99.421 Y109.064 E18.4295
G1 X99.987 Y109.064 E18.4436
G1 X109.064 Y99.987 E18.7639
G1 X109.064 Y100.552 E18.7780
G1 X100.552 Y109.064 E19.0783
G1 X101.118 Y109.064 E19.0924
G1 X109.064 Y101.118 E19.3727
G1 X109.064 Y101.684 E19.3868
G1 X101.684 Y109.064 E19.6472
G1 X102.249 Y109.064 E19.6613
G1 X109.064 Y102.249 E19.9017
G1 X109.064 Y102.815 E19.9158
G1 X102.815 Y109.064 E20.1363
G1 X103.381 Y109.064 E20.1504
G1 X109.064 Y103.381 E20.3509
G1 X109.064 Y103.946 E20.3650
G1 X103.946 Y109.064 E20.5455
G1 X104.512 Y109.064 E20.5597
G1 X109.064 Y104.512 E20.7202
G1 X109.064 Y105.078 E20.7344
G1 X105.078 Y109.064 E20.8750
G1 X105.644 Y109.064 E20.8891
G1 X109.064 Y105.644 E21.0098
G1 X109.064 Y106.209 E21.0239
G1 X106.209 Y109.064 E21.1246
G1 X106.775 Y109.064 E21.1387
G1 X109.064 Y106.775 E21.2195
G1 X109.064 Y107.341 E21.2336
G1 X107.341 Y109.064 E21.2944
G1 X107.906 Y109.064 E21.3085
G1 X109.064 Y107.906 E21.3494
G1 X109.064 Y108.472 E21.3635
G1 X108.472 Y109.064 E21.3844
G1 X108.875 Y109.064 E21.3944
G1 X109.038 Y109.064 F1750
G1 X109.064 Y109.038 F1750
; layer 3, Z = 0.495
; inner perimeter
G1 X109.324 Y109.324 F6000
G1 Z0.495 F1000
G92 E0
G1 X90.676 Y109.324 E0.4652 F2062
G1 X90.676 Y90.676 E0.9304
G1 X109.324 Y90.676 E1.3956
G1 X109.324 Y109.124 E1.8558
G1 X109.324 Y109.324 F2062
; outer perimeter
G1 X109.724 Y109.724 F6000
G92 E0
G1 X90.276 Y109.724 E0.4851 F1625
G1 X90.276 Y90.276 E0.9703
G1 X109.724 Y90.276 E1.4554
G1 X109.724 Y109.524 E1.9356
G1 X109.724 Y109.724 F1625
; solid layer
G1 X90.962 Y109.064 F6000
G92 E0
G1 X90.936 Y109.038 E0.0009 F1750
G1 X90.936 Y108.472 E0.0151
G1 X91.528 Y109.064 E0.0360
G1 X92.094 Y109.064 E0.0501
G1 X90.936 Y107.906 E0.0909
G1 X90.936 Y107.341 E0.1050
G1 X92.659 Y109.064 E0.1658
G1 X93.225 Y109.064 E0.1800
G1 X90.936 Y106.775 E0.2607
G1 X90.936 Y106.209 E0.2748
G1 X93.791 Y109.064 E0.3756
